P3
# 8-bit ppm - RGB
70 84
255
 94 107  59  92 106  58  88 102  57  84  99  55  83  97  53  83  97  51  81  94  49  77
 91  48  76  90  47  79  92  48  82  94  49  85  98  51  87 101  52  86 100  52  81  96
 51  80  95  52  83 100  54  85 102  55  78  95  53  68  86  51  64  80  51  66  80  54
 66  79  54  65  79  52  66  81  50  68  84  52  74  88  56  91  98  65 110 109  75 120
114  80 121 111  79 119 106  77 115 102  75 109  98  72 100  90  67  90  80  59  84  75
 56  87  79  60  91  85  65  91  88  67  91  89  68  87  90  66  82  88  63  77  86  59
 74  84  55  71  82  51  68  80  50  66  79  49  67  81  49  70  85  49  70  86  49  68
 84  50  62  79  50  52  67  44  39  54  37  45  63  36  59  82  40  70  94  42  77  99
 44  81 102  45  81 101  45  79  98  45  79  98  46  81 100  49  82 100  50  84  98  51
 82  93  50  69  77  47  52  56  43  42  43  41
 93 106  60  92 105  59  88 102  57  84  99  55  83  98  53  82  96  50  80  94  48  77
 91  47  76  90  47  78  91  48  80  93  49  83  96  50  84  99  51  83  98  51  79  94
 50  79  94  51  83  99  53  85 102  55  81  98  55  74  91  54  72  87  55  72  86  57
 72  85  57  69  84  54  69  84  52  70  85  53  75  88  57  92  97  66 110 108  76 120
112  81 120 109  80 117 104  77 113 101  75 108  98  73 100  91  67  90  81  60  83  76
 56  85  79  59  86  83  63  87  85  64  86  87  64  84  89  63  80  89  60  76  88  57
 74  87  53  71  85  50  68  83  48  66  81  47  67  83  47  71  87  48  71  88  49  67
 84  49  61  79  48  52  69  43  42  60  38  48  68  37  62  83  41  72  94  43  77  98
 44  81 100  45  80  98  45  78  95  45  77  94  46  78  95  47  78  95  48  80  94  48
 78  89  47  67  75  45  50  55  42  42  44  41
 93 103  63  92 103  62  90 102  59  86 101  56  83  98  52  80  95  48  78  93  46  77
 92  46  76  91  47  76  91  47  76  91  48  77  93  48  79  95  49  78  94  49  75  90
 48  77  91  49  83  97  51  88 102  54  89 104  58  88 104  61  87 103  64  86 100  66
 84  97  65  79  94  59  75  91  55  75  89  56  78  89  60  94  96  69 111 105  79 120
109  84 118 105  83 113 100  80 110  98  77 107  97  74  99  92  69  90  85  62  82  80
 57  78  78  56  75  78  56  73  80  56  73  82  55  73  86  54  74  90  53  75  92  51
 74  92  50  73  91  47  70  89  45  67  86  42  67  88  43  71  93  45  71  92  46  64
 85  45  57  77  44  52  72  41  49  71  38  57  78  39  68  88  43  76  95  45  79  97
 46  80  97  46  78  93  46  75  87  46  72  84  45  70  83  43  68  82  41  70  83  41
 68  80  40  60  69  40  48  53  41  42  45  41
 91 100  64  91 100  62  89 101  60  87 101  56  82  98  51  77  93  46  75  91  44  74
 90  45  73  90  46  72  89  47  71  88  47  71  88  47  71  89  46  71  88  46  70  85
 46  74  87  48  82  93  51  89 101  55  94 108  61  96 112  67  97 112  70  95 109  71
 91 104  69  86 100  63  81  96  58  80  92  59  82  89  63  95  93  71 110 101  80 117
104  85 113 100  83 107  95  80 105  94  77 103  94  74  96  91  68  88  87  62  79  82
 56  70  78  52  62  75  49  59  75  46  60  78  44  64  85  44  71  92  45  75  97  46
 76  98  46  75  97  45  71  94  42  67  90  39  67  92  40  72  97  44  72  97  45  64
 87  43  56  78  41  54  77  40  55  80  40  62  84  41  72  90  45  77  93  46  79  93
 46  78  91  46  75  85  46  71  77  47  65  71  44  60  68  38  56  67  34  58  70  32
 58  70  32  52  62  35  45  51  39  41  46  41
 85  95  58  85  96  57  85  97  56  84  98  54  80  94  50  75  89  46  71  86  44  68
 83  44  66  82  45  66  83  45  65  83  46  62  82  45  59  80  43  59  77  43  60  75
 44  67  79  48  76  88  53  85  98  58  91 105  63  94 110  66  94 111  68  92 107  67
 90 102  66  87 100  63  85  97  62  85  92  63  86  88  66  93  89  71 101  94  77 104
 95  79 100  91  78  95  88  75  92  86  72  91  85  68  86  84  63  80  83  58  73  81
 52  65  78  47  59  76  41  58  77  36  61  81  33  68  89  32  76  98  35  81 103  38
 81 103  40  79 102  41  73  97  41  65  91  41  66  91  43  74  97  47  76  98  48  71
 93  47  65  88  45  62  85  43  60  84  42  63  83  42  67  83  44  71  83  45  72  84
 46  72  82  46  69  77  47  65  69  47  58  61  42  50  55  34  45  53  28  50  61  28
 54  65  30  49  59  34  42  49  38  39  44  40
 78  90  50  79  91  51  80  93  51  80  93  51  76  90  49  72  85  46  66  79  44  61
 74  43  57  72  43  59  76  44  60  79  45  55  75  44  49  70  42  48  67  43  52  67
 45  60  73  49  72  84  56  81  94  62  85 101  64  87 104  63  87 103  63  84  99  60
 83  95  60  85  96  62  88  95  64  89  91  66  89  86  69  90  85  70  90  86  71  88
 85  71  85  83  70  81  80  68  78  78  64  76  76  60  73  76  55  71  78  52  67  79
 47  63  78  41  61  79  35  63  82  29  68  85  25  75  94  26  83 102  30  87 107  35
 86 107  39  82 104  43  74  97  44  64  89  45  66  89  48  75  95  51  79  99  52  77
 98  52  73  96  50  68  91  47  63  84  43  60  77  42  60  72  42  60  69  43  63  72
 44  64  72  45  62  68  46  58  62  46  51  54  41  40  44  31  36  43  25  47  56  27
 53  63  31  49  58  35  41  48  37  37  43  39
 77  91  49  76  91  49  76  91  49  74  89  49  69  84  46  63  78  44  56  71  42  51
 65  42  49  63  42  53  69  44  58  74  46  59  73  47  59  72  50  64  74  53  70  77
 56  77  83  60  82  90  63  85  95  65  84  97  64  82  97  61  77  92  56  71  84  52
 70  80  51  76  83  57  82  86  62  85  85  65  86  82  66  84  80  65  79  79  63  76
 79  61  75  79  60  74  79  58  71  77  53  68  75  49  67  76  46  68  80  46  67  82
 45  63  82  42  62  82  41  65  85  42  70  89  44  75  95  50  80 100  55  83 103  61
 81 103  67  78 100  70  72  94  66  66  87  59  68  86  55  75  91  54  77  93  53  73
 92  50  67  89  48  61  82  44  56  74  41  51  65  38  49  59  38  48  55  38  50  57
 39  52  59  40  52  57  41  52  54  42  46  48  38  35  39  30  33  42  25  46  58  29
 53  67  34  50  63  36  42  52  38  39  48  39
 81  96  52  79  94  51  75  92  50  68  87  47  59  78  43  47  69  39  38  61  37  35
 55  38  39  55  40  48  61  42  58  69  47  68  76  53  76  82  59  86  89  65  95  96
 69  99 100  71  97 101  71  94  99  68  87  95  64  80  89  58  68  78  51  54  62  42
 48  53  41  60  62  49  70  71  57  74  74  59  76  76  60  75  76  58  72  76  54  71
 77  50  75  81  48  77  83  44  74  82  39  71  80  34  70  82  34  73  86  38  72  88
 42  67  86  45  64  85  50  66  88  57  71  92  64  72  94  72  72  94  79  71  93  86
 68  92  93  66  91  96  67  88  87  70  84  73  71  84  62  73  86  57  69  84  50  60
 76  45  48  66  40  41  58  37  38  52  35  35  46  33  34  42  33  35  41  32  35  43
 31  38  45  30  43  47  33  48  48  37  45  47  35  37  43  30  37  50  29  48  65  33
 55  74  37  52  70  39  45  60  40  43  56  41
 80  96  53  78  94  53  73  91  51  68  86  49  61  79  47  56  72  46  55  67  46  58
 66  48  62  67  50  65  71  50  71  77  53  81  84  60  91  91  67 100  99  72 107 105
 76 108 107  76 103 103  72  95  97  67  86  88  60  74  78  52  58  61  42  36  38  32
 27  26  30  48  48  42  64  64  51  70  72  54  73  77  55  73  78  54  69  76  50  69
 78  48  74  84  49  78  89  49  76  88  48  72  86  48  71  86  52  72  89  57  70  90
 63  65  87  68  62  86  73  63  88  80  66  90  86  65  89  93  61  86  99  60  84 104
 63  85 109  66  85 108  68  81  96  70  77  76  71  78  62  73  82  60  68  80  53  55
 68  44  37  53  35  28  43  31  25  37  31  25  35  30  29  38  30  30  40  29  28  39
 26  29  40  24  36  44  28  44  49  32  46  53  33  44  55  32  47  63  33  54  75  37
 58  81  39  55  76  41  48  65  41  46  60  41
 72  90  51  72  90  51  70  89  51  71  89  53  77  88  57  83  87  61  89  89  65  94
 91  67  96  94  67  93  94  64  91  95  62  95  96  65 100  98  70 104 101  73 106 105
 75 104 103  73  97  95  67  87  85  58  77  74  49  66  63  40  51  48  28  32  29  18
 32  32  18  55  57  32  71  74  43  78  83  48  82  88  51  81  88  53  75  83  52  73
 83  56  78  91  62  81  96  68  78  95  73  74  92  77  69  89  82  65  87  86  60  85
 91  57  84  95  55  83  99  54  82 102  55  81 104  52  79 108  45  77 112  52  78 114
 70  84 114  81  87 109  76  78  92  65  65  68  66  69  55  75  83  62  74  86  60  62
 77  48  46  64  33  36  54  29  32  47  31  33  46  31  40  53  31  42  55  30  38  53
 28  34  51  27  36  54  28  40  58  29  47  65  32  54  72  35  59  79  37  62  86  39
 63  88  40  58  80  40  51  67  39  48  61  39
 69  85  51  71  87  53  74  90  55  81  94  60  93  97  67 104 101  74 112 105  78 116
108  79 116 110  78 111 110  74 106 108  70 106 105  71 107 103  73 106 101  73 103 102
 72  98  98  68  90  88  60  81  76  51  71  64  43  61  54  36  49  43  29  37  37  25
 42  47  28  61  67  38  76  83  47  83  91  53  87  95  58  85  94  63  78  88  65  75
 87  72  77  94  80  79  99  88  76  98  94  72  94  98  65  89 103  56  84 106  48  80
110  47  80 114  47  79 117  44  75 118  40  72 118  39  71 119  36  73 122  53  77 120
 79  85 115  92  88 105  81  73  85  59  50  56  59  59  47  76  83  64  80  92  67  72
 86  54  60  78  38  51  69  32  43  61  33  44  61  33  52  69  33  54  71  33  49  67
 33  45  64  32  43  64  31  43  67  30  51  74  32  61  82  37  67  89  40  69  92  40
 68  92  40  62  82  39  53  67  38  49  60  38
 77  88  58  81  90  61  88  95  66  97 101  72 107 106  78 116 109  83 120 112  84 120
112  82 119 112  80 115 111  78 111 110  76 110 107  75 109 105  74 104 101  71  97  98
 67  91  94  62  89  91  57  86  85  54  78  77  53  69  69  54  60  63  54  53  60  53
 54  65  57  65  76  63  74  86  70  79  91  76  81  93  81  78  92  86  72  86  89  67
 84  95  67  88 101  66  91 106  64  89 109  61  85 111  55  81 113  48  78 115  42  76
118  42  76 120  42  76 122  35  71 122  28  67 121  40  71 122  56  80 124  71  85 119
 86  87 108  92  84  93  77  66  71  48  37  45  52  51  44  77  80  66  86  93  72  84
 94  63  78  91  51  68  85  42  57  77  36  55  78  33  62  84  36  65  85  38  62  81
 38  59  76  38  57  74  37  57  74  35  59  77  36  63  82  36  67  86  38  72  90  40
 73  90  42  66  79  41  55  63  38  50  55  38
 89  93  67  93  96  70 102 102  76 111 107  82 118 112  86 122 115  88 122 114  86 117
110  81 113 108  78 112 107  79 111 106  79 110 106  78 108 105  75 101 100  69  91  95
 61  85  92  56  90  96  57  93  97  60  87  93  66  78  86  72  71  80  75  65  78  75
 63  78  79  66  82  85  70  86  91  71  87  96  70  88 100  67  86 105  61  82 108  55
 80 113  51  79 117  47  77 120  45  75 120  44  72 119  42  71 119  41  72 119  40  72
120  40  73 121  40  73 121  31  70 121  22  67 120  50  76 120  76  89 122  89  94 115
 92  88  98  88  78  76  69  58  55  37  29  37  46  45  44  76  76  67  90  92  75  93
 99  70  91 101  62  82  97  51  68  89  39  64  90  34  70  95  39  72  95  42  71  90
 42  70  84  42  70  82  42  70  80  42  67  78  40  63  77  36  63  78  35  72  84  40
 77  86  44  69  75  42  56  58  39  50  50  38
110 106  76 113 108  78 120 112  85 124 115  90 124 115  90 120 113  87 114 108  82 106
102  75 102  98  71 103  99  73 106 101  75 108 103  77 109 105  78 104 103  73  96  97
 63  89  95  58  90  97  61  89  98  69  83  94  80  75  88  89  68  83  94  63  81  95
 60  80  98  60  81 102  60  81 107  59  81 110  57  80 112  54  79 116  50  78 119  45
 76 122  40  73 125  35  71 126  34  69 125  35  68 124  36  69 123  38  70 123  39  71
123  38  71 124  38  71 124  37  72 123  41  73 122  66  83 120  90  95 118  99  97 108
 92  87  88  80  71  64  62  54  47  39  36  42  46  45  48  69  66  63  83  83  71  92
 96  72  95 103  69  85  98  58  69  89  41  63  88  34  68  92  40  71  92  42  71  89
 42  73  86  43  78  87  46  82  88  49  80  85  47  71  79  41  69  76  38  76  82  41
 80  84  44  71  74  43  58  59  41  52  51  40
130 120  83 131 121  85 134 123  92 134 122  95 124 115  90 110 104  81  97  94  73  88
 87  65  84  83  60  89  87  61  96  93  65 103 100  74 110 106  82 110 107  80 107 105
 70 100 101  66  90  97  68  79  92  76  69  86  90  62  81 102  54  77 108  50  75 109
 46  73 111  46  73 114  45  72 117  44  72 118  42  72 118  41  72 120  40  73 122  39
 73 124  39  72 125  38  72 125  38  72 125  38  72 124  40  73 125  42  74 125  42  74
126  37  72 126  37  72 126  48  77 126  61  83 125  82  91 120 100  99 112 104  97  99
 88  83  81  67  65  59  56  55  51  51  50  54  51  49  54  56  52  55  67  66  60  83
 87  69  90  98  73  81  92  62  63  79  42  55  74  33  58  76  38  62  78  40  64  79
 39  70  82  40  82  89  48  92  95  55  91  92  54  82  84  47  77  79  43  80  83  43
 81  84  44  73  75  43  61  63  42  56  58  42
138 125  87 138 125  89 139 126  94 136 124  95 122 112  87 101  97  75  84  83  64  75
 76  57  72  73  52  79  79  52  89  88  57 101  98  70 110 106  82 113 109  83 110 106
 75 101 101  74  84  92  78  63  82  87  52  77 101  49  75 113  43  72 119  39  71 119
 36  70 120  35  68 122  34  67 124  32  67 124  30  67 123  31  68 124  33  70 125  36
 71 126  38  71 125  39  72 125  39  73 125  40  74 125  41  75 126  44  75 127  44  75
127  35  71 126  38  71 125  58  79 124  76  88 122  92  95 115 104  99 105 104  96  92
 85  81  77  60  64  63  55  59  61  60  61  65  56  55  61  48  43  52  53  51  52  73
 76  65  83  89  72  76  85  63  62  73  47  55  67  39  56  65  40  59  67  41  64  73
 39  71  80  41  83  89  49  92  96  55  92  94  55  85  86  50  80  81  45  80  83  44
 79  83  42  71  75  42  61  64  42  56  59  42
132 121  86 132 120  87 133 122  91 130 119  91 117 108  83  98  92  70  84  81  60  79
 76  56  77  76  53  81  80  51  89  87  54 101  98  66 111 106  77 112 107  80 106 102
 76  94  94  79  72  82  86  44  69  96  36  68 107  42  71 117  41  72 122  39  71 122
 37  71 123  37  71 125  37  70 126  36  70 126  36  71 125  36  71 126  37  71 126  38
 71 126  39  72 125  39  73 124  39  73 124  39  73 125  41  74 126  45  76 128  44  75
127  28  68 124  24  64 118  51  69 111  72  76 103  86  84  96  96  91  94  96  91  88
 82  81  81  66  69  74  63  66  72  65  67  72  60  60  66  50  47  56  50  48  51  64
 65  59  73  76  64  71  78  61  65  75  54  63  72  49  64  67  46  67  68  44  73  76
 45  78  83  47  80  87  49  81  89  50  81  89  49  80  86  48  78  83  45  76  84  43
 73  82  40  65  73  39  56  61  39  51  56  39
120 111  82 120 111  82 120 112  84 117 110  83 107 101  75  95  89  65  87  83  59  85
 82  58  85  83  56  87  86  53  91  90  54 101  98  62 109 104  71 107 103  76  98  96
 78  82  85  85  57  71  95  20  58 105  18  61 114  38  69 120  41  72 124  39  72 124
 39  72 124  40  73 125  41  73 126  41  74 126  41  74 126  41  73 126  41  72 126  41
 72 126  40  73 124  39  74 123  39  74 123  40  73 125  41  73 126  42  75 127  43  75
126  37  71 122  46  71 116  74  81 110  95  92 103 100  95  97  95  92  93  88  88  89
 80  83  88  73  77  86  71  74  83  70  73  80  65  66  73  56  56  63  52  50  55  56
 54  55  61  61  56  66  70  59  70  78  61  72  78  58  71  71  52  73  71  47  78  78
 49  80  84  50  74  83  47  65  79  43  65  80  42  71  82  44  73  83  43  70  82  41
 65  79  38  58  69  37  49  57  36  45  50  36
 99  94  69  98  93  68  95  93  67  92  93  66  89  91  63  88  89  60  89  90  60  93
 94  62  96  97  62  96  98  59  96  98  56  99  99  59 101 100  64  95  95  74  83  87
 83  67  77  95  47  68 105  24  61 113  25  64 119  37  70 122  40  72 124  39  72 124
 39  72 124  39  72 124  40  72 125  40  72 124  40  73 124  40  72 123  41  72 123  40
 72 123  39  73 122  38  73 122  41  74 123  44  75 125  39  72 125  22  68 124  36  71
122  56  77 120  83  92 121 120 119 133 145 140 143 140 135 135 109 109 112  82  86  93
 79  85  94  79  85  95  76  81  91  74  78  86  70  72  79  65  65  71  59  58  63  53
 51  55  53  51  51  64  65  59  75  79  67  77  81  66  73  75  56  70  72  48  69  74
 46  67  74  44  59  70  40  49  64  36  49  66  35  58  72  38  61  74  39  60  74  37
 57  71  35  51  62  34  43  49  33  39  43  32
 71  73  51  69  72  49  61  70  44  57  72  41  68  80  48  80  90  56  92  99  62 100
105  67 105 108  68 104 108  64 101 106  59  96 100  57  90  93  59  79  85  73  65  77
 88  50  70 103  43  69 112  38  70 120  38  71 122  40  73 123  40  73 123  39  72 123
 38  71 123  38  70 123  37  70 122  38  70 122  38  70 121  38  70 120  39  71 119  39
 71 119  37  72 120  38  73 121  44  75 123  49  77 126  37  72 124   0  58 119  32  68
119  77  89 121 116 116 132 157 153 159 185 179 181 174 170 172 128 128 135  82  89 102
 80  88 101  83  91 102  80  87  96  78  83  91  74  77  84  73  73  79  67  66  71  55
 53  58  49  47  50  64  63  60  79  79  72  81  83  70  74  79  60  65  74  49  57  69
 42  47  62  35  38  54  31  33  48  30  35  50  30  42  59  32  47  63  33  50  64  33
 50  62  33  45  53  32  37  42  30  33  36  30
 64  74  44  62  74  42  52  72  35  49  73  32  62  82  41  76  91  52  89 101  60  99
109  66 103 112  67 100 109  61  94 103  55  85  94  57  73  83  63  60  74  80  48  69
 96  37  66 109  38  69 116  41  72 121  41  72 123  40  73 123  39  72 123  38  72 123
 37  71 123  37  71 123  37  70 122  38  70 121  39  70 121  39  71 120  39  71 120  39
 72 120  39  73 121  40  74 122  45  77 125  50  79 128  35  71 123   0  46 113  56  77
120 118 122 139 162 159 163 198 194 195 220 217 217 207 204 206 159 158 165 108 111 125
 94 100 113  86  95 106  81  90 100  82  89  97  80  84  92  78  81  87  73  73  78  61
 61  66  53  52  56  63  60  61  75  73  70  80  81  70  80  87  66  75  88  59  64  82
 47  51  73  35  43  63  31  40  54  34  39  53  35  42  58  36  44  61  36  46  60  34
 46  57  32  42  51  31  36  43  32  34  39  32
 82  94  53  81  93  52  77  92  48  74  92  46  74  92  47  77  93  50  84  99  56  92
108  62  94 109  62  88 103  52  79  93  46  67  82  58  54  71  73  43  65  89  40  66
102  38  67 112  38  69 116  39  70 118  39  71 120  39  71 121  39  72 123  37  72 124
 37  72 124  37  72 124  37  72 124  39  72 123  41  72 123  41  72 123  40  73 124  40
 74 124  41  75 125  43  76 126  46  79 129  48  81 131  28  70 124   0  23 105  74  86
121 151 150 159 198 195 194 229 227 225 246 245 245 231 230 232 185 184 190 134 134 146
108 112 124  85  95 107  78  89 100  85  93 102  84  90  98  81  85  92  76  78  84  69
 70  75  62  63  66  62  59  62  66  60  63  76  76  66  87  96  72  89 104  70  80 100
 56  69  92  39  62  83  37  59  74  42  56  68  44  56  69  45  54  66  44  51  63  38
 47  59  33  43  55  33  41  51  36  40  49  37
 87 100  55  86 100  54  85 101  53  83 100  52  80  97  50  77  94  50  78  97  52  84
103  56  83 103  56  74  93  47  62  81  48  48  71  68  33  63  86  26  60 101  33  65
110  37  68 117  38  69 118  38  70 119  39  71 120  39  71 122  39  72 124  38  73 125
 37  73 125  38  73 125  38  73 124  40  73 124  42  73 124  42  74 125  40  75 126  41
 76 127  44  77 127  46  77 127  40  77 128  36  76 128  49  77 125  54  70 115 122 123
142 185 183 186 227 225 222 249 247 244 255 255 255 243 242 244 208 206 210 166 164 173
132 134 144  94 103 116  81  92 105  89  98 108  87  94 103  84  90  98  79  84  90  75
 78  83  70  72  75  64  60  66  59  50  58  70  70  62  87  96  73  94 108  74  89 109
 63  82 106  49  75  97  45  69  85  46  64  76  47  63  75  49  59  70  47  52  64  40
 45  58  32  42  54  33  42  52  37  41  51  38
 79  94  51  80  95  51  80  98  52  80  99  52  79  98  52  77  95  52  76  94  50  76
 94  47  71  90  48  63  82  48  52  73  59  43  68  82  35  66 101  32  66 112  35  68
117  37  70 122  38  71 122  39  72 123  39  72 124  39  73 125  39  73 126  39  73 126
 40  73 126  40  73 124  40  73 123  41  73 123  41  74 124  41  74 125  40  74 125  42
 76 126  48  79 127  49  79 127   8  65 120   0  51 114  66  83 123 113 113 135 166 162
169 213 211 212 244 243 241 251 249 247 248 244 243 237 233 233 221 217 220 194 191 196
154 156 165 105 114 131  86  98 115  93 103 114  88  98 108  85  94 103  81  89  96  79
 84  90  75  77  82  66  64  70  57  50  58  63  61  58  78  83  68  87  99  71  91 110
 66  90 114  59  82 103  51  69  86  43  64  76  42  65  77  47  61  72  47  51  61  38
 39  49  29  34  43  29  34  42  33  34  41  34
 70  86  47  70  88  47  72  91  49  74  94  51  76  95  53  77  95  53  73  91  50  68
 85  40  60  77  45  52  71  57  44  66  74  40  66  95  39  69 112  38  71 121  38  71
123  38  72 125  39  73 125  39  73 126  39  74 127  39  74 127  39  74 127  40  73 127
 41  73 125  41  73 123  41  73 122  41  73 122  41  74 124  41  74 124  41  74 125  43
 76 125  48  78 126  49  79 125   0  60 114   0  44 106  99 105 131 158 153 161 203 197
198 235 233 234 255 255 255 252 249 249 238 232 232 233 225 226 234 229 229 217 214 217
176 176 184 123 128 144  96 105 123  94 103 116  85  96 106  84  95 104  82  91  99  82
 88  95  79  82  88  69  69  76  58  54  62  58  55  56  66  66  61  77  84  64  88 105
 67  94 116  67  85 106  57  70  87  42  62  77  37  64  77  44  60  71  44  50  60  36
 38  48  28  33  42  29  33  41  32  33  39  33
 62  80  43  62  80  44  62  80  45  63  81  46  69  86  49  74  91  51  72  90  50  67
 85  44  59  78  55  49  71  73  40  65  90  37  66 106  39  70 117  39  72 123  38  72
123  38  72 124  38  72 124  39  72 125  39  73 125  39  73 125  40  73 124  40  72 123
 41  72 122  41  72 121  41  72 120  41  72 121  41  73 122  43  74 123  46  76 124  45
 76 124  29  71 122  30  71 121  41  70 115  69  81 116 142 142 154 196 192 194 232 228
226 249 247 246 255 255 255 253 252 252 242 238 238 240 236 235 246 242 242 233 229 230
196 191 196 146 141 152 109 108 121  84  90 103  65  77  89  77  85  93  81  87  94  81
 87  93  79  83  89  73  75  80  64  64  69  58  56  59  55  51  54  62  65  54  79  92
 64  89 107  69  84 103  60  72  90  46  60  78  35  50  66  32  41  57  30  42  59  29
 44  63  31  46  62  36  48  61  41  49  61  43
 57  75  41  56  73  41  51  67  40  50  65  40  60  76  43  70  87  47  72  90  51  68
 87  52  61  83  67  51  75  87  40  68 103  36  68 113  38  71 119  38  71 122  38  71
121  38  71 121  38  71 121  38  71 122  39  71 122  40  71 122  40  71 121  39  71 119
 39  71 119  40  71 119  40  71 119  40  71 119  41  72 120  45  75 121  51  78 123  47
 77 122   0  62 117   0  63 117  72  86 121 116 116 133 176 173 177 224 222 220 251 250
247 255 255 253 255 255 255 253 253 254 249 249 249 249 249 248 254 253 252 243 239 238
211 202 204 167 153 158 123 111 119  75  75  86  35  47  62  67  70  77  78  80  84  79
 83  88  78  83  89  76  80  85  71  74  77  61  61  65  45  39  49  46  44  43  68  74
 58  81  93  67  81  96  62  74  93  51  60  80  38  32  53  22  10  40  13  38  63  27
 55  79  38  60  81  46  61  79  51  63  79  53
 59  75  42  57  73  42  53  67  40  51  64  40  58  72  40  66  81  42  66  83  53  61
 81  63  55  78  80  47  73  98  38  68 111  36  68 117  37  70 119  37  71 120  37  71
119  38  71 119  38  71 120  38  71 120  39  71 120  40  71 121  40  71 120  39  71 118
 39  72 118  39  72 119  40  72 121  41  73 121  43  74 121  45  76 122  48  79 124  48
 79 124   0  62 116  48  76 120 118 122 142 165 162 168 209 206 206 243 242 240 255 255
255 255 255 255 255 255 255 253 254 255 253 254 254 254 254 254 255 255 255 248 243 242
225 214 212 193 174 171 152 133 132 100  89  93  53  49  58  64  61  67  70  70  74  76
 80  85  81  86  92  80  85  90  76  79  84  66  67  72  49  45  55  47  40  45  67  62
 54  80  80  61  83  92  63  81  99  62  75  95  60  63  79  57  59  75  57  69  88  60
 76  97  62  74  95  60  69  89  57  68  87  56
 66  80  45  65  79  45  64  77  45  62  76  44  62  76  38  62  76  35  57  74  53  50
 70  73  42  67  90  39  68 104  37  69 114  36  69 116  36  69 116  36  69 117  36  70
117  37  70 118  37  71 119  39  72 120  40  72 120  41  72 121  40  72 121  39  73 120
 39  73 120  40  74 122  41  75 124  44  76 125  46  77 124  45  79 126  40  79 128  48
 82 128  33  69 118  83  95 127 154 155 165 204 201 201 235 233 230 252 252 251 255 255
255 255 255 255 254 255 255 254 255 255 254 255 255 254 254 253 254 253 252 246 241 240
235 221 216 214 192 185 178 156 149 129 113 111  81  69  73  65  59  64  55  57  64  72
 77  83  85  90  95  84  88  94  78  81  88  71  72  79  62  61  66  62  55  55  73  58
 50  83  70  51  88  90  61  90 107  72  94 113  81  96 111  88  97 111  91  99 114  89
 97 113  83  87 104  73  74  93  61  67  88  54
 68  82  46  68  82  46  68  82  45  66  80  45  63  76  42  58  71  42  50  66  64  40
 62  86  32  62 102  34  66 111  37  69 117  37  70 118  36  69 116  36  69 116  36  70
118  36  71 119  38  71 120  39  72 121  40  72 121  41  72 121  41  72 121  40  73 121
 40  74 122  41  75 124  42  76 126  45  78 126  47  79 126  43  79 126  28  76 127  51
 82 127  65  79 117 111 110 128 175 171 173 221 216 211 243 238 234 246 244 243 250 249
249 249 249 249 249 249 249 252 252 252 255 255 255 254 254 254 251 250 250 245 240 238
241 226 219 228 205 194 200 176 166 162 143 135 119 103 100  82  72  73  45  48  58  70
 75  83  88  93 100  87  92  99  81  84  93  77  78  85  74  74  77  76  69  66  83  65
 57  89  69  54  91  87  63  91 104  76  97 114  87 105 120  96 109 123 100 109 123  97
105 120  90  91 107  77  73  91  60  63  83  50
 66  79  45  65  79  44  65  79  40  63  78  40  59  75  47  55  70  58  48  67  79  40
 66  99  35  67 112  36  69 118  38  71 121  38  71 121  38  71 120  37  71 120  37  72
121  37  72 122  39  73 123  40  73 123  41  72 123  41  72 122  41  72 121  40  73 121
 41  74 122  42  75 124  44  76 125  46  78 126  47  79 125  34  73 123   0  61 119  42
 70 116  86  85 109 130 119 120 178 167 161 213 203 195 225 216 209 218 211 207 220 214
213 229 225 224 239 236 236 248 246 246 254 254 254 254 254 254 250 248 249 244 238 236
240 226 219 232 209 197 213 190 176 190 170 158 152 136 126 100  88  87  35  38  56  67
 74  85  90  96 105  89  94 104  83  86  97  82  83  90  84  82  84  89  82  77  96  82
 74  99  82  71  92  84  71  81  87  71  82  95  76  91 103  81  96 110  84  99 115  83
 97 115  79  84 100  68  64  79  52  53  68  44
 63  77  43  62  77  42  61  76  36  58  74  39  54  71  56  51  68  73  46  68  93  41
 70 109  38  71 120  38  72 122  39  72 123  39  72 123  39  72 123  39  72 123  38  73
124  38  73 124  40  73 125  41  73 125  41  72 124  41  72 122  41  72 122  41  73 122
 42  74 122  44  75 123  45  76 124  45  76 124  44  76 123  39  73 120  18  65 116  68
 79 113 111 101 108 147 128 116 178 161 147 200 186 173 202 188 177 185 169 163 187 174
171 209 199 197 230 224 223 244 241 241 253 253 253 255 255 255 249 248 248 243 237 236
239 224 217 232 210 197 224 201 185 213 192 177 180 162 150 125 111 106  61  57  69  74
 79  91  91  98 109  89  95 107  85  88 100  87  87  94  92  89  89  97  90  85 103  92
 85 103  91  83  89  80  75  69  65  65  63  68  60  72  82  61  79  94  63  86 106  66
 88 109  66  75  93  57  54  65  44  43  50  37
 65  81  39  63  79  40  58  73  36  51  67  45  47  65  68  44  65  86  41  67 103  41
 70 114  40  72 121  39  72 122  39  72 121  39  71 121  39  70 121  39  71 121  39  71
122  39  72 123  40  72 123  41  72 123  41  72 122  41  73 121  42  73 122  43  74 123
 45  75 124  46  76 124  46  76 123  34  71 120  22  67 117  60  81 121  90 100 128 119
117 131 140 128 125 159 141 126 177 160 144 190 175 161 186 171 159 168 150 139 173 157
151 202 192 188 229 222 220 244 242 240 254 253 253 255 255 255 251 250 251 244 239 238
238 224 218 231 209 197 230 206 190 227 205 189 202 182 167 157 139 131 107  95  98  91
 91 101  84  93 107  82  91 105  87  91 103  90  90  97  94  91  90  96  90  85  97  90
 85  93  86  82  80  70  71  62  49  57  56  52  50  63  71  52  71  88  54  81 103  60
 84 109  61  72  93  53  51  62  40  39  43  34
 68  86  34  64  82  38  55  70  41  44  59  55  39  59  78  37  63  97  37  66 109  39
 70 116  40  72 120  39  72 120  38  71 119  38  70 118  38  68 117  38  68 118  39  69
120  40  70 120  40  71 120  41  71 120  41  72 119  41  73 119  43  74 121  45  75 124
 46  75 125  48  76 124  46  75 122  17  64 115   0  55 110  80  93 123 129 130 144 156
150 152 162 150 144 167 151 137 174 159 145 179 167 154 175 162 149 161 145 132 172 157
148 203 194 188 231 225 221 246 243 241 254 254 253 255 255 255 253 252 254 246 241 241
236 223 218 228 207 195 231 207 191 235 212 195 217 195 179 182 162 151 141 125 123 110
104 112  78  87 105  74  85 103  88  93 104  93  93  99  94  91  90  92  87  82  86  83
 80  78  76  77  68  61  65  59  41  50  57  47  44  60  67  49  67  85  54  78 103  59
 83 111  61  71  95  53  51  63  40  40  44  34
 66  83  34  62  79  43  52  69  56  40  59  72  35  59  91  34  64 106  34  67 115  37
 69 117  39  70 119  38  70 119  37  70 118  37  70 117  38  69 117  39  69 118  41  71
120  42  72 121  42  72 120  42  71 119  40  71 118  38  70 117  39  71 119  42  72 123
 44  73 124  42  73 122  43  74 119  29  65 112  35  64 107 110 113 132 163 159 164 185
177 174 177 166 160 168 155 143 169 156 143 172 160 148 168 155 142 157 141 127 170 155
145 201 191 184 228 222 217 243 239 238 251 250 250 253 253 254 250 248 250 243 237 237
232 218 212 224 202 189 230 205 189 237 214 196 226 203 187 203 181 168 171 153 147 137
128 132  98 102 117  86  94 110  94  98 108  94  95 101  93  91  92  89  86  84  83  82
 80  76  76  75  68  63  64  61  47  53  58  48  47  58  61  50  63  78  54  75  98  60
 80 106  63  70  92  55  51  64  42  41  49  36
 61  75  38  58  73  52  50  68  71  41  64  89  36  64 102  35  67 112  34  67 117  34
 67 118  35  67 118  35  68 118  36  69 119  37  70 119  39  71 120  41  73 121  44  75
123  45  75 124  45  74 122  43  72 119  38  69 117  31  65 115  30  65 117  35  67 120
 37  69 121  28  68 119  37  72 117  49  72 111  73  82 109 136 134 143 188 182 183 206
197 194 187 177 172 166 154 147 166 153 144 172 160 150 170 157 146 162 146 135 173 159
151 200 190 184 225 218 214 239 235 234 247 245 246 249 248 249 245 242 243 238 231 230
228 212 206 220 197 183 226 201 184 234 211 193 229 206 190 216 194 180 193 175 166 161
150 152 122 123 135 103 108 122 101 104 113  92  96 102  88  91  97  84  87  89  85  85
 82  83  82  74  75  72  67  65  61  61  59  56  56  57  58  55  61  70  57  72  89  63
 78  98  66  68  87  58  50  66  45  42  56  39
 59  73  45  57  72  58  52  71  78  47  70  96  42  70 107  39  70 114  36  69 117  37
 68 116  37  68 116  37  68 117  37  69 117  38  70 118  39  71 118  40  72 119  41  73
121  41  73 120  40  72 118  39  70 116  37  69 115  36  67 115  38  68 116  41  70 118
 41  71 118  27  66 112  33  67 108  56  72 101  83  85 101 139 134 136 185 178 176 199
190 186 175 166 162 148 138 134 148 136 130 157 145 136 159 145 134 158 141 129 170 154
144 192 180 173 212 203 199 224 217 216 231 226 226 233 227 228 230 222 222 224 212 209
214 196 187 207 182 167 211 186 168 218 195 178 217 194 178 212 190 175 197 177 166 171
157 154 139 132 139 120 116 124 110 106 111  97  96 100  93  92  96  90  89  89  94  89
 82  96  88  75  90  82  71  81  75  69  76  69  65  73  65  62  75  70  62  83  86  69
 87  95  73  77  87  65  60  72  54  52  65  48
 64  79  49  62  78  59  59  78  75  55  76  90  49  74 101  43  71 110  41  71 115  44
 74 115  45  74 116  44  73 115  43  71 115  41  69 114  38  68 113  31  64 111  21  59
109   6  54 106   0  52 103   0  54 103  25  63 109  43  73 115  53  79 119  58  82 121
 57  80 117  43  69 105  37  60  91  53  62  83  74  72  81 108 101 102 139 131 129 147
138 135 126 118 116 103  96  93 106  96  90 118 105  95 131 113  99 140 119 100 157 136
119 175 157 146 189 174 167 197 183 178 200 187 184 201 187 184 200 183 180 196 176 170
190 165 154 184 156 139 184 157 139 186 161 144 185 161 145 183 159 144 175 153 140 162
142 134 146 129 126 130 115 114 116 102 100 106  93  91 103  92  89 102  91  85 106  92
 82 108  93  78 105  90  76 100  86  76  97  82  73  95  77  68  95  81  69 101  94  77
102 101  81  91  94  75  75  80  65  67  74  61
 67  84  59  67  84  64  66  84  73  63  83  84  57  80  95  51  76 104  48  75 109  50
 78 110  50  77 110  48  74 109  45  70 108  43  68 107  40  66 106  33  62 103  21  55
101  12  53 100   7  54  99  22  61 102  47  75 111  64  87 119  70  91 122  70  90 121
 65  84 112  52  68  93  39  50  70  47  48  57  59  53  53  62  50  45  61  44  42  53
 34  35  27  14  19   0   0   0  39  22   1  68  45  21 103  78  51 129 103  72 150 123
 97 161 137 119 169 146 134 170 147 137 169 144 134 170 142 132 172 141 130 171 139 125
168 135 117 163 130 109 157 126 105 152 124 104 150 122 102 151 122 102 151 122 104 153
125 109 151 125 110 140 116 102 127 103  91 118  95  84 116  94  81 116  94  79 119  97
 80 122  99  80 121  98  80 119  97  79 117  94  77 116  91  73 116  93  74 120 102  82
119 107  86 106  99  80  87  85  71  78  79  67
 64  81  75  65  83  77  68  87  82  69  90  87  66  89  91  61  86  94  53  80  93  45
 74  90  33  66  86  23  58  84  17  52  84  24  54  86  35  61  90  46  70 100  54  78
109  67  90 119  79 100 127  89 108 133  95 112 135  98 112 134  91 104 125  78  91 112
 61  73  94  47  56  73  34  37  48  38  34  34  47  39  33  38  22   5   4   0   0   0
  0   0   0   0   0   0   0   0  23   0   0  68  44   0 112  87  60 145 119  90 166 138
112 171 144 125 173 147 133 171 145 131 168 141 125 169 139 121 173 139 120 173 137 115
171 134 109 166 130 103 159 124  97 151 118  92 146 113  86 145 109  81 147 111  83 153
119  93 156 124 100 151 120  98 142 112  92 135 105  85 131 100  77 129  98  72 133 102
 74 137 106  76 136 107  77 135 106  77 135 104  75 136 103  73 136 103  74 138 108  78
135 109  80 118  98  74  95  82  65  83  74  61
 61  79  88  64  82  88  70  90  91  75  96  92  74  98  90  71  96  85  60  87  76  41
 71  64  10  54  54   0  40  51   0  34  56  12  46  66  42  63  79  65  85 102  80 102
123  99 119 141 115 133 153 126 141 159 126 139 155 121 131 145 106 113 126  81  87 100
 51  55  68  37  37  47  27  20  23  27  18  13  36  29  24  40  33  27  43  35  29  40
 33  29  10  13  21  17  17  22  60  48  34  91  74  50 132 110  86 165 140 115 184 157
134 186 160 142 185 160 146 183 159 144 181 157 139 182 155 136 186 155 134 186 152 128
183 148 119 178 142 110 171 136 104 164 130 100 157 121  91 152 113  78 151 110  75 156
118  86 160 125  95 159 125  99 156 123  98 150 116  91 143 106  77 139 102  67 144 107
 69 148 112  72 148 113  72 147 112  72 148 112  72 150 112  72 151 111  71 152 113  71
147 110  70 127  95  63 100  75  54  85  65  50
 71  93  90  73  95  90  78 100  92  82 104  93  82 105  92  80 104  89  76  99  87  70
 92  84  69  89  87  73  91  94  80  96 103  89 103 111  98 110 119 108 120 131 115 128
142 124 137 151 132 144 157 136 145 157 130 136 147 118 122 131  98 100 108  72  73  79
 40  36  39  29  19  17  24   9   0  24   9   0  30  21  15  36  29  24  41  36  29  40
 36  31   7  15  23  17  18  24  63  51  37  96  78  54 139 116  93 173 146 124 191 163
142 191 164 146 188 163 147 187 161 145 185 159 141 186 159 138 190 160 137 190 157 132
187 153 123 182 146 113 175 140 107 168 134 103 161 125  92 156 115  77 154 111  72 158
118  83 163 127  95 167 133 105 170 137 112 165 132 105 154 118  86 147 110  71 151 113
 71 154 116  72 154 116  72 154 115  72 156 116  73 158 117  74 159 117  74 161 119  73
156 115  70 135  98  61 104  75  51  87  62  45
 86 112  84  86 112  85  87 112  88  88 111  92  87 110  97  86 108 102  91 111 111  98
116 119 109 125 132 121 136 144 131 145 155 138 151 161 143 154 164 145 154 164 145 152
161 143 147 155 140 141 147 132 131 134 115 112 115  94  88  92  70  62  66  51  45  46
 28  22  18  24  16  12  26  17  14  30  20  16  35  25  21  40  31  26  45  37  31  41
 35  31   0   7  18   2   4  16  61  45  31  96  73  51 138 113  92 172 145 125 191 162
143 191 163 146 188 162 146 187 160 145 186 158 142 187 159 140 191 161 141 191 160 136
187 155 127 182 148 117 176 143 111 170 138 107 164 129  97 159 121  85 158 118  81 159
122  89 164 130 101 173 142 116 181 151 127 176 147 121 161 131 100 151 118  82 152 116
 78 154 116  77 154 115  76 154 115  76 156 116  77 158 119  78 160 120  79 164 124  79
160 121  77 138 104  67 105  79  54  87  65  48
 91 119  76  91 117  79  90 114  82  90 112  89  90 112  99  93 113 109 104 121 124 116
131 135 129 143 150 140 154 162 149 163 171 154 166 174 156 165 174 154 159 168 149 151
158 141 139 143 131 126 126 117 108 105  95  83  77  68  51  43  41  10   0  33  13   0
 22  11   0  23  13   6  26  18  18  31  22  21  36  26  21  40  31  26  45  36  31  42
 35  30   2   8  17   1   3  13  59  41  28  93  69  48 133 106  86 165 137 117 183 153
134 182 154 136 180 153 136 180 151 135 179 150 133 181 151 133 185 155 135 185 155 132
181 150 123 176 143 113 171 138 108 167 133 104 162 127  96 158 120  86 157 118  83 158
121  89 162 129  99 174 142 116 184 154 130 180 151 125 165 135 105 154 122  87 153 117
 82 154 114  79 154 112  77 155 112  76 157 115  77 159 119  79 161 122  80 165 127  82
162 125  81 140 107  71 106  81  56  87  66  49
 81 108  60  81 107  65  81 105  73  84 105  85  93 111  99 102 119 113 114 129 127 125
139 137 134 147 146 140 152 153 143 153 156 142 149 153 139 141 146 132 130 134 122 117
120 109 101 102  96  87  87  82  71  70  67  55  49  53  40  26  40  25   1  35  22  12
 29  17  14  24  11  11  20   9   8  22  13  11  27  19  14  33  26  21  39  32  27  37
 31  27   0   9  15   0   5  12  56  38  25  88  63  42 123  94  73 150 120  98 165 134
112 165 135 114 164 134 114 164 133 113 165 131 111 168 134 113 173 140 118 174 141 117
170 136 108 165 130  99 161 124  94 157 120  90 154 115  84 153 112  79 153 113  78 155
116  82 159 122  90 169 134 104 177 144 116 175 142 113 165 131  99 156 121  86 154 114
 81 152 109  77 153 107  74 156 109  73 158 113  74 160 119  76 162 124  78 166 128  81
163 126  81 140 109  71 106  81  57  87  66  50
 80 104  65  80 102  67  76  97  71  78  96  80  90 106  95 103 117 109 115 128 120 124
136 128 129 141 133 130 139 134 127 134 130 121 122 119 113 107 104  99  86  82  81  64
 58  58  35  22  39  12   4  20   0   0  31  28   9  47  47  23  50  50  29  48  44  33
 43  36  31  33  25  21  23  12   8  23  15   9  28  24  16  35  30  22  41  36  28  42
 38  30  28  31  26  31  31  26  59  44  31  83  59  39 110  81  58 131 101  74 144 113
 84 144 114  87 144 114  88 145 112  87 146 110  84 150 113  88 155 121  95 157 123  96
154 119  90 150 113  82 146 108  77 143 103  74 142 101  71 143 102  70 145 104  71 147
107  73 151 112  78 158 120  88 163 127  96 163 127  95 157 121  88 152 115  81 149 108
 77 147 102  73 149 101  70 152 103  68 154 108  68 156 115  70 158 121  73 161 125  77
158 123  78 136 105  69 103  78  56  84  63  50
109 125 110 104 119 105  89 104  91  75  89  77  76  89  78  84  96  85  91 103  92  98
109  99 101 111 102 101 109 101  98 102  96  92  91  84  85  76  68  71  55  44  51  30
  2  28   0   0  13   0   0  19  28   0  44  53   1  62  70  26  68  74  36  68  70  40
 63  61  40  51  47  33  39  32  26  41  35  27  49  45  31  55  51  36  60  55  41  65
 59  46  66  62  49  70  65  52  74  64  50  81  64  48  98  77  56 116  93  67 127 102
 75 129 104  78 129 104  78 129 102  76 128  98  73 128  97  72 128  98  74 129  99  74
129  99  73 129  98  71 127  95  68 124  91  66 124  89  64 125  91  63 127  93  63 130
 95  64 132  98  67 134 100  70 136 102  73 136 103  73 135 102  71 134  99  69 133  97
 68 133  94  68 135  94  66 138  94  64 139  98  63 139 102  62 140 106  64 143 110  68
141 109  70 121  93  62  92  68  51  75  55  46
132 144 142 124 136 133 101 112 108  72  82  75  54  65  52  48  60  41  42  54  33  46
 56  41  47  55  44  48  54  44  49  51  42  50  47  37  49  43  31  43  37  22  33  29
 14  32  36  10  42  50  16  54  65  24  68  79  30  78  90  35  83  92  40  83  88  45
 78  79  46  65  63  43  52  47  40  57  51  41  66  62  44  72  67  48  75  69  52  81
 74  58  89  82  65  93  86  68  87  79  63  80  69  56  88  76  60 103  90  70 113  99
 76 117 101  79 118 101  80 116  99  77 112  94  73 105  86  66  96  77  56  94  74  53
101  82  60 108  88  66 108  87  66 105  83  63 105  81  61 104  82  58 105  82  56 108
 83  57 108  82  57 104  77  53  99  71  48  99  71  46 104  75  48 108  80  52 112  84
 58 115  87  62 117  87  62 119  85  60 118  85  56 115  85  53 114  86  52 118  89  56
116  88  58 100  75  52  76  56  44  64  45  40
126 135 137 117 126 127  94 102 101  60  68  63  33  42  24  10  23   0   0   0   0   0
  0   0   0   0   0   0   0   0   0   0   0   0   0   0   0   0   0   5   2   0   9  18
  0  32  43  14  51  63  22  66  79  28  76  89  32  82  96  34  86  96  39  86  92  43
 82  85  48  72  72  51  65  61  53  69  64  54  77  72  55  79  73  55  78  71  54  81
 73  57  89  81  63  93  85  67  86  77  62  74  66  54  77  69  56  89  80  63  97  88
 69 102  91  72 105  94  74 107  96  76 107  97  77  99  90  70  86  76  57  81  71  52
 91  81  63 100  89  71 100  89  72  97  85  69  95  82  66  92  79  61  90  77  57  93
 78  57  92  76  56  83  66  46  71  52  33  72  52  33  83  63  43  90  71  48  93  74
 51  94  76  51  95  74  48  94  71  43  92  68  42  90  67  43  89  66  44  91  69  46
 89  68  46  78  60  44  62  48  40  54  42  39
 96 102 102  89  95  95  69  76  73  41  50  41  21  31  12  16  21   0  19  18   0  32
 28   4  37  33  14  37  33  17  35  30  17  26  17  11  13   0   2  15   3   3  24  23
 10  42  49  18  61  71  23  74  86  27  79  92  28  80  94  28  81  92  32  80  88  37
 78  82  46  75  76  56  73  71  63  77  73  64  82  77  62  79  73  57  71  63  50  67
 58  46  73  64  49  77  67  51  73  63  49  67  56  46  71  60  49  79  68  54  87  76
 60  92  81  63  98  87  69 107  98  78 115 107  86 113 105  84 104  95  76 100  91  73
106  98  79 110 102  84 108 100  83 104  95  81  98  89  76  93  84  69  89  81  64  92
 83  64  92  83  63  83  74  55  73  62  47  74  63  49  85  74  58  88  76  58  81  70
 47  73  62  29  67  54   0  63  47   0  64  46   0  69  52  34  70  55  45  69  55  41
 66  54  37  60  51  39  53  48  41  50  47  42
 60  61  61  55  57  55  40  45  38  19  30  10  16  20   0  25  17   5  35  24  14  44
 35  24  49  42  30  48  44  32  45  43  32  37  34  26  26  20  17  25  22  14  32  32
 16  46  51  19  62  70  23  73  83  25  76  86  24  75  86  22  74  84  29  73  81  35
 74  79  48  77  79  61  80  79  70  83  81  71  86  82  69  79  73  61  65  57  47  56
 45  35  60  49  34  63  52  36  62  50  36  59  47  38  63  50  40  68  56  43  76  64
 48  80  69  54  89  79  63 104  96  78 117 110  90 117 110  90 107 100  80 103  96  75
106 100  80 110 104  84 110 104  85 109 103  84 104  98  79  97  91  73  91  86  67  92
 87  68  91  87  67  83  79  61  74  68  55  73  67  54  80  73  58  84  77  60  84  79
 59  84  81  58  84  82  60  84  82  60  76  73  55  61  57  45  51  47  37  55  54  37
 58  60  39  55  57  42  51  53  44  49  51  45
 35  35  35  32  33  31  25  30  20  22  26   4  30  22   4  40  20  11  44  21  17  46
 23  21  47  31  25  47  41  28  45  48  28  42  46  24  37  41  18  34  38  15  32  35
 16  38  40  17  49  52  18  58  61  19  63  66  19  65  69  20  67  72  31  67  73  40
 71  76  53  76  79  65  81  81  73  84  83  75  86  83  72  79  74  63  64  57  47  53
 42  30  56  45  28  59  49  29  57  46  30  54  42  32  57  46  33  63  51  33  69  59
 39  72  62  46  80  71  58  97  89  75 111 104  88 109 102  85  93  88  69  85  81  58
 90  85  62  98  92  68 106 101  73 113 108  76 112 107  75 104  98  71  97  91  68  95
 90  68  92  87  68  86  81  64  79  73  60  73  64  50  68  55  34  76  65  42  95  89
 68 112 108  88 124 121 104 131 127 114 115 112 100  71  73  54  25  39   0  60  68  29
 79  84  54  74  77  54  61  62  49  56  55  47
  0   0   0   4   6   0  16  19   3  28  27   7  40  29  13  49  30  18  52  30  21  50
 29  22  47  35  23  45  44  24  44  51  24  47  55  21  50  58  18  49  57  17  46  52
 18  44  47  18  43  42  17  45  39  17  51  43  17  56  50  20  60  58  33  61  64  45
 67  72  57  75  78  69  82  83  76  86  85  78  86  85  75  79  75  65  63  57  47  52
 41  27  54  45  25  57  48  26  54  44  26  51  40  28  53  43  27  59  48  25  65  55
 31  66  57  40  74  66  53  94  85  71 109 100  83 104  96  78  82  78  55  68  66  35
 73  68  38  84  78  47 101  96  56 115 111  64 117 113  68 112 106  67 106  99  67 100
 94  69  94  88  69  88  82  66  83  76  62  74  64  47  61  41   0  84  71  47 122 117
 99 150 147 131 166 163 151 173 169 161 154 151 142 104 104  87  56  62   0  85  88  41
103 104  67  92  92  63  70  68  53  59  57  49
  0   5   0   2  12   0  18  20   1  31  29   9  43  38  18  51  45  24  56  55  29  58
 64  34  56  66  34  46  56  28  41  50  20  51  60  19  63  73  20  70  80  22  74  85
 24  73  82  26  66  71  25  58  56  25  55  48  23  54  45  23  54  49  34  53  56  45
 61  66  58  74  78  70  84  86  78  88  88  80  88  86  77  80  77  67  64  59  48  53
 43  28  55  46  26  58  49  28  56  46  28  53  42  29  54  43  28  57  47  26  63  54
 32  66  57  40  77  68  51 100  91  67 118 108  78 114 105  72  93  87  50  75  71  28
 71  66  30  76  71  37  93  89  43 109 106  48 118 114  55 121 115  60 119 112  65 108
102  70  95  90  72  86  80  66  79  72  58  73  61  41  61  40   0 106  96  77 161 158
145 197 195 185 210 209 202 212 210 207 193 190 186 152 147 134 117 108  77 124 114  75
128 117  79 108  98  68  74  69  57  54  51  51
 21  32  17  24  32  16  28  31  14  35  34  14  43  45  21  50  56  28  58  72  36  65
 86  43  64  87  43  48  68  32  37  48  18  54  63  16  73  82  22  85  96  26  93 107
 30  94 108  32  86  95  33  74  77  33  65  63  30  58  51  27  51  46  35  48  50  45
 57  62  58  74  78  71  86  88  79  90  90  81  89  88  79  81  78  68  66  60  50  55
 46  31  57  48  29  60  51  31  59  49  31  56  45  32  56  45  32  57  47  31  64  54
 36  70  59  42  83  73  51 108  98  63 127 117  72 125 116  67 107  99  50  90  82  35
 78  72  36  74  70  37  85  82  33  99  97  28 114 111  39 127 122  52 128 122  63 114
109  71  96  92  74  82  77  65  74  65  51  75  64  42  76  62  16 132 125 109 193 192
182 232 232 225 243 243 240 241 240 241 222 219 218 188 180 169 157 141 116 153 133  99
146 125  86 118 100  70  76  67  60  44  43  52
 31  41  21  33  41  21  38  41  19  43  43  19  44  47  22  46  53  27  55  71  36  66
 89  45  67  92  45  52  73  35  39  53  21  52  61  17  68  77  20  83  94  25  96 109
 31 100 112  35  94 103  37  84  89  37  77  78  32  70  68  28  62  60  36  55  57  47
 60  64  60  76  79  74  88  90  82  92  92  84  91  89  81  82  78  70  65  59  50  52
 42  28  53  44  25  56  47  26  55  45  27  54  43  30  56  46  32  58  49  32  65  57
 35  71  62  39  84  75  44 105  96  52 121 113  58 123 115  56 113 106  48 103  96  44
 92  86  49  82  78  50  80  78  38  85  84  18 100  97  28 118 113  48 123 117  62 113
108  71  99  94  75  84  77  61  74  64  43 104  97  82 137 131 116 180 177 166 222 221
214 251 251 247 255 255 255 254 254 255 236 232 233 207 195 189 175 155 138 158 136 108
139 116  78 108  89  58  70  62  57  38  41  52
 38  46  21  41  47  21  47  50  23  50  51  24  45  44  22  37  38  20  47  57  30  62
 79  41  66  86  44  56  74  36  45  61  26  44  57  19  50  59  15  68  76  20  86  96
 29  95 104  35  94 101  37  91  96  37  88  91  32  84  86  26  77  79  36  67  71  49
 67  71  63  79  82  77  89  90  86  92  92  87  91  90  83  82  78  70  62  55  48  44
 31  18  44  30   8  46  34   9  47  35  16  49  38  25  54  45  29  59  52  32  67  61
 32  73  66  31  82  74  30  93  87  29 104  98  29 111 106  37 115 110  46 114 109  55
107 102  64  96  91  66  81  78  53  66  66  30  75  73  30  96  92  48 107 101  60 106
100  69 103  96  73  88  78  52  79  67  32 136 131 117 189 186 175 224 223 215 242 242
238 254 254 253 255 255 255 253 252 255 237 232 234 212 198 197 179 158 150 148 126 109
110  91  54  78  64  25  57  55  50  37  44  51
 41  48  20  44  49  22  53  55  25  57  56  27  50  46  23  38  31  18  43  44  25  57
 66  35  61  74  39  55  69  34  46  62  28  39  53  20  36  45  12  55  61  17  75  82
 27  87  93  32  90  95  34  90  96  35  91  95  31  90  93  28  85  88  39  76  79  51
 75  77  66  83  85  79  91  92  87  94  94  88  94  93  84  85  82  73  68  62  53  53
 42  32  52  41  27  52  42  26  50  40  26  48  39  28  51  44  29  56  51  29  64  60
 31  73  69  33  81  78  35  87  85  38  92  91  41 101  99  47 110 108  52 113 110  60
109 105  69  99  96  73  79  78  59  52  54  36  53  55  34  76  75  50  91  88  64  97
 94  75 101  97  82  87  81  63  80  71  50 145 142 133 204 202 196 238 238 233 249 249
247 255 255 255 255 255 255 253 252 255 237 231 234 212 197 199 176 154 153 135 115 105
 81  65  23  45  35   0  47  48  44  38  45  50
 39  45  18  44  48  20  55  56  25  62  59  29  59  53  27  52  42  23  50  41  24  51
 47  27  50  51  29  45  54  27  41  55  25  39  52  21  39  48  16  52  58  18  66  71
 24  75  80  28  77  83  28  79  86  29  82  87  30  86  88  32  85  86  43  81  82  55
 81  83  68  87  88  80  92  94  88  96  97  89  99  98  86  93  91  77  81  77  65  71
 65  53  71  64  53  70  63  51  63  56  46  54  48  39  48  44  31  46  43  25  54  54
 29  70  70  39  82  84  52  90  92  68  95  98  79  97 100  77  95  97  62  94  95  55
 94  94  63  90  90  67  76  78  56  59  63  38  58  64  42  72  76  57  82  86  74  88
 92  89  92  96  98  81  84  87  76  77  78 132 132 132 183 182 182 219 218 218 240 239
238 253 253 252 255 255 255 253 251 253 233 227 231 202 188 192 161 140 141 122 103  95
 71  56   9  39  29   0  47  45  43  42  44  49
 36  43  16  42  46  19  54  54  24  62  58  28  62  55  28  60  49  26  54  38  23  45
 22  18  37  17  16  34  34  19  35  46  21  39  50  20  44  52  19  50  56  20  56  59
 21  60  64  22  62  69  22  65  74  24  73  79  29  80  82  35  84  84  47  83  83  57
 85  85  68  89  90  78  93  94  85  97  98  86 100 100  83  98  97  79  92  89  73  87
 82  69  88  82  70  86  80  69  75  69  60  58  55  47  43  42  33  33  34  21  44  49
 33  69  74  55  86  92  74  95 101  92  98 105 103  93 100  97  79  87  75  70  77  56
 74  80  61  77  82  64  72  77  54  65  70  40  66  73  47  72  82  62  77  89  81  80
 92  99  82  94 111  74  87 106  71  82  99 111 115 127 148 148 158 187 186 192 221 220
222 245 244 243 254 252 252 252 249 251 231 225 227 193 181 184 146 128 130 109  91  85
 63  49   1  35  24   0  47  42  43  44  42  49
 32  41  14  37  42  15  45  44  19  52  45  22  54  45  23  53  43  23  50  36  20  43
 23  16  37  18  13  32  28  15  31  38  17  38  45  18  46  51  20  48  52  20  46  49
 19  49  52  20  53  60  21  60  69  25  70  77  32  78  83  38  81  83  48  79  79  56
 81  79  65  86  85  72  91  90  76  92  92  74  93  93  70  95  94  71  96  95  75  97
 94  78 100  95  82  97  92  81  83  78  69  61  57  50  40  40  34  27  31  23  44  53
 47  74  84  79  93 103 100  97 107 109  94 104 113  86  96 105  73  84  88  62  73  73
 62  73  72  64  73  70  63  71  57  63  70  40  70  79  45  80  91  61  83  97  82  79
 95 102  75  92 115  69  87 115  66  85 112  85  95 120 102 104 128 146 144 158 192 191
195 226 225 224 244 241 240 251 246 246 234 227 227 195 183 184 147 131 130 106  90  85
 51  34   0  15   0   0  42  40  42  42  43  49
 28  40  12  29  38  12  31  29  12  34  21  13  38  26  15  41  33  17  43  35  18  44
 36  17  42  35  16  35  31  14  29  30  12  37  40  16  46  49  20  46  50  20  40  44
 18  42  47  20  50  57  23  60  68  29  70  78  34  78  85  40  79  83  48  75  73  55
 76  70  60  82  78  64  88  85  64  86  84  59  83  83  52  89  88  60  98  97  74 104
102  84 107 104  88 105  99  87  88  83  73  61  57  50  37  36  33  25  30  25  47  58
 58  81  93  97 100 113 119  99 112 122  91 103 117  83  94 110  74  85  99  63  75  88
 56  69  84  52  64  78  54  63  61  60  66  39  73  81  40  88  99  58  91 105  80  82
 98 101  70  90 116  65  87 120  64  86 120  52  72 112   0  20  92  90  87 117 156 155
164 201 200 201 232 228 226 250 243 241 238 229 226 200 188 185 153 138 135 108  93  89
 41  13   0   0   0   0  37  38  43  39  44  49
 29  40  13  27  36  12  22  22   9  20   3   8  27  14  11  34  28  14  40  33  16  43
 35  16  42  34  15  33  26  12  25  21   9  33  32  13  43  42  18  44  46  20  40  44
 19  43  49  22  51  58  25  60  67  29  70  77  33  78  84  38  82  82  44  81  71  50
 82  67  55  86  74  57  87  80  57  82  78  50  76  76  41  85  86  57 100  99  78 107
105  88 107 103  89 101  96  85  83  77  69  53  49  44  22  20  21   0   6   5  45  54
 57  87  97 101 110 120 126 114 124 132 110 119 131  98 107 122  78  89 106  57  71  92
 49  64  88  45  61  83  47  59  68  53  62  48  68  77  45  83  94  55  88 101  76  79
 95  99  69  89 116  69  91 124  70  93 127  43  70 115   0   0  84  24  35  93 113 116
134 166 166 172 213 208 208 243 236 233 236 227 223 199 188 184 152 140 135 105  93  90
 26   0   0   0   0   0  33  36  42  37  43  49
 32  40  14  29  36  14  21  25  12  16  13  11  26  20  13  35  29  15  39  31  16  41
 29  15  38  25  13  29  17  10  21  12   8  27  21  10  35  31  14  42  42  19  47  51
 22  52  59  25  55  63  26  61  68  27  71  76  30  79  82  33  87  81  39  93  74  44
 95  70  50  93  73  55  89  76  57  81  76  51  73  75  44  83  86  61 101  99  82 107
103  89 101  96  84  89  83  74  68  63  57  36  31  31   0   0   0   0   0   0  41  45
 45  92  96  95 120 125 124 131 137 139 134 140 145 119 127 135  85  95 110  46  64  88
 45  62  87  49  64  86  45  60  74  44  57  60  55  67  53  69  80  54  76  89  72  75
 90  96  74  91 115  78  97 126  81 101 131  68  90 126  27  62 109  45  66 108  79  90
118 128 131 145 193 189 193 237 229 227 233 224 221 195 186 182 148 139 135 101  93  90
 12   0   0   0   0   0  31  36  41  37  43  48
 41  49  20  39  46  19  32  39  17  28  30  16  32  30  16  38  32  16  39  28  15  37
 22  14  34  18  12  29  17  12  26  19  12  28  22  13  32  28  14  40  41  18  48  53
 22  54  62  26  56  64  26  60  67  27  68  72  28  75  76  28  86  75  33  95  72  38
 99  70  45  95  71  51  88  73  55  80  74  52  73  76  48  84  87  65 103 100  84 108
102  90  97  91  81  80  75  66  58  53  48  24  21  23   0   0   0   0   0   0  40  40
 37  88  88  83 116 117 112 132 135 133 140 144 144 126 131 136  90  97 108  50  63  83
 48  62  83  52  65  83  45  59  75  41  54  65  45  57  57  55  65  52  63  74  65  66
 80  89  71  86 107  77  94 119  82  99 125  76  95 124  60  84 116  55  78 111  36  64
101  85  93 116 166 163 169 216 209 208 215 207 204 179 171 167 134 127 123  90  85  81
  0   3   2   0   0   0  28  33  39  34  39  45
 53  64  27  52  61  26  49  56  24  46  48  22  45  41  20  43  34  18  38  25  15  32
 14  12  28  11  13  31  23  17  35  32  20  36  36  20  37  39  18  40  45  19  43  50
 20  47  56  23  52  60  27  56  64  30  60  65  28  64  64  26  75  65  30  87  65  36
 92  67  42  90  69  48  86  73  53  82  77  54  79  82  55  90  92  70 106 102  87 109
104  91  99  93  82  83  78  68  63  59  52  36  34  33   9  12  16  14  16  15  44  44
 40  69  68  64  91  90  85 112 112 108 126 126 124 119 120 119  94  96  98  69  72  79
 60  67  77  54  64  75  49  59  68  48  56  61  48  55  55  49  56  50  51  60  59  53
 65  77  57  72  91  65  79 100  71  85 105  71  87 107  66  84 105  62  80 104  37  64
 95  65  78 103 136 136 143 180 175 174 179 172 169 145 139 135 105 100  94  68  67  62
  0  13   8   0   0   0  24  29  36  30  33  40
 60  74  31  60  72  30  59  67  29  57  59  26  52  49  23  46  37  19  39  25  16  30
 17  13  28  22  16  38  37  23  45  47  27  45  49  26  42  48  22  40  48  20  37  47
 18  40  50  21  47  56  27  52  60  31  51  57  28  50  52  24  61  52  27  74  56  33
 81  61  39  81  65  44  80  71  49  80  77  53  82  83  58  91  92  70 104 100  84 106
101  87  97  92  79  83  79  67  66  63  54  45  44  39  33  35  33  41  43  40  46  48
 44  44  43  39  55  52  48  83  80  75 104 101  95 105 102  96  93  90  83  79  77  72
 67  68  67  54  60  63  51  57  59  53  57  55  50  53  51  45  48  48  41  46  51  39
 49  61  41  54  70  47  59  73  54  65  76  64  74  84  73  83  92  77  88  98  69  82
 97  75  86 101 110 112 118 137 134 132 131 127 122 100  97  91  63  62  53  38  42  33
  0  21  16   0  14  19  20  25  33  24  26  36
 60  76  32  59  73  31  59  67  29  57  59  26  50  49  23  43  38  19  37  33  17  35
 36  18  40  45  22  50  57  29  56  64  33  52  61  30  44  53  23  39  49  20  36  48
 18  38  49  20  44  54  25  49  57  29  46  52  26  41  45  22  49  43  24  60  47  29
 67  52  33  66  56  36  67  62  39  69  69  44  72  75  49  80  81  60  89  85  70  91
 85  73  85  80  68  75  72  60  62  59  50  46  45  39  38  40  36  44  46  42  45  47
 43  36  38  35  38  39  35  63  61  55  81  79  72  86  82  73  82  77  66  74  69  58
 62  60  52  50  51  46  48  49  45  50  51  46  48  48  44  44  43  42  40  40  42  36
 41  46  33  42  49  28  39  46  30  39  46  60  65  66  85  89  87 104 107 104 115 117
116 122 123 122 122 121 117 116 114 106  99  97  87  69  68  59  28  33  20  14  26  17
 11  27  25  12  24  28  20  25  33  21  25  35
 56  73  30  56  71  29  55  64  28  52  57  25  46  48  22  38  40  19  38  43  19  43
 51  22  51  61  27  60  72  34  65  77  37  58  69  33  46  56  24  38  49  19  37  50
 20  38  51  21  44  55  24  47  56  25  44  50  24  38  43  21  40  39  21  46  39  25
 49  42  26  48  46  26  48  51  26  52  57  30  56  62  35  61  64  42  65  63  48  67
 62  51  66  62  51  63  60  49  55  53  43  44  43  35  39  40  34  41  43  38  42  45
 41  40  45  43  41  47  46  49  52  49  56  57  51  61  59  50  64  59  46  62  56  39
 53  48  31  43  40  24  42  40  28  44  42  34  45  43  36  46  42  36  44  41  34  39
 40  32  32  37  28   3  16  11   0   0   0  57  57  53  94  94  84 123 121 110 146 142
132 156 152 141 141 138 126 112 110  96  82  82  66  53  56  43   4  20   9   7  23  19
 21  31  31  20  29  33  20  27  35  20  26  35
 53  69  28  53  67  28  53  64  28  53  60  28  50  56  27  47  54  25  49  58  26  54
 64  28  59  71  31  64  77  35  66  79  37  58  70  32  45  56  24  38  50  21  38  53
 22  40  55  23  45  58  25  48  59  25  44  53  23  37  43  21  33  37  20  33  36  21
 33  36  21  33  39  18  34  43  17  38  47  20  42  50  23  43  49  26  43  44  26  44
 42  29  46  45  34  47  47  36  43  43  33  37  37  28  34  35  28  34  37  31  36  40
 36  38  46  43  40  49  46  40  48  44  40  45  39  45  45  34  51  47  31  51  45  26
 45  39  16  37  34   8  37  35  18  39  40  28  44  43  34  49  47  37  50  48  36  44
 46  31  35  40  22   3  15   0   0   0   0  46  46  35  84  83  69 113 110  96 136 131
118 146 140 127 127 123 109  90  89  71  53  56  33  28  35  14   0   3   0   1  18  18
 22  30  32  22  29  35  20  26  34  19  25  35
 49  62  27  50  63  28  52  64  30  55  65  32  58  67  33  59  68  33  62  71  33  63
 74  33  64  75  33  63  76  33  61  74  33  53  65  28  42  54  23  37  50  22  39  55
 25  42  59  27  48  63  28  51  65  28  47  58  25  39  47  22  33  40  19  30  39  19
 29  38  18  30  40  18  32  41  18  33  43  19  33  44  19  32  43  19  30  40  18  29
 37  18  29  35  20  28  32  21  25  27  19  22  23  15  21  22  16  20  25  19  27  33
 28  37  45  40  45  53  48  49  55  50  51  55  50  51  52  45  48  46  37  44  40  28
 39  36  24  34  35  22  33  38  26  36  43  32  44  49  38  53  55  43  56  57  45  51
 55  44  43  50  40  27  38  29   2  23  12  29  36  26  54  56  44  73  72  59  89  85
 73  95  90  78  83  80  67  58  59  45  35  40  24  21  30  15   4  20  10  11  22  22
 19  26  30  19  26  32  19  26  33  19  26  34
 45  55  24  47  57  26  52  63  30  58  68  34  64  74  37  69  78  38  70  79  37  68
 78  35  64  76  33  60  73  31  55  68  29  49  62  27  43  55  24  40  54  25  42  59
 28  45  63  29  50  67  30  52  67  29  47  60  26  39  50  22  32  42  19  27  40  17
 24  38  16  27  38  17  29  39  18  28  39  17  26  39  16  22  38  13  18  36   9  12
 32   6   7  26   4   5  20   4   9  17   5  14  18   7  17  21  10  18  24  12  26  33
 23  36  44  36  44  52  45  49  56  49  51  56  50  49  52  46  43  43  36  37  36  28
 33  34  26  29  35  26  28  37  28  30  42  31  40  48  37  50  55  43  54  58  46  52
 58  47  46  54  45  35  47  37  21  38  26  10  29  14  13  25   7  14  19   0  13  11
  0  11   6   0   8   9   0   5  16   0   8  21   9  14  25  11  17  27  16  17  24  22
 17  22  27  17  23  29  17  24  30  18  24  31
 42  49  21  46  53  24  53  60  29  60  68  33  68  76  37  74  82  39  73  81  37  65
 75  32  58  69  29  55  67  29  51  64  29  48  62  29  47  60  28  46  61  29  47  64
 31  49  66  31  51  67  31  51  66  30  46  60  27  38  50  23  31  43  20  27  39  17
 24  36  16  25  36  17  26  37  17  27  40  17  28  42  17  27  42  17  24  39  16  21
 36  15  18  32  12  17  28  11  21  29  13  27  32  17  31  36  21  34  39  23  37  42
 28  36  45  32  37  47  36  40  48  38  43  49  39  42  46  37  39  41  32  35  36  27
 31  34  24  27  34  23  24  34  23  23  35  23  30  39  28  39  43  34  43  47  37  44
 51  39  42  53  39  35  49  33  25  42  24  16  34  15  13  27   8   5  17   0   0   7
  0   0   1   0   0   7   0   1  17   0  10  23   8  17  28  11  20  29  16  18  24  20
 16  19  23  16  19  25  16  20  26  15  21  27
 40  46  19  45  50  22  53  58  27  62  67  32  70  77  36  76  83  38  72  81  36  61
 71  29  51  63  24  48  61  26  47  61  29  48  62  30  50  64  31  50  66  31  50  67
 32  50  67  32  50  65  31  48  62  30  43  56  27  35  49  22  29  42  19  27  37  17
 24  34  16  24  34  16  25  36  17  27  40  18  30  43  19  30  43  20  29  41  21  27
 38  21  25  35  18  25  34  17  29  36  19  33  40  23  38  44  26  42  47  29  42  48
 30  35  44  27  28  40  24  29  39  24  32  39  25  34  39  25  34  38  25  32  36  24
 28  34  22  23  32  19  18  30  16  15  28  14  18  28  16  23  28  21  29  34  25  34
 43  29  36  49  30  32  47  26  26  42  20  22  36  16  20  31  16  17  27  15  13  26
 15   9  26  14  11  26  12  15  26  11  18  28  11  21  31  12  22  30  14  20  25  17
 17  19  20  16  18  21  15  19  22  15  19  22
 40  49  18  45  53  21  54  62  27  62  70  32  68  76  35  71  80  36  67  77  33  56
 69  26  48  63  22  46  61  25  46  62  28  47  64  29  49  66  30  49  66  30  49  65
 30  47  62  30  44  58  28  41  52  26  35  46  22  29  41  18  25  36  15  24  34  15
 24  33  15  24  34  16  25  36  17  26  38  17  26  40  17  25  38  17  24  35  18  22
 32  17  21  30  16  21  30  15  24  33  17  28  37  20  32  40  22  36  43  25  35  43
 25  29  40  21  22  36  17  22  34  16  25  34  17  26  34  19  27  35  20  26  34  20
 23  32  18  18  30  15  14  28  12  11  26   9  13  27  11  18  29  16  22  33  19  26
 38  21  27  41  22  25  39  19  21  34  15  18  30  13  17  27  14  14  25  14  10  25
 13   7  25  13  11  26  12  16  27  11  19  28  11  22  30  11  22  30  13  21  28  16
 19  26  19  19  24  19  18  22  19  17  21  19
 41  53  18  45  57  21  54  66  27  61  73  31  62  74  33  62  73  33  58  70  30  51
 67  24  46  64  21  46  63  24  47  63  27  47  65  27  47  66  27  46  64  27  45  60
 27  42  55  26  37  47  23  31  38  20  25  32  16  21  29  11  19  28  10  21  30  12
 23  33  14  25  35  16  26  36  16  24  35  15  21  33  14  18  30  12  15  26  11  12
 23  11  11  22  11  12  23  11  14  26  12  17  29  13  19  32  14  20  34  15  21  35
 16  20  34  15  19  33  14  19  32  15  19  32  16  20  32  16  20  33  16  19  32  15
 16  29  13  13  27  11  11  26  10  11  27   9  14  30  12  19  36  16  21  37  18  19
 34  16  16  30  13  14  25  11  13  20   9  13  19   9  14  22  11  15  24  12  14  26
 12  14  27  12  16  28  12  19  28  11  21  28  11  21  28  10  22  29  12  22  31  16
 22  33  19  22  30  18  21  27  17  21  25  17
 36  50  16  40  54  18  48  61  23  53  67  27  53  66  28  50  62  28  47  61  25  45
 62  21  43  62  20  44  61  22  44  61  24  43  61  24  42  60  23  40  57  23  39  52
 23  35  45  21  28  35  18  21  25  14  16  20  10  15  21   7  15  23   7  18  27  10
 21  29  12  22  31  14  23  31  14  20  30  13  17  27  11  13  23   9  11  20   8   9
 18   8   9  18   9  10  19   9  10  21   9  11  24   9  11  26  10  10  27  10  11  28
 10  13  28  10  15  28  11  15  28  12  14  28  13  14  28  13  14  28  12  13  27  11
 11  25  10   9  23   9   9  23   8   9  24   8  13  29  11  17  36  15  18  36  15  13
 30  12   7  21   7   6  15   5   7  11   5   9  13   6  11  19   8  13  23  10  14  24
 10  15  26  11  17  27  10  19  28  10  21  29  10  22  31  11  23  33  12  23  37  15
 24  39  17  25  39  16  26  37  16  27  36  15
 28  41  12  30  44  14  36  50  18  39  54  21  39  53  22  37  49  21  38  51  20  40
 56  18  41  58  18  41  57  21  41  56  22  39  53  21  37  51  19  34  46  18  32  41
 17  27  34  15  21  27  13  15  20  11  13  18   9  15  20   8  16  22   8  16  24   9
 17  25  10  17  24  11  18  23  11  16  22  10  14  21   9  13  20   9  14  20   9  14
 20  10  14  18  10  13  18  10  13  20  10  13  23  11  12  23  11  11  23  10  11  22
 10  12  23  10  13  23  11  14  24  12  14  25  13  13  25  12  12  24  10  10  22   8
  9  21   8   8  20   8   8  20   8   9  22   8  12  27  10  16  33  14  17  33  15  13
 27  12   9  20   9   7  15   6   6  12   4   7  14   4  10  18   6  12  21   8  13  21
  8  15  23   8  16  25   8  18  27   9  20  31  10  22  35  12  24  39  13  24  42  13
 25  44  14  28  46  15  30  46  16  31  47  16
 19  33   9  20  35  10  23  39  13  25  41  15  24  40  15  23  38  14  28  42  15  34
 49  16  37  52  17  36  51  18  35  48  19  32  44  17  29  39  14  26  33  12  23  28
 11  18  22  10  13  17   8   8  13   7  10  15   7  14  19   8  15  20   8  14  21   8
 13  20   9  13  18   9  13  17   8  12  16   8  13  17   7  14  19   8  16  21   9  17
 21  10  16  19  10  15  17  10  14  18  10  13  19  11  12  19  10  10  18   9   9  18
  9  10  18   9  11  19  10  12  20  11  13  20  11  12  20  10   9  18   8   8  17   6
  8  16   7   8  16   8   8  17   8   8  19   7  11  23   9  14  28  12  15  29  13  12
 23  11   8  17   8   7  13   6   6  13   3   7  15   3   9  19   6  12  21   7  13  21
  7  16  22   7  18  26   8  19  30   9  22  35  11  24  39  13  25  43  13  25  44  12
 26  46  11  30  50  13  35  53  15  36  55  16
 17  31   9  17  32  10  19  35  11  20  37  12  21  38  12  22  38  13  25  41  14  30
 45  15  32  46  16  30  43  16  27  38  16  24  34  15  22  29  13  19  24  11  16  19
  9  13  15   8  11  12   7   9  12   6  11  14   6  13  17   7  14  19   8  13  19   8
 12  19   8  11  18   9  11  18   8  12  19   7  13  21   7  16  22   7  18  24   9  19
 23  10  18  20   9  16  16   9  14  16   9  13  16   9  11  16   9   9  16   8   8  17
  8   9  18   9  11  18   9  11  18   9  11  17   9  10  16   8   9  15   7   8  14   6
  7  15   7   7  15   8   7  15   7   7  16   7   9  18   8  11  22   9  11  22  10   9
 18   8   7  13   6   6  12   5   6  13   3   7  17   4   9  22   7  12  25   9  14  24
  8  17  25   8  21  30  10  24  35  12  26  39  13  27  42  14  27  44  13  24  43  10
 25  44   8  31  50  10  38  56  14  40  59  15
 16  30  10  16  30  10  16  31   9  17  33   9  19  36  10  21  38  12  24  40  13  26
 40  14  25  38  14  22  33  14  18  27  13  15  22  12  13  19  11  11  14   9   9  11
  8   9   9   7  10  10   6  11  12   6  12  14   6  12  17   7  12  17   7  12  17   8
 12  17   8  10  18   8  10  19   8  12  21   7  14  23   6  17  25   7  19  26   8  20
 25   9  18  22   9  16  18   8  14  15   8  12  13   8  10  14   8   8  16   8   8  17
  8   9  18   9  10  18   9  10  16   8  10  14   7  10  12   7   9  13   6   8  13   6
  7  14   7   7  15   7   7  14   7   7  13   7   7  14   7   8  16   7   8  16   7   7
 13   6   6  11   5   6  12   4   7  14   4   9  20   5  10  25   8  13  29  10  16  28
 10  20  29  10  25  34  12  28  39  15  29  42  15  29  42  14  28  43  12  25  42   8
 25  43   6  32  50   9  40  57  13  42  60  15
 15  27   9  14  27   9  13  28   8  13  29   8  15  31   8  18  33   9  19  33  10  20
 32  11  19  29  11  16  25  11  12  19  10  10  14   9   8  11   7   7   8   7   7   6
  6   8   7   6   9   9   6  11  12   7  11  14   7  11  15   7  10  15   7  10  15   7
 10  15   7  10  16   6  11  18   6  12  20   6  14  22   6  16  25   6  18  26   8  19
 27   9  18  25   9  17  23   8  14  18   8  11  13   7  10  13   7  10  17   8   9  18
  8   9  19   9   9  18   9   9  16   8   9  14   7   9  13   7   8  14   6   8  14   6
  7  15   6   6  15   6   7  14   6   7  12   6   8  13   7   9  15   7   9  15   7   8
 14   6   7  14   6   9  16   5  11  19   5  13  25   6  14  30   9  17  33  11  20  34
 12  23  35  12  27  38  14  30  40  15  30  41  15  27  40  13  26  41  11  27  43   9
 29  46   9  34  51  11  39  54  13  40  56  14
 14  25   8  14  25   8  12  25   8  12  26   8  13  26   8  15  26   8  15  24   8  13
 23   8  12  21   9  11  18   8  10  15   8   9  12   6   8   9   5   8   7   5   8   7
  6   9   9   6  10  11   7  10  13   8  10  14   8   9  14   7   9  14   7   8  13   6
  9  13   5  10  15   5  12  17   4  12  19   5  13  21   6  14  23   7  16  26   8  17
 27   8  18  28   9  18  27   9  15  22   8  11  15   6  10  13   6  11  18   7  11  20
  8  10  19   9   9  18   9   9  16   9   8  15   8   8  15   7   8  16   7   8  17   6
  7  16   5   6  15   4   7  13   5   7  12   6   9  13   7  11  16   8  12  18   9  10
 18   8  10  18   7  11  21   6  13  23   6  16  29   7  17  33   9  20  37  12  23  39
 13  26  41  15  29  41  15  31  40  15  29  39  14  25  36  11  24  38   9  30  45  11
 34  50  12  36  51  13  36  50  14  37  49  14
 14  23   8  13  24   8  12  24   8  10  24   8  12  23   7  13  22   7  12  20   7   9
 18   7   8  16   7   8  14   7   8  11   6   7   9   5   7   6   4   7   6   4   8   7
  5   9   9   6  10  11   7  10  13   8  10  14   8   9  14   7   8  13   6   8  12   5
  8  12   4  10  14   4  12  17   4  13  18   4  13  20   6  14  23   7  15  26   7  16
 28   8  18  29   9  18  29   9  15  23   8  11  15   6  10  13   6  12  18   7  12  20
  8  11  19   9   9  18   9   8  17   9   8  15   8   8  16   8   8  17   7   8  17   6
  7  16   4   6  15   4   6  13   4   8  12   5   9  13   7  12  17   9  12  19   9  11
 19   8  10  20   7  12  22   6  15  25   6  17  30   7  19  35   9  22  39  12  25  41
 14  28  43  15  30  42  16  31  41  15  29  38  13  24  35  10  24  37   9  31  46  11
 36  52  14  36  51  14  36  48  14  36  47  14
