P3
# 8-bit ppm - RGB
140 93
255
174 126 141 164 116 134 156 109 129 147  99 123 140  99 123 133  98 122 126  88 113 123
 86 112 119  85 110 116  85 109 113  82 107 112  81 105 128 101 119 114  88 103 101  76
 96 104  79 102 101  78  98 100  78  96  98  78  97 100  77  97  98  73  94  92  70  91
 91  69  90  90  68  89  93  71  92  89  67  88  87  65  86  87  65  86  87  65  86  86
 64  85  81  58  79 100  77 101 104  83 105  82  63  79  90  67  86  83  62  81  79  60
 80  77  59  80  78  60  81  75  58  77  77  60  79  77  60  79  77  59  78  75  57  76
 74  56  75  85  66  84  83  64  83  69  54  75  76  63  84  74  57  78  73  55  77  71
 54  76  71  53  75  71  53  75  71  54  76  73  56  78  75  56  78  78  60  81  76  58
 80  81  63  85  84  67  88  70  52  74  73  55  77  76  59  82  74  56  80  75  57  81
 75  60  81  87  74  93  72  56  76  70  53  73  74  56  80  73  56  80  72  54  77  74
 56  78  79  62  84  72  55  78  73  55  80  73  55  79  74  56  80  75  57  81  76  58
 80  83  66  87  79  61  87  76  58  86  77  59  84  78  60  84  76  58  82  78  60  84
 74  56  80  87  69  96 101  84 112  81  62  90  78  59  87  89  74  99  86  70  95  80
 62  88  80  62  89  81  62  91  82  63  95  82  63  91  82  63  92  83  65  95  80  61
 91 102  84 114 115  98 127  80  61  93  86  67  99  88  67 100  91  70 102  91  70 103
 92  68 102  95  69 103  94  70 102  95  71 104  96  72 107  95  71 107 103  79 114 105
 81 117 105  80 118 102  75 114 110  84 123 110  83 122 103  75 114 106  78 117 107  79
118 107  79 118 108  81 118 110  81 118 111  80 115 112  82 116 114  84 118 113  82 117
114  82 118 115  82 114 118  80 117 125  83 119 123  83 117 130  86 120 128  89 118 124
 90 115
175 127 143 167 119 138 159 112 133 153 105 130 144  97 125 137  92 120 133  89 117 128
 88 115 124  87 113 120  86 111 118  85 109 115  83 107 114  84 105 129 102 120 114  87
107 105  78 103 103  78 101 102  79  99 100  77  98  99  75  96  98  73  95  95  71  93
 94  71  93  93  68  91  89  66  87  92  70  91  88  66  87  87  65  86  86  64  85  87
 65  86  85  64  84  86  62  87 121 103 122 104  87 103  86  63  83  90  68  88  85  65
 84  80  61  82  82  64  85  82  65  84  75  58  77  76  58  77  80  62  82  78  61  81
 71  52  73  78  59  79  86  67  87  79  62  81  73  57  77  79  61  83  75  57  79  75
 57  79  74  56  77  74  56  77  77  59  80  75  56  78  75  59  79  74  58  79  77  61
 81  76  59  80  85  67  88  85  67  89  70  51  74  92  75  97  90  73  94  75  57  80
 74  58  79  79  65  82  95  80  96  79  62  80  73  55  77  75  57  80  76  57  82  73
 55  78  83  66  87  82  64  87  73  55  80  75  57  82  76  58  82  77  59  83  76  58
 81  78  59  82  89  71  96  80  61  88  78  60  86  78  60  86  79  61  87  78  59  85
 80  61  87  77  57  86  92  74 102  99  84 109  82  64  91  81  59  88  86  66  93  85
 67  94  84  64  93  84  64  94  85  66  96  85  66  94  86  67  97  86  67  99  87  68
 98  88  68 100  89  70 102  90  70 106  88  67 104  89  65 104  93  70 106  95  71 106
 95  70 106  96  71 106  97  72 106  97  73 107  99  74 111  98  73 110 104  78 115 109
 84 122 107  81 120 103  77 117 111  86 125 117  93 131 113  86 127 110  80 124 112  82
126 111  82 125 112  82 124 114  83 125 116  84 125 117  85 124 117  86 123 119  87 124
119  86 122 119  89 124 123  88 129 126  87 128 128  87 124 139  89 127 136  91 125 136
 93 123
177 128 147 169 121 142 162 114 137 154 108 134 148 101 130 144  94 125 138  92 122 133
 91 119 129  89 116 123  86 113 120  85 111 118  85 110 113  81 105 117  87 110 125  98
117 106  78 103 106  80 107 105  78 103 104  76 100 100  75  98  97  73  96  97  73  95
 93  69  91 100  77  98  99  77  97  88  66  87  92  70  91  88  66  87  87  65  86  89
 67  88  89  68  88  83  60  82  86  68  87 117 101 118  96  76  97  84  59  80  90  67
 88  87  65  87  81  61  83  83  64  84  82  63  83  77  57  78  82  62  84 107  95 113
 84  68  88  74  51  74  78  60  79  89  71  88  81  62  80  80  62  83  98  80 101  82
 64  86  78  59  80  78  59  79  77  59  79  79  60  80  78  58  78  79  59  80  78  58
 78  84  66  86  79  61  83  88  71  92  84  67  88  77  60  80  97  81 100  82  65  84
 75  57  79  78  61  83  83  64  86  80  61  83  78  60  80  78  58  81  77  57  84  77
 58  83  77  58  80  82  62  87  83  64  89  77  59  83  78  60  84  79  62  85  80  61
 86  79  58  84  86  67  91  88  68  93  80  60  88  85  65  92  81  61  89  81  61  88
 82  62  90  84  64  91  81  61  88  89  69  97 104  85 111  90  70  97  84  63  92  87
 67  96  87  66  97  87  66  98  88  68  96  88  68  95  89  68 101  90  69 104  91  70
100  91  71 103  94  73 106  94  73 109  92  70 107  94  69 107  96  70 108  97  72 109
 97  75 111  97  75 111 100  75 111 101  75 112 102  76 115 104  77 116 103  76 116 105
 78 118 109  81 123 110  81 122 110  81 122 111  83 124 115  85 127 117  85 128 116  84
128 116  85 128 117  86 128 119  87 129 122  88 129 122  89 130 121  89 130 124  90 127
126  91 126 129  97 133 136  99 140 131  90 130 131  89 128 142  92 133 140  93 130 142
 95 130
179 130 149 171 123 143 165 116 138 156 110 134 150 103 132 147  97 128 142  95 125 138
 93 122 133  91 118 129  89 116 123  87 113 119  85 110 120  87 111 115  83 108 111  82
104 110  81 106 107  79 105 105  78 103 105  78 101 102  76 100  99  74  97  98  72  95
 96  70  93  97  72  94 111  88 108  98  76  96  89  67  88  92  70  91  89  66  87  90
 67  89  91  68  89  89  67  88  81  61  81  86  68  87 122 106 124  96  77  95  83  62
 82  88  68  88  88  69  89  81  62  83  83  64  84  83  64  84  75  53  76  90  75  94
111  96 115  80  57  80  77  55  76  83  63  82  92  72  90  80  59  81  93  74  94 101
 82 102  82  61  82  86  67  86  85  65  85  83  62  83  86  64  85  84  61  82  84  61
 83  84  63  85  81  64  85  78  59  81  89  71  92  81  61  81  77  59  79  97  81 100
 83  66  88  91  74  98  91  73  97  76  56  82  80  61  83  82  62  86  79  60  86  79
 60  84  81  62  84  81  61  87  86  67  93  84  66  91  80  61  86  82  62  86  82  62
 87  82  62  88  81  61  87  87  67  93  88  69  93  84  65  91  86  67  94  84  65  93
 90  71 101  83  63  94  85  62  90  87  65  93  91  70  98  93  73 100  87  66  94  94
 73 101  96  74 104  92  69 101  91  69  99  91  69  99  92  69 103  95  72 107  94  72
104  95  72 106  96  73 108  97  74 109  95  71 106  98  73 108 100  74 111 102  75 114
103  77 114 102  78 114 104  77 115 106  78 117 108  80 120 108  80 120 109  81 121 111
 82 123 113  83 125 115  83 125 116  83 126 119  85 130 120  86 130 120  88 131 121  89
132 122  89 132 124  91 133 127  93 134 130  94 133 130  95 134 130  94 136 129  94 134
132  97 133 132  96 132 130  92 133 135  92 134 136  93 131 143  94 135 142  93 133 149
 98 135
179 130 150 173 124 145 168 119 139 160 112 136 154 105 134 150 101 131 146  97 127 141
 95 124 136  91 120 131  89 117 127  89 115 122  87 112 120  86 111 119  87 111 112  82
106 110  81 104 110  82 104 105  79 101 103  78 100 103  77  99 104  79 101 103  74  97
100  74  96  94  69  92  97  72  94 109  86 107  95  72  93  90  67  89  92  68  90  91
 67  89  91  66  89  90  66  88  90  68  89  80  60  81  94  77  96 105  88 106  81  61
 82  85  66  86  87  67  88  87  67  90  81  62  82  84  65  85  84  63  83  73  51  73
 97  80 100 114  98 117  81  62  81  82  60  81  86  63  84  87  64  85  83  60  81  92
 71  91 100  79  98  89  68  87  93  71  92  88  66  89  86  65  85  87  66  86  85  63
 85  85  65  87  84  65  87  83  63  85  81  61  83  86  63  84  80  59  80  83  65  87
 93  76  98  80  61  85  93  75  98  90  71  95  80  58  84  83  61  87  84  62  88  83
 62  85  81  62  84  86  66  92  93  74 101  85  67  92  82  61  87  86  63  89  85  63
 89  84  64  90  84  64  91  82  62  89  89  71  92  87  69  93  86  68  94 111  92 119
120 103 131 118 101 129  90  66  95  85  64  92  90  68  97  91  67  96  94  69  99  95
 70  99  97  72 103 102  77 109  99  74 106  97  71 105  96  71 106  97  72 106  99  73
108  99  73 110  98  72 110  97  73 110 106  83 118 107  84 119 100  76 113 106  78 116
110  79 117 109  81 116 110  83 119 114  84 121 116  85 122 115  86 122 115  87 123 118
 87 126 119  88 128 120  89 130 125  92 135 127  91 137 126  91 137 125  91 136 127  93
138 129  95 140 130  94 138 132  95 138 136  98 141 137 100 139 136  99 140 135  98 141
137 100 138 138  99 138 135  96 139 140  96 140 140  96 137 142  94 139 145  97 138 158
104 140
178 131 150 173 125 146 166 118 140 163 114 139 159 110 139 154 104 133 149  99 130 144
 96 127 140  94 125 134  91 120 127  87 116 125  88 115 120  84 112 118  84 110 116  84
108 111  80 104 114  85 109 114  86 109 106  78 101 107  78 102 107  79 102 107  79 102
107  82 103 107  84 105  96  69  92 105  78 100 112  88 109  96  72  94  93  69  91  92
 68  90  91  67  89  90  67  88  89  66  87  88  68  88  83  63  83  82  59  81  86  64
 85  88  66  87  90  69  90  87  65  88  87  65  86  86  64  84  86  64  84  85  64  84
 80  59  81 114  98 116 110  96 113  80  56  78  88  63  85  88  64  86  94  71  92  88
 64  86  96  75  94 100  78  97  87  64  86  93  69  92  89  67  87  88  65  85  87  64
 87  86  64  87  89  68  91  88  66  89  86  64  86  86  65  86  87  65  86  84  61  84
 80  58  83  82  61  87  79  58  84  98  78 102  95  73  97  85  61  87  86  62  88  84
 62  87  84  65  89  81  61  86  97  78 103  99  81 103  84  64  89  86  63  91  87  65
 93  83  64  91  89  69  97  88  68  97  85  63  91  90  69  97  86  65  93  95  73 101
114  95 124 127 110 139 122 103 130  96  74 103  93  69  99  96  71 102  96  71 102  97
 72 103  96  71 104 101  75 110 107  82 114 102  78 110 101  75 110 101  75 109 101  75
110 103  77 114 102  76 114 101  76 113 107  82 118 114  90 125 110  85 122 111  82 121
117  84 123 116  85 122 116  87 123 119  88 124 121  89 126 120  89 125 120  91 126 122
 91 129 125  91 131 126  93 134 130  96 138 133  97 140 133  96 141 133  95 142 134  96
143 134  97 144 136  98 144 138 100 145 141 101 145 141 103 144 141 104 146 141 102 147
145 103 145 149 105 148 144 101 147 149 102 143 151 105 146 149  99 144 155 106 144 166
112 144
176 128 150 176 128 151 168 121 144 161 112 138 162 112 140 158 108 138 152 101 132 145
 95 128 146  99 131 159 117 146 132  92 121 123  84 114 124  87 116 120  85 112 117  84
109 115  83 107 111  80 104 115  86 109 113  84 107 107  77 101 106  77 100 106  78 101
105  79 101 110  87 108 104  78 100  93  63  88 111  87 108 106  82 103  89  65  87  93
 69  91  92  68  91  93  69  91  91  67  90  89  66  88  89  67  88  88  66  87  88  64
 86  89  66  88 106  85 106 100  78 100  87  64  87  90  68  89  89  66  85  88  65  85
 85  63  84  85  63  84 102  82 101  91  70  90  84  62  83  89  65  87  93  69  91  99
 75  97  90  66  87  91  68  88  90  66  88  89  65  88  95  72  92  91  67  88  90  66
 89  89  65  89  91  68  91  95  72  95  87  65  88  84  64  84  88  66  88  94  70  94
 90  66  91  84  61  87  85  62  88  83  61  87  94  74  98  84  64  89  82  62  87  83
 63  89  81  61  87  84  64  89  83  64  88  94  77  98  98  79 103  90  67  96  87  65
 93  86  66  94  89  68  98  95  75 105  91  69  98  88  64  93  92  69  98  95  70  98
 92  69  99 108  90 120 124 105 135 127 105 134  99  74 106  99  72 105 101  74 106 101
 75 107 102  75 109 102  75 110 102  75 108 105  78 112 107  79 115 105  78 114 105  78
114 106  78 116 107  79 118 110  80 119 112  81 119 112  80 119 118  89 127 119  87 126
124  89 128 126  95 131 123  92 130 124  91 130 127  92 132 126  93 132 126  94 133 129
 94 136 130  94 137 132  97 138 132  97 139 135  98 141 137  99 144 140 101 148 141 102
149 140 101 148 142 102 150 142 103 149 146 105 151 146 108 151 145 108 151 147 106 152
151 107 151 153 107 153 149 104 150 157 108 150 163 113 149 166 111 150 166 112 150 176
116 150
176 124 149 171 123 148 169 125 150 160 115 141 160 110 139 160 108 139 153 105 134 148
100 130 142  91 126 142  96 128 151 114 140 126  89 117 123  83 112 123  84 111 119  86
110 115  84 108 113  82 106 109  79 104 113  84 106 111  84 104 105  78 100 104  76  99
103  77 100 101  76  98 109  85 107 105  81 102  93  69  90 109  86 108 100  77  97  93
 69  90  92  68  92  93  69  93  92  68  91  92  68  91  90  66  89  91  68  90  96  73
 95  90  66  89  94  70  93 111  89 111  97  76  98  84  62  85  90  67  88  89  66  87
 90  67  88  88  65  86  88  65  86 101  80 100  92  70  91  89  65  87  89  65  87  91
 67  89  96  73  94  89  67  88  89  66  87  91  68  89  92  68  90  92  68  90  92  68
 90  93  69  91  90  66  88  90  68  91  92  71  93  88  66  89  86  63  86  91  69  92
 94  71  96  88  65  91  85  62  89  85  64  91  82  62  89  87  67  94  85  65  92  96
 75 101  97  75 101  83  61  89  86  66  94  83  65  90  95  76 102 100  79 106  88  65
 94  89  67  96  89  66  96  88  64  96  93  71 100  98  75 103  92  68  98  98  73 101
100  74 102  99  75 105 100  78 109 107  83 112 106  79 110 104  76 107 107  76 108 107
 76 109 106  77 110 106  78 112 113  82 120 112  81 120 107  78 118 109  80 119 111  81
119 113  82 123 113  82 123 115  83 124 117  85 125 118  87 124 119  86 124 121  88 127
122  90 128 125  94 132 127  94 132 129  95 132 130  94 135 131  94 137 135  98 140 133
 96 140 133  96 140 134  97 141 139 102 146 142 103 147 142 101 148 146 103 151 148 105
152 148 106 151 148 105 154 148 105 153 152 109 155 162 120 164 160 117 161 157 110 157
160 109 158 162 112 160 163 112 158 165 112 156 166 113 152 174 116 157 168 115 152 184
123 155
176 125 150 169 120 145 165 118 144 166 120 146 165 114 143 159 106 137 154 106 135 148
 98 128 155 105 138 168 127 153 142 101 127 147 109 135 130  92 119 126  87 116 118  83
110 118  85 110 113  83 106 116  85 109 111  81 103 113  85 105 115  87 109 107  78 102
105  77 100 102  77  99 103  78  99 127 102 120 105  81 101  96  72  98 112  89 109  98
 75  95  91  67  89  95  70  93 110  87 108  99  75  97  93  69  91  96  73  91 100  77
 95 100  77  95  93  69  89  94  70  92 114  93 113  99  78  98  87  63  86  92  68  90
 91  67  89  91  67  89  92  69  91  95  72  93  96  72  94  90  66  88  91  67  90  90
 66  88  92  69  91  97  74  96  91  67  89  89  65  87  93  69  91  93  69  91  92  68
 90  94  69  91  93  68  90  90  67  90  91  69  92  96  72 100  94  69  97  86  62  90
 90  65  93  94  69  95  89  65  93  88  65  93  88  65  93  87  65  93  89  67  95  96
 73  99 106  84 110  95  74 101  81  60  89  88  63  93  91  68  97  90  72  98  90  69
 97  93  69  98  90  65  96 110  87 117 104  82 110  94  70 100 105  80 110 102  76 107
 99  72 104 104  78 108 105  80 109  99  72 104 106  77 110 109  79 112 112  80 113 114
 81 115 113  81 116 112  80 117 117  84 123 123  93 131 113  84 124 112  82 122 116  83
124 116  84 126 116  83 127 118  85 128 119  87 129 120  88 128 122  90 130 124  92 132
126  93 134 127  92 134 138 101 145 140 103 145 140 101 146 139  98 147 139  97 147 139
 98 144 144 102 146 147 104 150 147 102 149 150 104 151 153 105 155 155 106 159 157 109
159 157 109 158 159 110 159 163 111 160 169 112 162 172 116 165 174 117 167 174 115 167
175 113 167 179 118 168 177 119 167 171 118 160 169 117 154 178 120 156 181 126 157 193
133 161
177 127 152 173 123 149 170 119 146 168 118 145 169 117 147 163 108 140 155 104 135 153
101 133 151  96 131 182 143 167 170 136 156 139  94 122 143 104 132 142 106 136 129  94
125 116  81 110 117  85 109 116  83 107 115  83 106 109  79 100 111  81 105 113  83 107
105  76  99 105  77 100 101  73  97 107  79 100 118  93 110  97  72  92 100  75  97 111
 87 107 101  76  94  95  70  90 104  80 101 115  92 111 100  75  96  98  73  92  97  72
 91 100  76  93 101  76  96  95  69  91  96  73  93 113  92 111  95  72  93  90  66  88
 91  67  89  90  66  88  94  69  91  95  70  92  92  67  89  92  68  90  92  68  90  93
 70  91  92  68  90  93  68  90  96  71  93  99  75  96  90  65  88  95  72  93  93  70
 92  92  67  90  94  69  91  93  69  92  91  68  92  93  69  94  95  71  97  91  66  93
 90  64  91  92  66  93  95  70  98  91  67  96  89  66  94  89  65  94  90  66  95  94
 71  97  92  69  96  99  78 105 113  94 120 100  78 105  88  64  94  95  72 101  92  68
 98  94  68  98  95  70 101 101  77 108 122  99 127 107  82 111  98  70 101 107  82 112
105  79 111 104  75 109 110  80 115 111  82 116 110  79 114 111  80 115 114  82 117 118
 83 119 121  85 123 123  85 126 122  84 125 121  84 125 126  90 132 126  89 132 124  84
129 124  84 130 125  85 132 126  87 135 126  86 134 132  93 138 132  95 138 130  93 137
134  93 138 137  93 140 149 104 153 158 113 157 155 107 153 156 107 155 155 105 153 156
102 151 159 103 152 161 107 157 161 106 156 164 108 158 165 108 160 167 111 163 169 113
163 171 115 164 173 115 166 175 116 167 178 117 168 181 120 167 185 124 170 184 123 171
184 123 172 186 125 174 180 122 167 177 125 165 182 132 168 189 129 163 196 137 165 198
138 165
179 130 155 176 127 150 176 124 148 171 118 146 167 116 144 164 112 141 157 106 136 155
105 135 152  99 131 141  89 119 170 135 155 164 131 151 123  83 111 128  89 121 141 105
135 124  89 117 117  82 107 117  83 108 115  82 106 113  82 105 105  75  99 108  79 102
110  82 105 104  76  99 105  76 101 101  72  96 103  78  95 115  92 106 101  76  95 105
 79 101 109  83 102 102  77  95  97  72  93 104  80 100 112  89 108 100  75  96  97  72
 93  96  71  93 100  75  97  99  74  95  93  68  89  93  69  90  93  70  91  91  67  89
 91  67  89  91  68  90  92  68  90  93  69  91  95  71  93  94  69  92  94  69  94  91
 66  92  93  69  92  94  71  92  90  66  88 121 100 119 111  90 109  86  61  84  96  71
 93  96  70  92  94  69  93  93  68  94  94  70  94  95  70  95  93  67  93  95  69  94
 99  72  98  94  67  95  95  71  97  94  70  97  91  66  94  93  68  96  93  69  98  96
 72 100 104  80 107  91  68  97 106  86 113 123 103 129  98  76 104  96  72 101 112  88
116  99  75 103  97  72 103 100  74 107  99  72 103 118  95 124 115  90 120 102  75 106
110  83 113 112  83 116 108  78 114 113  81 118 117  85 122 116  81 121 118  83 121 121
 84 122 125  86 126 128  87 129 130  87 129 130  86 130 130  86 132 135  89 135 133  86
133 134  86 136 133  87 138 132  88 138 131  88 137 135  91 141 139  95 144 140  95 145
143  94 144 147  95 147 153  97 150 159 102 152 166 109 157 166 109 158 167 108 158 170
109 161 171 108 162 169 110 162 168 109 160 174 113 165 176 115 167 177 117 168 178 119
168 182 122 171 184 124 173 183 123 171 183 124 172 186 129 172 187 131 171 186 131 174
183 129 173 184 128 175 183 128 173 179 127 169 182 129 171 190 131 167 195 137 167 192
133 168
183 135 159 179 130 151 177 126 149 174 120 148 168 116 144 162 113 141 158 109 138 154
105 135 152 103 134 149  99 133 136  82 118 164 134 154 160 134 152 126  83 112 127  86
115 139 102 129 127  92 117 118  84 109 116  84 108 115  85 109 123  94 117 106  77 100
109  80 103 110  81 104 105  76  99 106  78 100 101  74  95 106  82 100 116  90 108 100
 72  95 105  77  98 103  77  96 100  74  96  95  71  91 103  81 100 113  89 109  98  73
 94  96  71  95  96  71  94  97  72  94  94  69  92  93  68  90  92  68  90  91  68  90
 92  68  90  92  69  90  92  70  91  93  69  91  95  71  93  98  73  95  98  72  97 100
 75  98  92  66  88  95  71  93  96  71  93  94  70  92 119  98 118 108  85 106  92  66
 88  97  72  93  96  71  94  98  73  98  95  70  92  94  69  95  96  70  97  97  68  95
100  72 100 101  76 104  96  71  99 100  76 103  96  71  98  94  69  97  95  71 100  94
 69  99 124 100 128 121  98 125  89  65  96  94  69 101 116  93 123 106  83 113 102  78
110 111  87 118 101  77 107 102  77 107 104  76 107 101  76 108 119  95 126 114  85 120
108  77 112 114  84 117 115  82 116 115  80 117 120  83 123 122  84 126 125  85 126 128
 86 126 130  86 129 132  87 131 136  88 133 139  89 136 140  88 137 144  92 140 143  93
141 138  89 140 139  91 144 140  90 141 139  90 140 141  91 144 144  93 148 150  97 151
154  98 151 156  98 152 160 101 157 168 105 161 169 108 161 166 109 160 170 114 164 174
118 168 181 125 174 176 118 167 175 116 166 181 121 171 182 122 172 183 123 173 184 125
173 186 127 173 189 131 176 189 132 177 189 131 177 190 133 177 190 133 176 191 135 180
188 132 178 189 132 179 187 132 179 179 128 173 180 129 174 185 134 172 187 135 169 187
133 173
186 138 160 182 133 154 177 125 150 174 120 149 169 115 144 165 113 142 162 111 141 157
107 138 152 103 135 147 101 134 142  96 131 134  88 120 158 124 146 138  98 124 127  85
116 128  89 117 137 100 126 122  87 112 119  85 110 116  83 107 127  97 120 127  97 120
107  76 100 109  78 103 109  78 101 107  77 100 106  78 101 101  73  96 108  80 102 109
 81 105 100  72  95 105  77  98 104  76  98 101  75  97  96  72  93 102  79  99  99  75
 96  95  70  93  97  72  95  94  69  91  94  69  91  95  70  91  99  74  96  95  70  92
 93  68  90  95  71  93  94  70  92  95  69  92  97  70  92  97  72  94  95  69  92 126
104 120 128 105 120  92  62  86 103  74  98 100  71  97  93  66  91 119  95 118 112  90
112  95  70  93  97  70  95 107  81 106 115  91 112  96  70  94  98  70  96 101  71 100
 99  68  99  98  69 100  99  72 102  98  72 101 102  74 104  99  72 102  97  72 103  97
 71 104  96  70 102 125 100 128 121  95 122  93  67  99  97  71 106 119  95 129 108  82
118 101  74 110 115  89 120 109  83 113 106  77 110 107  80 113 107  75 112 113  79 118
116  82 120 117  80 119 129  89 129 134  93 132 126  83 125 131  86 130 134  87 131 134
 87 131 137  88 134 139  88 136 146  92 141 146  90 140 149  90 143 148  92 144 149  96
147 146  94 146 146  94 146 150  95 148 151  94 150 151  93 150 152  95 153 155  98 155
160 100 156 162 101 157 163 104 161 168 105 162 168 108 163 170 112 163 173 113 163 175
115 166 178 119 170 182 126 175 181 124 173 182 124 173 184 125 175 183 124 174 185 126
174 187 129 175 188 130 178 190 132 180 188 130 178 191 132 181 193 136 182 195 139 184
193 138 182 192 137 182 188 135 182 182 132 180 181 133 180 185 137 181 185 136 177 184
133 176
189 141 162 186 137 157 178 126 152 176 122 152 176 121 150 167 114 144 162 110 140 158
107 136 151 104 133 146 102 131 144 100 131 143  99 129 133  86 116 134  92 122 132  91
121 129  89 118 127  88 115 124  86 113 120  85 111 119  85 110 112  79 104 125  95 118
125  95 118 110  79 102 114  82 106 111  79 102 107  77 102 106  77 102 106  79 101 120
 94 117 108  81 105 101  72  95 107  78 102 102  74  97 101  75  97  96  73  93  96  72
 94  96  72  95  96  71  94  97  71  94  97  72  94  96  70  93  96  71  93  99  74  96
 95  70  92  95  70  92  96  71  93  97  70  93  99  71  94  99  73  97  95  69  94 102
 77  97 137 115 131 124 102 120  92  66  90 100  75 100 102  75 100  99  73  98 116  94
117 105  80 104 101  72 101  99  68 100 114  86 112 117  92 112  99  70  96  99  68 100
102  72 104 100  70 101  99  71 102 101  74 104 101  72 103 103  74 106  99  72 105  99
 73 106 100  74 107  96  67  98 126  99 125 128 104 129 102  76 105 102  74 109 107  80
114 104  76 110 109  81 116 114  85 122 109  79 114 110  80 117 117  81 121 118  80 122
118  82 125 125  83 128 133  88 132 147 102 142 142  95 138 135  86 132 138  88 135 142
 89 137 145  90 139 148  91 142 151  95 145 151  94 146 152  94 148 155  97 151 152  96
148 155 101 153 153  99 151 153  97 152 158 100 157 158 101 159 155  99 157 157 100 158
160 101 158 162 102 159 163 104 163 170 108 166 171 110 167 171 113 168 173 116 170 176
118 172 175 116 171 173 117 171 178 121 175 178 121 175 181 122 177 182 124 177 182 125
176 185 128 178 188 132 180 190 134 182 195 140 186 192 138 185 188 135 182 190 139 183
191 141 184 191 138 182 190 138 186 183 133 184 179 131 180 180 130 179 185 133 183 188
135 183
189 140 165 187 137 156 184 131 157 178 124 153 180 127 154 172 120 150 161 109 141 160
106 138 152 105 134 147 102 131 144  98 127 142  97 126 141  99 126 137  95 123 134  93
123 131  91 120 129  90 119 126  86 114 124  86 112 121  87 112 118  87 111 115  83 108
126  94 117 125  94 116 118  86 109 123  91 115 112  81 105 110  80 105 108  78 101 110
 82 104 120  91 115 107  78 102 106  77 100 111  83 106 102  74  97 100  75  97  99  74
 97  98  72  98 101  76 100  99  74  97  97  72  96  97  72  96  95  71  93  96  71  93
105  79 101 101  75  96  95  71  92  98  73  95  98  73  97  98  73  96 101  76  98  98
 73  95  94  68  92 132 110 128 130 107 125  95  70  92 103  78 101 105  78 103 100  72
 99 100  72  98 109  80 106 115  86 112  96  62  90 113  84 107 121  93 118 105  74 104
103  72 103 104  75 105 100  72 103 100  73 104 104  72 106 102  71 105 104  74 108 102
 73 107 103  75 108 105  78 111  99  73 105 121  97 122 112  86 114 108  78 112 110  80
116 110  79 116 111  79 118 113  78 120 113  80 119 116  80 122 122  81 125 123  84 128
122  84 128 126  84 128 130  84 128 131  87 129 143  98 142 147 101 147 142  93 140 145
 91 141 150  93 143 153  95 146 154  95 149 154  94 148 155  97 150 156 102 154 153 100
152 161 109 160 165 113 165 159 102 158 160  99 155 162 104 162 161 104 163 163 104 163
163 105 163 165 107 165 167 109 168 168 108 167 170 108 168 168 110 169 169 113 170 171
115 171 176 118 173 176 120 175 177 121 173 178 121 176 180 123 178 180 124 177 180 126
177 183 129 179 189 134 183 190 136 183 196 144 188 196 143 186 191 140 183 191 144 185
191 141 182 194 141 185 194 142 190 185 134 185 187 137 186 189 138 186 192 136 187 198
140 188
191 142 166 187 136 157 185 132 157 183 129 156 177 124 150 172 120 149 165 115 145 159
106 138 152 105 134 149 103 132 148 101 130 143  98 127 140  96 124 139  96 124 136  94
122 132  92 119 130  91 118 128  89 115 126  88 113 123  88 112 120  86 110 122  84 110
121  83 108 127  90 114 119  84 108 122  89 113 123  92 115 112  81 104 113  80 104 110
 76 101 111  77 103 120  91 115 109  83 105 111  86 108 111  85 107 101  74  96 101  74
 97 101  73  98 104  77 101 107  80 103 100  73  96  99  72  95 100  75  97  99  72  95
103  75  98 110  82 104 102  76  97 100  74  96 101  74  99 101  75  97 102  75  97 103
 76  99 102  75  99  98  70  93 137 112 131 129 104 125  98  71  95 106  78 103 106  77
104 106  72 101 107  73 101 134 106 131 119  92 117 101  65  98 118  84 114 120  87 115
104  71 101 103  73 104 104  75 106 102  74 105 103  73 107 104  73 107 105  75 109 110
 80 113 109  78 112 109  81 114 112  86 119 106  76 112 108  80 114 108  83 115 112  84
117 114  81 118 115  81 120 118  81 122 120  79 123 124  82 127 127  82 129 126  82 129
127  84 130 131  86 131 133  87 133 134  88 137 136  89 138 146  99 144 147  98 145 147
 94 145 150  94 146 153  95 148 157  98 152 157  97 152 156  99 152 153 100 153 155 101
156 159 106 161 164 111 166 169 118 172 170 113 167 165 104 163 165 105 165 165 107 166
166 108 167 165 107 166 165 107 167 164 106 167 165 107 169 168 108 170 172 110 171 172
114 172 174 118 175 182 123 179 186 127 178 183 125 177 182 124 180 184 127 181 186 132
182 187 134 183 191 135 180 196 142 186 198 146 189 197 144 186 198 146 187 194 146 187
194 143 186 196 144 189 196 145 191 189 139 187 192 142 189 195 143 190 197 145 189 204
150 188
194 146 166 190 140 162 187 134 158 186 133 157 184 131 155 172 120 147 166 116 145 162
112 142 153 107 136 151 103 132 150 101 131 147 101 130 144  98 127 141  96 125 139  95
122 136  93 120 132  92 119 129  90 116 129  91 116 125  87 112 134  98 122 127  91 114
121  85 109 120  83 109 124  88 113 119  85 109 120  87 110 121  89 111 113  80 104 113
 81 104 110  76 102 111  79 105 123  94 116 111  81 105 112  82 106 112  84 105 103  74
 96 106  77 100 104  75  98 106  78  99 109  80 102 104  76  98 102  75  98 102  74  97
103  72  97 106  76  99 107  79 101 106  77 100 105  76 101 104  75  98 106  77 101 111
 83 105 105  76 102 102  72  97 104  75  97 112  84 109 103  75  99 105  76 101 108  77
105 111  77 107 106  72 102 110  77 106 132 102 129 122  90 119 105  70 102 108  73 105
113  79 111 112  81 111 103  71 103 105  75 107 103  77 109 103  76 109 109  79 113 113
 82 116 114  82 116 111  81 115 116  88 121 123  95 129 117  85 123 115  79 120 118  80
122 121  80 123 124  81 126 127  82 128 129  86 131 127  84 130 127  84 132 126  83 132
129  86 134 131  88 134 132  90 135 133  90 139 136  91 141 137  92 141 141  94 144 146
 95 147 151  96 150 154  97 151 154  98 152 159 100 155 159 104 158 157 104 159 157 102
160 158 103 161 160 105 163 165 111 166 170 118 170 169 112 170 165 107 168 163 108 167
166 110 169 166 110 169 165 107 171 165 109 173 164 110 173 167 113 175 171 117 178 168
114 174 170 116 174 178 122 178 188 133 183 190 135 183 194 136 188 200 143 188 201 146
182 204 150 189 205 151 187 209 156 192 207 156 193 202 150 188 199 147 187 196 148 190
197 145 191 199 149 195 195 146 191 193 146 190 196 147 190 200 147 193 202 151 196 202
152 192
199 150 169 196 145 165 193 140 163 189 135 160 186 133 157 175 124 150 165 116 143 161
112 141 156 108 138 154 105 136 152 103 133 149 102 130 147 101 130 144  99 128 142  99
125 140  97 122 137  95 119 134  95 117 132  94 116 131  92 115 130  92 115 136 103 125
127  92 116 120  85 110 122  88 112 127  91 114 127  90 114 124  91 113 122  90 112 115
 82 108 113  81 106 110  78 102 110  78 102 119  88 112 114  84 107 114  85 107 113  84
107 105  76  99 107  77 101 107  76 100 108  77 102 110  80 104 107  78 101 106  77 100
107  77 100 106  77  99 107  79 101 112  83 105 109  79 102 105  78 101 106  75 100 120
 90 115 121  93 116 104  74  98 104  74  98 104  74 100 107  75 101 108  76 102 108  77
104 108  76 104 109  75 105 106  71 103 109  73 105 134 105 129 122  94 121 103  71 105
109  76 110 122  92 121 114  86 115 102  74 105 103  77 109 103  77 109 106  80 112 115
 86 119 113  84 117 113  83 118 116  83 119 120  87 124 130  92 133 128  84 129 127  80
127 128  80 127 127  80 128 126  82 129 126  86 131 126  86 131 126  85 133 127  87 134
126  87 134 128  89 136 130  90 137 131  92 138 135  93 142 139  93 146 142  94 148 144
 95 149 148  97 152 152  98 154 156  99 156 159 101 159 159 103 161 158 103 162 159 103
162 160 105 163 164 108 170 163 107 166 161 108 163 169 114 170 173 115 175 167 110 173
164 108 171 167 111 175 166 112 177 162 109 173 160 108 173 162 111 175 164 116 177 166
116 176 169 116 176 185 134 188 187 136 184 182 133 182 199 147 190 214 159 192 217 165
190 220 168 193 221 169 193 219 169 194 214 164 194 207 157 192 200 151 190 198 150 193
200 150 196 199 150 193 197 148 192 198 151 193 203 156 197 203 154 199 202 153 198 202
155 198
204 156 171 200 151 165 198 146 166 192 139 164 184 130 157 175 123 149 169 119 146 163
114 143 159 109 139 157 107 139 155 105 135 152 103 131 148 101 130 146 100 130 146 102
129 144 101 126 141  99 122 139  98 120 136  96 119 135  96 121 130  92 117 131  93 117
136  99 122 131  93 116 125  89 113 125  86 112 130  90 116 129  93 117 126  90 112 120
 83 110 121  88 112 120  86 109 115  79 105 115  81 106 120  89 112 116  86 110 114  84
108 111  81 104 110  79 103 112  80 105 119  90 114 113  85 108 111  81 103 112  83 105
110  81 103 110  81 103 109  80 102 117  86 108 117  86 108 108  80 103 113  80 105 110
 77 104 122  93 116 122  93 115 106  76 101 107  76 103 108  76 103 107  76 103 106  78
103 108  78 105 108  77 105 107  76 106 107  75 106 120  89 114 133 106 132 115  85 115
106  72 105 107  78 109 114  87 117 112  85 115 104  76 108 105  78 110 106  81 114 106
 80 113 109  83 116 114  87 121 125  91 129 127  83 127 132  85 129 141  92 136 139  90
136 133  84 131 129  81 129 126  84 131 126  85 131 125  87 133 125  88 136 124  89 136
123  89 134 126  90 138 130  92 142 133  92 143 137  93 146 141  94 149 145  96 151 147
 98 153 148  97 154 151  99 156 156 101 159 156 101 161 158 101 163 158 103 165 161 106
165 162 107 166 160 105 170 161 108 172 164 109 171 166 110 172 168 111 174 166 111 176
163 109 175 162 109 176 161 110 177 159 109 176 159 108 177 159 108 177 158 110 176 161
115 179 166 115 180 177 127 183 190 137 189 187 137 190 195 146 188 209 158 192 217 168
195 223 173 198 224 175 197 221 173 195 217 169 197 209 162 196 205 158 195 204 156 196
203 155 197 200 152 194 201 153 199 202 155 199 207 161 200 210 165 202 207 161 199 210
164 201
209 163 176 204 157 169 197 147 164 186 135 159 180 128 155 175 122 151 170 117 148 167
116 144 164 113 142 160 109 139 159 108 138 156 106 135 153 105 132 151 105 130 153 107
133 152 107 131 147 104 126 144 102 124 140  98 121 138  98 123 138 100 124 134  93 117
135  94 118 141 101 123 137  95 120 133  92 118 129  89 114 133  90 117 138  98 121 130
 92 114 125  89 113 132  95 120 127  87 113 121  84 109 119  83 108 125  92 115 123  90
113 116  83 107 117  84 108 116  83 107 123  93 116 129 100 123 119  86 109 116  82 106
119  85 108 117  84 108 117  85 109 112  76 102 119  84 110 117  85 109 117  81 107 119
 81 110 111  76 103 126  94 119 129  96 124 113  79 109 112  77 107 112  80 109 109  78
106 109  79 107 110  81 108 109  79 109 109  78 109 113  81 109 119  90 118 116  85 114
109  76 108 108  78 111 106  78 110 114  88 119 120  91 123 110  81 115 109  82 118 111
 84 119 110  83 117 112  84 120 118  83 124 130  86 130 132  84 130 137  85 133 141  92
139 137  89 137 135  86 136 131  86 135 127  87 135 125  89 136 122  90 138 123  92 138
125  92 138 127  92 141 131  94 145 135  92 146 137  94 149 140  96 153 144  98 155 149
101 156 151 102 158 153 102 159 155 104 162 155 104 163 155 104 165 157 105 168 160 108
168 161 110 170 159 107 173 157 105 170 161 109 174 162 110 176 157 106 172 159 109 175
161 113 179 157 110 177 156 110 178 157 110 179 155 108 179 155 110 180 154 114 181 155
115 181 161 116 183 169 120 180 179 125 182 187 132 191 193 142 192 198 148 191 203 154
190 208 159 193 212 165 195 214 168 196 212 167 199 210 165 201 209 163 199 207 160 197
207 160 198 205 158 201 206 159 203 208 163 203 215 171 203 218 174 204 213 169 203 213
169 205
211 165 181 204 157 172 192 143 164 182 132 158 179 129 156 176 123 153 174 119 150 172
118 146 168 115 144 166 112 142 163 111 141 160 110 139 159 109 135 159 111 134 158 112
132 155 111 130 153 110 127 150 107 125 147 105 124 142 101 122 145 105 126 144 101 123
139  95 118 140  97 121 142  97 123 139  95 122 137  96 122 134  89 117 136  93 118 139
 98 119 131  90 114 127  87 114 132  94 118 125  89 113 122  87 110 123  87 111 127  91
115 124  89 112 128  92 116 126  88 113 120  83 107 128  93 117 135 102 125 126  92 115
120  85 109 119  85 110 124  90 117 145 112 138 120  83 110 121  84 110 128  86 115 123
 82 112 121  85 112 115  79 108 128  92 122 127  90 122 117  78 110 118  80 112 116  78
111 114  79 109 114  81 110 113  80 111 114  81 112 113  80 111 111  82 110 122  92 119
123  91 122 113  82 116 112  82 116 109  81 114 116  86 120 116  86 122 110  82 120 116
 86 124 122  91 128 124  91 130 128  91 133 118  81 124 127  89 132 128  87 131 126  85
130 129  87 134 132  87 137 129  88 138 121  88 135 122  89 137 125  91 140 128  92 142
132  95 144 135  96 148 137  97 149 139  97 149 140  97 151 141 100 154 143 102 157 144
102 158 146 104 159 149 105 161 152 104 163 153 105 165 155 107 169 156 107 170 157 108
168 159 110 171 162 111 176 164 112 174 161 111 174 160 112 177 158 111 176 156 110 176
154 110 177 153 110 178 154 112 176 157 115 179 159 117 183 153 113 179 153 117 182 156
119 183 160 120 184 166 124 185 178 130 189 182 131 191 186 137 192 194 147 196 199 153
194 202 155 196 205 158 198 206 160 198 205 160 200 207 161 204 208 161 202 207 162 200
207 161 200 210 164 202 214 169 206 215 172 206 219 178 207 219 176 207 216 172 206 214
170 207
209 163 176 197 150 168 189 140 163 184 133 158 183 130 156 180 126 154 178 122 152 176
120 149 173 117 147 168 114 145 166 112 143 164 111 140 162 111 138 162 112 136 159 113
134 157 113 133 153 110 129 151 109 128 149 107 127 145 102 124 144  99 122 146 103 122
142 100 121 141  96 122 143  95 122 142  95 121 140  95 123 142  97 125 136  90 118 134
 89 116 136  93 118 133  89 116 131  88 115 133  94 120 129  92 117 129  89 114 127  87
113 125  87 112 128  91 114 132  96 118 126  90 112 123  87 109 130  97 119 139 105 128
131  95 121 126  87 114 123  83 113 147 113 140 156 125 148 124  86 114 128  85 115 129
 88 118 125  86 114 126  85 114 124  81 112 126  83 116 123  82 114 122  81 113 122  80
115 120  81 114 116  82 113 116  82 114 116  83 115 114  83 113 112  82 112 113  83 114
123  92 123 120  87 119 116  83 117 120  87 122 118  87 123 117  86 122 119  88 123 117
 86 123 119  88 129 127  91 134 140 104 143 135  99 141 121  82 127 128  89 134 127  88
134 124  86 133 125  88 136 124  90 137 121  89 137 123  90 139 125  91 141 130  94 146
134  95 149 137  98 152 140  99 154 144 100 156 146 102 158 147 103 158 146 103 158 147
104 160 147 105 162 148 106 164 155 107 166 158 109 169 159 109 172 161 111 174 161 111
174 166 114 178 170 117 181 173 118 182 169 118 182 163 117 181 158 113 179 157 113 179
155 112 180 153 111 180 154 113 179 156 116 181 161 123 187 160 122 187 158 120 185 160
122 185 163 125 187 165 126 189 171 129 190 177 132 192 182 136 195 190 144 198 194 150
196 197 152 199 200 154 201 201 154 201 202 157 203 204 158 205 206 161 203 210 165 202
211 167 203 216 171 205 217 175 208 217 176 208 218 179 212 215 176 207 214 172 204 213
169 207
201 155 169 194 146 165 191 141 163 190 138 161 186 134 157 183 130 155 181 126 154 179
124 151 177 123 149 175 123 147 170 118 142 169 117 141 167 117 139 165 117 137 163 116
134 160 114 133 156 112 131 152 109 129 150 107 127 149 104 126 149 101 126 149 102 128
154 110 133 150 103 124 149  98 122 149  99 125 146  98 125 146  99 127 148 100 127 142
 95 122 139  94 120 140  95 121 139  93 120 136  92 118 137  94 120 133  91 117 131  91
116 130  91 116 128  91 114 127  92 114 132  96 118 128  93 114 127  88 113 134  94 120
137  96 123 137  94 121 139  95 123 122  79 108 143 108 132 158 126 150 132  93 121 127
 82 113 133  88 117 133  87 117 134  85 118 132  82 117 132  84 118 130  85 119 127  81
117 125  82 116 122  83 116 120  82 116 120  84 118 118  84 117 117  84 118 117  84 120
123  89 124 124  89 124 122  87 123 123  88 126 130  95 132 132  96 130 132  96 125 130
 97 127 126  92 131 130  89 132 133  90 131 140 101 145 138 100 145 124  87 135 124  89
136 125  91 137 123  91 137 123  91 140 124  92 141 124  92 141 127  92 144 128  93 147
131  95 149 136  97 152 140 101 156 144 101 163 150 104 163 158 108 164 159 109 165 159
109 168 161 110 170 161 109 170 161 110 168 164 113 172 163 113 173 162 112 174 162 112
177 165 113 178 168 116 181 169 118 183 169 120 185 166 122 185 158 116 181 156 115 182
156 116 184 157 118 187 159 120 187 156 118 186 155 119 186 161 124 190 167 128 192 167
127 190 168 130 191 168 131 191 171 133 194 175 135 198 183 140 202 187 143 200 188 145
198 191 148 201 193 151 205 196 154 205 199 159 205 205 163 208 207 163 206 211 169 203
217 175 209 220 178 212 217 176 209 216 177 208 216 177 209 213 174 209 210 169 210 204
162 208
200 151 169 198 148 167 195 143 164 194 141 164 192 140 162 186 133 157 184 130 156 182
129 153 180 129 150 179 131 147 179 130 147 176 127 144 174 128 141 173 127 139 171 124
137 167 120 136 161 115 135 157 112 132 156 109 129 155 107 128 155 105 128 154 104 131
158 112 136 162 113 135 154 100 125 154 101 127 151 100 127 148  98 126 150 101 126 148
100 125 145  99 124 145  98 124 144  96 122 144  96 122 143  94 121 141  94 120 140  94
119 140  95 120 139  95 120 137  94 118 138  95 120 141  98 122 138  93 119 136  89 118
138  90 119 137  90 120 144 100 127 141  99 124 124  82 111 140 103 129 162 131 154 138
102 127 131  85 114 138  92 122 138  89 122 136  84 120 134  85 119 133  87 121 130  86
121 126  85 117 124  85 117 122  85 118 121  85 119 120  87 118 120  86 118 121  87 121
124  89 122 131  96 127 128  93 127 125  90 125 127  91 126 132  97 130 136 101 133 138
104 133 141 102 137 150 103 146 154 101 145 147  97 139 145 100 144 142 104 150 129  93
141 126  90 138 127  91 141 125  92 142 125  93 143 127  94 145 129  94 149 130  95 150
131  96 152 135  97 153 139 100 157 142 101 160 145 102 161 151 107 164 155 110 166 157
111 168 161 111 170 166 113 175 165 114 176 160 112 174 161 115 178 158 115 178 156 113
176 158 113 177 161 115 179 163 117 182 165 120 184 163 121 182 164 123 183 167 125 187
162 121 185 162 122 186 164 123 188 165 124 188 165 125 189 166 127 190 169 129 192 172
132 194 174 134 195 176 136 196 181 140 200 183 143 201 187 148 203 189 149 205 191 151
207 194 154 205 198 157 207 199 159 208 200 160 208 203 162 208 212 170 208 222 182 210
225 186 211 224 184 210 220 180 211 213 175 211 209 170 209 207 165 210 199 159 210 197
158 208
207 160 177 199 150 168 200 147 167 196 143 165 194 141 164 191 137 160 188 133 157 186
131 154 185 133 152 181 133 147 181 133 146 181 133 148 177 130 143 174 127 140 171 125
137 168 121 137 165 118 137 162 114 134 160 111 132 159 109 131 159 107 130 158 107 129
155 105 129 160 108 133 160 107 131 158 106 129 159 107 131 154 102 127 151 100 126 150
100 128 148 100 125 148  99 123 149  98 125 148  97 124 149  96 124 149  96 123 147  95
123 144  96 123 144  95 122 143  94 121 143  94 122 142  95 122 142  93 122 141  91 120
141  91 121 140  93 123 136  92 119 141 100 122 142 102 126 129  87 114 141 105 130 156
119 144 138  90 120 140  91 124 140  90 127 138  92 125 133  89 121 130  87 120 128  88
122 128  89 122 126  88 121 125  89 122 125  90 122 126  90 120 125  89 120 125  89 122
125  89 122 127  92 123 131  96 128 132  97 129 130  96 129 133  98 131 140 103 136 142
106 137 142 104 139 151 105 147 166 108 152 172 110 152 165 106 152 158 104 152 144  97
147 133  93 144 131  95 146 130  95 147 130  96 147 132  97 149 133  97 152 135  98 154
135  99 155 137 100 157 139 101 158 140 102 160 144 106 165 146 107 168 147 108 167 153
112 168 158 112 173 161 113 175 165 114 178 164 116 179 158 115 176 157 116 178 158 117
180 159 117 180 161 118 181 162 121 185 162 121 184 165 125 187 170 128 188 172 129 188
169 127 187 169 127 189 172 128 191 172 129 192 173 132 194 172 132 193 173 133 196 177
137 200 179 139 198 184 140 200 186 143 201 189 149 203 193 153 204 195 155 206 197 158
209 199 160 208 201 160 208 204 163 212 204 164 210 210 171 209 224 187 214 232 196 216
233 198 214 230 194 213 221 184 213 210 170 211 203 162 210 200 159 211 198 159 211 198
161 208
216 173 185 208 162 176 201 150 167 199 147 166 196 143 164 194 141 161 193 138 159 190
133 158 187 133 155 184 133 151 181 131 147 180 128 146 178 126 144 176 125 142 176 126
145 170 118 139 169 115 138 168 114 138 165 112 135 166 111 134 165 109 133 164 108 132
163 108 131 161 105 129 164 111 134 164 112 135 162 109 132 165 112 135 160 106 131 154
101 130 152 101 128 151 101 125 150 100 125 150 100 126 149 100 125 150  99 125 151  98
125 150  97 126 148  95 124 146  95 122 144  95 124 142  94 123 143  95 123 141  95 123
139  95 122 144  99 124 147 101 126 139  95 120 142 100 125 147 103 130 139  90 120 142
 89 122 149  98 129 146  94 128 142  91 128 136  92 124 137  94 125 132  90 123 130  89
123 130  91 123 130  94 122 129  94 123 130  96 124 131  97 123 132  98 125 132  98 127
133  99 129 134  99 129 134  99 129 138 103 133 138 102 135 140 103 135 146 107 137 150
110 140 153 111 147 155 107 148 168 110 151 175 116 157 171 113 158 166 110 158 156 104
155 144 100 151 137  98 150 139 101 155 137  99 151 138  99 152 138  99 154 139 100 156
141 102 158 142 103 160 146 108 164 144 108 165 148 110 167 153 114 171 153 111 172 159
112 175 168 116 178 168 118 178 164 116 178 164 117 179 165 122 182 166 125 185 164 121
184 165 123 185 165 123 185 167 126 185 172 131 189 170 129 187 172 130 189 173 131 190
175 132 193 177 134 196 180 135 196 179 136 197 179 138 198 180 138 196 182 139 199 184
141 201 188 146 201 190 147 202 191 150 205 194 155 208 199 159 209 204 162 210 203 164
209 204 166 210 203 164 213 203 164 212 208 170 210 223 187 215 233 199 217 236 202 217
235 201 216 227 193 213 216 179 212 208 168 211 202 163 208 199 160 208 199 162 211 201
165 215
212 167 176 216 170 179 212 165 176 205 156 169 201 149 164 198 145 162 194 140 160 193
138 161 190 135 157 187 134 154 185 131 152 182 128 148 179 126 145 176 123 143 180 125
149 179 123 147 175 117 141 173 117 140 171 116 139 173 115 138 172 113 137 170 111 135
169 110 133 169 110 133 166 108 132 168 112 136 165 109 133 165 109 132 169 114 136 165
110 132 158 104 129 156 103 130 155 103 128 153 101 126 154 101 127 153 101 125 155 101
127 158 101 130 154  97 125 150  97 123 150  97 125 149  98 126 147  98 125 145  98 125
142  97 123 141  97 120 148 104 127 149 103 129 143  96 125 147  97 126 149  99 129 148
 96 128 144  91 124 145  96 126 142  95 126 142  93 128 141  94 125 140  95 127 138  93
126 136  94 125 134  96 124 134  97 125 135 100 127 136 101 128 137 103 128 139 105 129
141 105 130 144 105 132 145 106 133 144 106 132 148 109 137 152 111 140 153 111 141 158
114 144 164 115 150 171 115 156 180 123 162 181 123 162 172 116 158 167 113 159 165 112
162 154 106 157 142 101 153 142 102 155 144 106 156 142 103 155 142 103 156 143 104 158
145 106 161 147 107 162 151 112 167 154 115 169 156 116 171 162 121 176 163 120 178 168
119 180 175 121 179 177 126 181 171 125 184 166 120 181 166 121 181 169 126 184 170 127
185 171 128 186 173 130 188 177 130 190 180 133 193 181 134 195 184 138 195 185 140 195
183 138 195 184 139 197 188 141 196 190 144 199 191 147 201 189 146 201 194 151 204 195
152 204 194 151 203 198 156 207 200 160 209 200 162 208 204 165 210 209 169 214 207 170
213 208 172 213 208 171 215 206 169 210 215 180 211 229 195 216 234 202 216 236 204 219
232 198 218 224 186 214 215 177 215 207 172 215 200 164 211 206 168 218 212 177 220 209
176 215
216 171 176 213 168 175 219 175 183 217 171 180 209 157 169 201 148 164 198 143 162 195
141 157 193 139 155 192 135 153 189 132 152 186 130 151 184 128 149 181 125 147 177 122
144 178 123 143 178 123 141 175 120 139 172 119 139 173 117 137 173 117 137 172 115 136
170 113 135 171 114 135 171 113 136 170 112 135 169 111 135 169 111 135 170 112 133 171
115 134 167 111 135 164 107 134 164 107 131 164 107 132 161 104 129 163 103 129 161 102
129 159 103 130 158 101 129 155  99 126 154  99 127 152  98 127 151  98 126 149  98 125
147  97 124 143  96 123 141  96 123 147 100 126 151 103 128 144  96 124 147  99 128 157
111 140 147  98 130 144  97 126 147 103 130 145  94 128 145  96 127 143  96 127 142  96
128 143  98 131 145 100 134 141  97 130 141  98 132 141 101 133 141 102 132 144 105 133
146 106 134 147 107 134 149 109 137 152 112 139 154 114 139 164 123 149 165 122 151 164
120 149 170 121 154 182 126 164 183 129 164 177 120 158 171 116 157 166 113 158 160 110
157 152 108 155 145 107 156 145 107 159 146 106 158 148 107 160 149 109 163 149 108 163
150 109 164 152 112 167 153 112 168 154 112 171 155 111 171 164 119 178 166 122 178 170
124 179 174 123 179 176 126 182 176 127 184 176 127 183 181 131 187 182 133 186 183 135
185 185 138 188 188 141 191 191 143 193 193 145 195 193 145 195 195 148 196 194 149 196
196 150 199 197 150 201 197 150 200 199 153 202 200 155 205 197 155 205 206 170 213 209
173 213 201 163 209 204 162 208 207 167 210 208 169 211 209 171 214 211 174 216 211 176
215 211 178 215 210 174 215 212 177 212 225 191 216 231 198 217 233 200 219 230 196 218
221 186 216 216 177 211 208 172 212 204 169 214 210 174 219 209 174 209 172 145 164 155
131 135
222 177 180 220 175 180 221 177 183 217 171 177 211 162 169 208 157 168 203 149 164 197
143 159 197 142 157 196 138 153 192 136 152 190 135 152 188 131 150 187 128 149 183 126
145 182 126 145 181 128 146 177 124 143 175 120 140 176 119 137 175 118 135 174 117 137
174 117 138 174 117 138 173 116 137 174 116 138 173 115 138 173 115 137 174 115 137 173
113 136 174 115 137 174 114 137 170 110 134 174 114 139 172 112 138 168 106 132 165 105
131 159 103 130 158 103 130 158 102 129 156 101 128 154 100 127 152  98 127 152  99 127
149  99 126 150 100 127 148  99 127 146  98 127 147 101 129 151 106 132 147 100 127 151
103 132 162 113 143 148 101 131 146 101 130 151 102 132 144  96 127 142  98 129 143  98
131 144  96 132 147 100 136 148 102 139 146 100 136 142 101 134 143 102 135 145 103 139
147 104 138 148 105 139 148 107 140 152 112 144 154 115 145 156 117 147 167 122 155 169
122 154 173 123 156 180 126 160 178 127 161 173 125 162 169 121 160 165 120 160 161 117
158 157 114 157 153 111 158 154 113 164 156 115 164 154 112 162 156 114 166 156 114 166
157 114 166 159 117 169 159 117 170 166 124 179 174 132 185 165 116 174 174 126 180 177
129 181 180 130 182 184 133 184 189 140 186 194 146 187 201 153 190 204 156 193 203 155
193 206 159 196 209 163 199 212 165 199 213 167 201 213 169 202 213 168 201 214 168 202
214 169 204 212 168 205 212 167 207 210 167 207 210 167 208 209 168 207 210 172 209 213
179 215 215 183 219 216 180 216 211 172 213 211 172 216 213 174 218 216 178 216 214 178
213 216 181 217 216 181 216 216 181 214 221 186 217 220 185 216 217 181 214 211 174 211
206 169 212 201 166 211 207 174 217 216 180 222 191 157 183 124 101  92  66  55   0  61
 50   0
227 185 183 224 180 179 223 178 179 224 179 180 221 175 175 215 165 170 208 156 164 203
149 161 200 145 158 198 141 155 196 140 154 195 139 153 193 135 152 190 131 149 188 130
147 186 129 146 186 130 147 181 126 145 180 122 143 180 121 142 180 120 141 178 120 139
177 119 138 177 119 138 176 118 139 175 117 138 175 117 138 174 116 137 177 114 137 178
114 137 178 114 137 176 114 138 172 113 138 169 109 136 171 111 139 168 111 134 162 106
130 159 105 129 158 104 130 158 104 130 157 104 130 157 104 130 157 103 130 156 102 130
153 102 129 154 101 128 155 101 128 154 101 130 152 101 131 153 101 131 155 101 132 154
 98 132 157 103 133 165 117 142 154 108 137 151 100 134 151 102 136 145 101 134 147 100
136 148  99 135 146  99 134 148 102 137 149 103 138 148 102 139 147 101 139 148 101 142
151 104 145 148 103 142 153 111 149 149 108 146 155 114 150 160 117 154 166 115 154 175
121 161 177 124 162 173 122 159 170 125 160 172 129 163 176 129 164 177 126 163 178 126
165 176 124 167 173 122 168 172 123 171 164 120 167 161 118 166 161 117 166 160 115 167
164 118 171 167 120 173 168 122 173 176 130 176 198 156 197 196 156 195 183 136 180 193
143 187 196 146 188 197 146 187 201 154 191 207 162 193 212 167 194 218 173 198 220 175
198 221 178 201 224 181 203 227 183 205 226 183 204 224 183 203 224 182 205 225 183 209
223 182 209 220 180 207 221 179 211 219 178 211 217 177 212 217 176 212 215 174 210 213
174 212 214 177 214 217 184 218 214 180 216 210 175 215 213 178 216 217 184 215 225 195
222 217 187 218 214 181 214 212 178 214 211 177 218 209 176 216 205 173 214 209 176 220
216 182 224 216 183 224 216 187 221 213 184 203 120  99  95   0   0   0  66  61  39  58
 53  26
229 190 180 229 188 181 228 185 180 223 180 176 223 179 178 220 173 176 210 160 166 206
153 159 204 150 159 202 145 159 201 144 157 199 141 154 197 138 152 195 135 151 192 136
150 189 133 147 188 129 144 188 130 144 185 127 143 184 125 143 184 123 143 182 123 142
180 121 140 179 120 139 178 120 139 178 119 139 178 119 139 177 118 138 178 117 138 179
118 138 178 117 138 176 116 137 176 117 139 173 114 137 170 110 135 169 112 134 168 113
136 165 108 132 165 106 132 165 107 133 162 107 131 161 106 131 162 106 133 160 106 132
159 106 132 159 106 131 157 104 129 155 103 130 156 105 133 161 108 135 160 106 134 159
104 134 160 104 133 160 109 135 166 119 147 157 109 138 154 104 135 154 108 138 151 103
135 152 102 137 150 103 137 149 103 136 149 104 137 152 107 142 157 111 148 153 107 145
150 104 141 151 106 141 157 113 148 164 121 155 156 110 148 159 114 153 165 117 157 166
117 158 169 119 160 171 120 162 169 122 162 175 125 163 183 129 167 191 134 172 197 140
175 196 142 176 194 141 176 189 138 174 184 133 176 180 129 174 178 125 173 185 140 183
186 141 183 187 136 181 192 139 184 194 141 182 193 145 182 204 166 197 209 172 203 199
155 191 201 154 190 205 159 192 207 162 196 211 166 197 217 172 199 224 180 202 227 184
203 225 184 202 226 185 203 230 188 207 230 188 207 228 189 206 226 187 209 223 184 210
223 186 212 223 186 213 223 182 213 222 182 214 218 180 213 216 180 213 217 180 214 216
179 214 215 178 215 213 178 212 215 181 214 216 182 216 216 183 218 216 186 218 222 196
223 224 200 226 221 195 223 214 184 217 211 180 218 208 177 215 210 179 218 209 179 212
168 144 163 155 130 147 119 102 112 119 105  95  54  41   0  55  50  37  44  38  30  56
 49  32
232 192 183 233 194 183 232 190 182 224 181 177 218 174 173 219 172 175 213 163 168 210
157 162 208 153 161 206 149 160 203 146 158 201 145 155 199 141 152 198 140 151 194 138
149 193 136 148 192 132 147 191 131 144 190 131 144 189 129 144 188 127 143 185 127 142
184 125 141 185 124 140 184 123 140 184 123 141 182 123 142 180 122 141 181 123 140 180
122 140 179 121 140 179 121 140 178 121 139 179 120 141 177 119 141 175 117 139 177 117
138 177 118 142 176 117 141 171 110 136 169 109 135 167 108 133 165 107 134 164 108 136
162 107 135 161 107 133 161 108 133 161 109 134 160 109 134 162 112 138 170 117 144 169
114 141 170 114 142 170 114 144 167 113 140 165 114 140 160 108 135 156 107 135 156 106
138 154 105 138 153 107 139 152 106 139 153 107 141 154 107 142 155 110 144 158 114 149
155 110 146 154 108 145 154 108 146 159 113 151 164 118 154 159 116 151 159 116 151 163
119 157 167 120 161 171 122 163 171 123 163 173 124 163 179 128 169 185 133 172 191 140
173 199 148 177 204 153 181 205 153 180 205 153 181 207 156 185 201 150 181 205 159 187
211 171 197 207 160 189 206 152 184 206 153 189 203 152 188 197 150 184 203 160 193 215
177 208 207 168 199 208 162 194 211 166 197 211 168 195 214 172 195 217 174 197 221 177
202 224 181 205 228 185 208 228 185 209 228 187 208 229 191 211 230 193 213 228 192 212
224 189 212 223 188 213 222 185 214 221 183 215 218 180 215 218 182 216 217 183 214 217
182 214 217 182 216 217 183 217 217 183 218 219 185 219 221 186 220 221 185 220 220 182
216 217 183 215 219 189 218 225 196 224 215 188 221 216 182 220 224 188 222 125 102 117
  0   0   0  22   0   0   0   0   0  66  52   0  71  59  30  61  52  27  43  36  19  58
 51  33
238 199 188 238 202 187 237 198 187 232 189 183 228 183 179 222 174 172 217 167 167 213
161 163 211 157 161 210 154 160 207 151 158 204 149 156 202 146 153 200 143 150 198 142
149 196 139 148 196 137 148 195 135 146 193 133 144 196 135 148 192 132 146 189 131 144
190 130 144 193 131 145 193 131 145 190 128 143 188 128 144 187 128 145 186 128 143 186
127 143 183 124 142 181 123 141 181 125 142 179 122 141 178 121 142 178 121 141 180 120
138 178 119 140 180 123 146 181 122 143 174 114 139 172 112 137 168 113 136 167 114 136
164 112 136 162 110 135 161 108 133 166 113 138 166 114 139 160 109 133 162 108 135 168
111 141 168 111 142 170 112 142 171 112 142 167 113 141 166 116 141 161 112 140 162 114
144 159 113 144 156 112 143 159 114 147 156 111 145 158 111 148 158 113 148 158 114 149
161 117 152 161 116 152 161 116 153 160 116 154 161 118 154 171 128 163 168 125 160 164
120 157 167 122 161 169 125 163 173 128 166 174 132 167 177 133 171 180 136 171 184 137
172 191 141 177 199 147 180 209 156 186 212 163 185 213 166 187 215 170 190 212 165 185
215 171 192 218 180 201 213 173 195 207 166 188 211 163 191 210 160 195 207 157 193 206
160 195 206 165 198 207 158 195 203 157 195 203 160 196 205 164 196 212 172 202 216 175
205 220 179 207 222 181 209 221 182 210 224 187 210 227 192 215 227 192 216 224 189 214
223 186 215 222 185 215 221 187 213 220 185 214 219 183 216 220 184 218 220 185 217 220
185 217 220 184 220 220 186 218 220 186 217 221 187 219 221 188 217 223 188 219 222 188
221 215 188 221 218 184 220 219 185 215 217 191 217 231 198 225 186 156 178   0   0   0
  0   0   0  33  25  29  64  56  37  69  60  26  77  67  30  75  61  26  58  50  21  39
 31  10
241 205 187 241 207 187 239 202 187 236 196 184 232 191 180 228 183 175 224 176 170 218
169 165 214 163 160 212 159 159 211 157 157 209 155 155 206 150 153 205 149 154 208 153
157 201 144 149 200 141 148 200 140 148 197 138 146 197 137 146 198 138 148 196 136 146
195 135 146 195 137 146 193 136 145 192 134 145 194 133 147 194 133 148 191 133 146 190
133 146 188 130 145 186 128 143 185 127 142 184 126 142 183 125 143 184 126 143 186 125
140 184 124 142 181 122 142 184 125 144 185 126 146 181 122 144 177 122 141 177 124 143
179 127 147 178 127 144 180 129 143 177 127 141 180 129 143 179 126 142 177 122 143 179
123 148 178 123 148 175 118 144 172 114 143 168 115 144 165 116 141 164 117 141 164 119
144 166 121 147 164 120 147 171 127 154 170 126 151 165 120 148 167 121 150 170 123 152
169 123 152 171 126 156 171 126 158 171 126 158 171 126 158 171 127 159 179 135 166 175
130 162 174 128 160 176 130 165 178 132 168 181 134 169 187 139 175 195 146 180 200 150
181 203 154 183 206 158 184 207 160 183 211 164 186 215 170 189 215 172 188 220 175 190
222 179 194 219 181 196 222 188 203 222 189 204 212 167 193 206 158 195 203 157 195 203
158 194 203 158 195 204 158 195 205 161 200 206 164 203 208 167 203 213 174 209 217 180
213 215 178 209 214 177 208 216 181 213 220 186 212 221 186 213 221 186 214 220 186 213
221 186 215 221 185 215 224 190 217 223 189 217 223 189 218 224 190 219 225 192 218 226
193 219 223 189 222 224 193 225 230 199 226 228 198 228 230 198 228 228 197 222 227 199
225 229 199 228 241 207 235 189 159 177 122 103 109 153 130 135  45  27  14  26  12   5
 34  21  20  27  21  11  57  49  18  50  45  18  41  39   8  54  47  18  46  43  17  46
 41  21
240 202 183 235 198 176 236 196 178 236 194 179 233 193 176 232 188 174 227 181 169 224
176 166 220 171 164 217 167 161 217 166 160 217 164 158 215 159 158 210 153 155 211 157
156 211 155 156 204 146 149 204 145 149 203 144 149 201 142 148 201 141 149 202 141 149
200 140 148 198 140 147 196 139 147 195 138 146 197 137 148 198 136 149 196 138 147 195
138 149 194 136 149 192 134 147 191 133 146 190 132 145 189 131 146 189 130 145 193 131
145 193 132 148 190 132 149 189 130 146 188 129 148 188 129 149 185 126 145 182 124 145
182 125 147 183 127 147 184 129 146 184 129 147 186 130 148 188 131 151 190 135 154 191
137 156 190 137 155 192 136 156 188 131 154 180 127 151 175 122 148 173 121 146 173 123
145 174 125 149 178 129 152 179 130 151 187 139 159 190 142 162 190 141 162 192 141 161
192 141 162 191 141 163 193 142 166 192 141 166 189 140 165 192 143 168 192 143 169 196
146 171 197 146 172 196 144 174 196 145 177 193 143 175 191 140 175 195 143 175 200 149
180 202 153 183 205 158 184 209 164 187 213 167 189 219 174 194 221 179 195 219 176 192
218 177 195 219 177 197 215 171 193 216 176 200 211 168 197 200 157 191 200 159 194 206
164 199 211 168 204 211 169 204 211 170 202 211 171 204 212 173 206 212 173 206 213 175
207 218 180 210 221 183 213 221 186 215 221 186 211 223 185 211 222 185 213 220 187 214
223 189 215 225 191 216 224 191 217 225 191 217 225 191 217 229 196 220 232 201 222 230
200 220 236 204 228 233 198 221 196 164 178 206 171 190 227 192 216 233 205 225 227 197
212 203 169 183 177 149 159 100  78  79   0   0   0  67  32   0  39   7   4  57  48  42
 35  23  23  40  32   9  66  58  22  44  37  16  44  40  21  59  50  26  49  43  18  52
 47  22
244 207 187 240 202 179 235 196 176 235 195 177 236 194 176 235 191 175 232 186 171 227
180 167 225 176 166 223 173 165 223 174 164 223 174 164 222 169 162 220 164 160 213 158
154 211 157 154 211 156 154 207 151 152 205 148 151 206 147 152 205 145 151 205 144 150
204 144 150 202 143 150 201 142 150 201 142 150 201 141 149 201 141 150 202 142 152 200
142 151 197 141 150 198 140 149 199 139 147 199 139 149 199 140 151 200 141 153 199 140
152 198 139 151 195 137 149 192 134 149 189 130 147 187 128 146 186 128 145 183 125 143
183 124 144 181 123 143 179 122 144 177 122 144 178 122 145 179 120 145 178 122 145 178
126 147 180 127 149 183 129 151 184 131 151 184 131 151 185 130 156 185 130 155 187 133
155 189 135 158 190 137 159 192 140 160 194 142 161 197 145 166 201 149 169 203 152 170
205 154 172 205 153 172 204 151 173 203 150 173 201 149 174 203 150 174 206 154 177 207
156 177 208 159 177 210 162 180 209 161 180 210 161 182 207 158 183 202 154 181 198 150
179 199 149 180 204 158 185 211 166 189 211 165 188 209 163 188 212 167 194 211 167 193
208 164 190 207 161 192 208 162 195 207 162 191 212 169 197 215 174 202 218 177 204 219
177 204 216 176 202 217 179 205 215 176 205 215 175 205 215 175 206 215 177 206 215 179
207 219 182 210 220 184 211 221 187 212 221 187 211 222 188 213 222 187 213 223 187 215
224 190 215 226 193 217 225 193 216 230 199 222 231 199 223 228 196 218 231 202 224 238
209 229 232 198 214 174 137 145  89  59  34 117  85  79 165 129 134 208 171 181 128 102
105  64  33   0   0   0   0   0   0   0  92  74  71 106  81  76  43  24  22   6   1   0
 22   8   7  56  46  33  62  55  23  45  41  18  53  46  21  67  57  29  62  54  26  50
 46  19
247 213 190 243 208 182 239 202 178 236 196 175 237 194 172 238 193 174 237 191 173 235
188 171 232 184 169 229 180 166 226 178 164 226 180 165 228 180 167 227 177 165 227 175
164 222 170 160 217 165 157 214 161 156 210 155 154 208 151 153 208 149 153 208 148 149
207 148 150 206 149 152 205 149 152 206 149 152 206 149 152 206 150 153 207 149 155 206
149 155 204 149 154 203 147 152 203 146 151 203 145 152 205 147 155 204 150 156 202 149
156 198 145 153 196 141 151 195 137 150 193 136 150 191 134 149 188 131 148 189 132 149
186 129 148 186 129 149 185 128 149 183 128 150 182 127 150 184 127 149 183 128 149 183
129 150 182 131 151 181 132 151 182 134 150 184 136 151 189 138 154 191 139 155 190 139
153 196 144 156 204 150 162 203 149 164 201 147 164 196 144 164 194 143 162 197 147 165
198 147 166 197 146 167 196 144 167 196 144 167 196 145 172 199 149 173 203 154 175 207
158 177 211 163 181 215 168 185 212 167 184 215 168 184 216 169 188 215 170 189 214 168
191 212 166 189 215 171 188 220 177 194 219 175 195 213 168 192 207 164 189 208 164 191
209 165 194 207 163 193 207 163 195 210 167 195 214 173 199 217 178 204 220 182 205 222
186 206 223 189 209 223 190 209 224 189 209 225 189 210 223 187 210 222 186 209 222 188
211 223 188 212 223 189 213 224 190 215 223 190 214 224 190 215 224 190 214 225 191 215
228 195 217 229 198 218 230 201 219 233 205 222 235 208 224 233 206 222 235 205 223 225
187 202 175 132 138  94  60  42  98  70  65 117  83  75 179 134 112 166 125 112   0   0
  0  12   0   0  56  42  42  31  21  21  42  29  23  82  66  61  51  39  35   0   0   0
 13   3   1  44  36  27  48  42  24  45  38  17  40  34  11  47  42  16  41  36  10  29
 28  10
248 213 188 243 205 178 241 197 173 239 194 171 237 193 167 238 192 168 238 192 169 235
189 166 234 187 165 232 183 164 230 181 163 230 180 162 230 180 164 229 180 165 231 182
165 231 182 166 228 179 165 223 173 161 217 164 155 212 159 151 211 155 151 212 154 150
211 155 152 211 156 154 210 156 154 209 154 153 209 155 153 210 155 154 210 155 155 211
156 156 210 158 157 209 156 155 209 154 155 206 151 155 205 149 155 206 151 153 205 149
154 202 146 154 200 144 154 198 142 151 197 141 152 195 139 151 192 138 149 196 143 155
191 137 151 188 132 147 189 132 148 187 132 150 186 133 151 186 133 150 187 133 151 188
134 151 189 136 154 188 137 153 191 139 154 194 143 156 196 144 157 200 148 160 204 153
163 209 158 166 213 162 170 214 163 171 215 164 172 213 163 173 207 157 169 204 153 167
202 152 166 201 153 167 204 155 171 202 153 170 198 150 171 198 150 172 200 152 175 202
153 178 202 154 179 199 153 178 198 153 178 199 154 178 198 154 178 199 157 178 204 160
185 213 169 189 219 178 190 220 178 195 220 178 194 217 175 192 215 174 194 216 174 196
218 176 197 219 177 197 220 178 199 219 178 204 217 177 203 216 178 203 217 179 204 217
180 205 219 183 208 222 188 211 224 191 207 227 194 209 230 196 213 227 194 211 226 193
211 226 194 212 228 195 213 228 195 215 229 196 216 229 195 216 230 197 217 233 201 218
234 205 221 234 206 222 233 204 219 235 205 219 236 206 215 241 216 223 255 229 235 213
175 173 119  71  52 125  87  68 152 110  91 192 149 124 224 184 148  95  71  48   0   0
  0  59  47  42  46  33  29  21   7   3  27  13   7  41  31  25  37  27  24  17   5   5
 13   5   2   0   0   0  35  30  13  67  59  27  60  53  25  46  42  14  36  32  13  19
 19   8
245 209 180 243 205 175 241 198 171 236 194 165 235 193 163 238 194 166 240 195 169 238
193 167 235 189 164 232 185 162 231 183 161 232 181 161 231 179 161 231 179 161 230 182
161 229 181 162 229 181 163 230 180 164 226 174 159 221 168 155 217 163 151 217 160 151
217 161 153 217 162 155 216 161 155 217 163 157 216 162 157 216 163 158 215 161 157 214
161 158 214 162 159 215 162 159 215 160 158 211 156 155 210 155 154 211 155 155 211 154
156 209 151 157 206 150 156 204 149 155 203 148 155 201 146 154 200 145 153 199 145 153
204 151 159 202 149 157 196 143 151 197 142 153 197 142 154 195 142 154 199 145 158 204
150 164 201 148 160 200 148 159 198 146 158 199 146 159 199 148 161 207 156 168 210 158
168 204 154 165 206 155 168 209 155 165 210 159 165 213 163 169 217 167 171 218 169 174
217 168 177 216 167 178 214 166 178 209 162 175 204 157 174 200 152 174 197 150 177 196
149 176 194 148 173 194 149 173 196 151 176 198 154 182 200 156 184 201 157 184 202 159
184 211 169 188 219 179 193 219 179 193 218 175 192 215 173 195 212 172 194 213 172 196
216 173 198 216 174 197 216 174 196 218 178 201 220 182 204 219 183 205 221 185 205 224
187 206 223 188 207 224 190 209 226 193 209 228 195 212 230 198 214 229 197 213 230 196
213 229 196 213 230 197 213 231 200 214 234 202 217 234 203 217 236 204 219 235 206 222
237 206 221 236 206 219 238 206 218 242 211 216 255 228 228 228 206 208 213 191 185 193
162 146 137 103  79 188 152 128 181 142 113 162 138 107 141 128  98  10   0   0  28  23
 10  28  16   5  22   7   3  27  16  10  37  24  16  34  24  18  24  18  14   7   3   2
  6   6   1   0   0   0  41  37  23  66  60  25  62  55  28  45  39  25  35  29  13  32
 28  10
243 206 172 245 207 173 244 205 172 241 199 167 239 196 165 239 193 166 238 192 165 237
193 163 236 191 163 234 188 162 232 185 160 232 184 159 233 182 160 233 181 161 233 183
160 233 184 161 232 182 162 230 180 160 229 179 160 228 178 161 222 172 156 220 169 154
219 168 154 220 168 155 221 168 156 222 169 158 221 171 161 221 171 162 222 169 161 220
167 160 218 165 160 217 164 159 216 162 159 215 161 157 215 161 157 213 161 157 212 159
157 211 156 156 209 153 156 207 151 157 206 149 156 205 148 156 206 148 154 206 149 155
206 151 156 209 157 160 208 157 159 205 151 156 206 151 157 203 151 157 203 151 158 207
155 165 210 159 166 206 156 161 204 153 161 204 153 162 204 153 162 203 154 163 207 161
168 206 161 170 207 158 170 212 161 170 215 166 172 217 166 173 219 169 174 214 166 173
209 159 174 205 155 172 199 151 170 198 151 170 198 150 171 199 151 173 199 153 178 199
153 179 200 154 180 202 156 182 203 157 183 203 159 184 204 160 184 206 162 185 210 166
187 214 171 190 218 176 193 225 185 197 232 192 201 229 189 203 222 184 198 219 179 197
219 179 200 216 182 199 220 189 204 221 182 200 224 187 204 226 192 208 227 192 209 230
194 211 229 195 212 229 196 212 230 196 212 231 198 213 231 200 215 234 204 218 235 205
217 234 204 217 237 207 219 239 211 220 239 212 220 239 211 220 239 213 220 235 215 221
240 212 221 246 219 225 253 232 234 255 242 232 255 246 233 159 149 142   0   0   0  75
 57  37  52  41  28  95  79  61 131 107  82   0   0   0   0   0   0  40  30  12  29  23
  6  37  25   8  23  10   4  20   9   8  21   6   0  62  51  47  54  43  42   0   0   0
 18  10   6  22  15   8  48  43  21  63  58  23  64  58  26  57  52  29  46  41  19  43
 39  12
246 207 168 244 205 166 245 205 166 247 204 167 245 201 166 243 197 164 242 195 164 238
193 160 236 190 158 236 187 157 234 186 155 234 184 153 233 182 154 232 180 153 232 180
153 232 181 155 232 180 157 231 180 157 229 179 156 231 181 159 228 178 158 223 174 154
222 173 153 220 171 154 221 170 155 223 171 156 223 173 159 225 175 162 226 174 161 223
171 159 221 168 158 219 166 159 218 166 159 218 166 159 217 166 159 215 166 157 214 163
156 214 160 155 213 158 156 211 156 156 209 154 156 209 153 156 210 153 154 210 155 154
211 158 156 210 157 157 211 160 162 212 162 165 211 162 165 213 164 164 214 164 165 212
163 165 214 165 166 214 165 167 212 163 165 212 162 166 213 161 166 210 161 165 206 161
167 213 168 175 215 171 177 213 168 173 217 168 174 219 169 175 213 164 175 208 160 174
207 160 174 205 158 173 204 158 174 204 158 175 204 159 176 204 159 177 204 161 179 206
163 181 207 164 181 209 166 184 212 169 186 213 172 189 214 173 189 215 175 188 217 176
190 219 178 191 220 179 191 223 185 195 235 199 201 239 204 206 232 199 204 228 192 203
228 193 205 227 198 205 239 217 222 238 213 220 230 198 206 232 199 207 235 202 211 237
205 213 238 208 216 239 210 217 240 211 219 241 213 220 242 216 222 244 219 224 243 219
224 243 219 223 244 220 225 244 222 225 244 223 226 242 220 223 243 221 225 248 231 236
255 235 239 255 241 238 235 223 213 184 173 158 170 158 141  79  68  58   0   0   0  35
 36  23   0   2   0   0   0   0  54  47  26  59  53  27  52  49  28  38  30  16  28  20
  4  38  30  10  31  21   7  16   5   6   0   0   0  66  59  53  54  46  43   0   0   0
  0   0   0  64  58  30  65  61  28  44  38  15  53  48  20  55  52  21  34  31   9  31
 29   8
244 209 164 245 208 164 247 206 164 249 209 165 247 209 162 245 204 162 243 200 158 242
197 159 240 194 158 239 190 156 238 190 155 236 187 152 235 184 151 234 181 150 232 180
149 230 177 148 229 175 148 229 174 148 228 173 148 228 172 149 229 174 152 228 174 152
227 173 152 226 172 152 226 171 152 226 170 152 226 171 155 227 173 158 227 175 158 226
175 159 225 173 159 223 173 158 222 173 158 222 173 159 223 174 160 222 173 161 223 173
162 222 170 162 220 169 160 218 168 158 218 168 160 218 167 161 219 169 161 218 169 162
217 169 162 219 170 162 220 171 161 221 172 164 222 175 168 222 174 168 219 171 167 218
170 167 216 167 165 214 167 164 216 168 168 215 167 167 214 167 166 216 169 170 217 168
174 215 166 172 216 169 175 218 171 178 216 165 173 212 164 169 211 164 173 211 166 173
212 167 171 215 170 176 214 171 178 214 171 179 216 172 181 215 173 181 215 174 180 216
175 183 218 176 186 219 177 186 221 180 188 225 184 191 231 191 196 233 192 196 231 192
196 233 195 200 235 198 204 234 199 205 235 201 202 237 205 203 235 204 207 234 202 209
235 202 207 237 206 209 241 211 213 244 223 223 243 223 222 240 217 217 243 219 216 245
223 217 246 226 220 247 228 221 248 228 223 248 229 224 249 231 226 250 231 228 249 229
227 249 229 227 249 230 228 247 228 228 245 226 226 252 233 233 255 238 238 247 230 228
219 202 196 170 158 146 107  99  81   0   0   0   0   0   0  25  13   0  33  29  11  31
 26   8  33  27  12  33  26  18  52  46  24  46  50  12  30  34   1  35  27   9  34  25
  9  27  20   4  26  21   7  25  21   4  18  15   9  41  38  31  14   7   2   7   0   0
 18   7   8  59  51  27  47  44   7  23  23   5  26  25   3  47  43  19  39  36  17  36
 34  12
254 216 162 252 211 159 250 209 159 247 206 158 246 207 157 242 205 162 243 201 157 242
198 156 239 195 154 240 195 153 238 193 153 237 191 152 236 187 150 235 186 151 234 184
150 234 182 149 233 180 148 232 177 147 230 174 146 227 171 144 225 170 144 224 170 146
226 172 150 226 171 150 223 168 148 223 168 148 223 168 149 223 167 151 223 171 150 226
174 155 225 174 156 222 173 154 222 174 155 224 175 158 225 177 160 225 177 158 227 179
161 227 178 162 226 178 163 226 179 164 226 179 164 227 180 165 227 180 165 226 179 165
225 178 166 226 178 165 227 178 164 226 177 165 226 177 167 224 177 169 223 176 169 222
175 169 221 173 168 220 171 168 219 173 169 219 174 169 220 175 169 221 176 171 222 178
174 224 179 176 226 181 176 228 185 181 228 184 181 224 182 180 223 181 181 223 181 182
225 182 181 226 183 185 227 186 190 226 185 187 227 184 186 228 186 187 230 189 188 231
191 190 235 195 194 238 200 196 239 203 197 240 207 200 244 211 204 245 212 205 244 212
204 245 216 207 246 218 212 242 214 211 242 211 209 242 211 210 240 212 212 239 210 209
240 212 210 242 214 214 244 216 217 245 219 215 246 226 222 247 233 229 248 233 228 250
232 225 249 233 226 249 234 226 252 236 227 253 236 229 254 236 232 252 235 232 250 234
231 251 235 233 252 235 233 249 234 233 255 240 239 234 217 215 186 172 167 131 118 106
 50  35   0   0   0   0  15   0   0  64  58  47  49  46  35  41  37  18  28  24   2  24
 22   5  23  21   6  21  19  10  38  38  12  45  48   8  37  38   7  25  19   6  25  16
  5  25  16   3  28  19   5  40  30  11  24  14   3  30  21  14  27  19  14   0   0   0
 60  52  39  79  69  37  56  51  14  42  39  19  21  21   5  45  42  18  41  34  15  43
 41  16
208 161 116 220 173 127 255 215 160 252 214 163 250 210 154 251 212 157 253 212 164 251
210 159 252 209 160 244 200 152 241 198 149 240 195 150 240 193 149 239 190 148 238 189
148 238 187 147 237 185 148 235 182 145 233 179 143 231 177 142 229 174 141 226 172 142
224 170 142 225 170 143 221 167 142 222 166 145 221 166 145 221 165 146 222 167 147 224
171 151 226 175 156 225 173 154 224 170 152 224 170 154 222 168 154 220 169 152 219 169
152 218 168 152 220 169 156 221 169 159 220 168 158 220 168 157 221 169 158 220 168 158
221 169 160 221 171 161 221 173 161 224 175 165 225 176 166 224 177 164 226 180 167 227
180 169 227 181 169 228 183 169 227 184 170 228 185 171 230 187 172 232 189 174 232 192
178 234 195 180 234 195 179 233 196 182 236 199 186 241 202 190 240 200 190 235 196 187
232 192 184 230 189 184 229 189 187 230 192 187 230 190 187 231 191 188 235 197 191 238
202 195 239 205 196 241 208 199 241 211 201 242 213 205 244 215 207 247 218 210 246 219
209 245 220 207 244 220 209 243 220 210 244 218 209 245 220 213 245 222 216 245 222 215
246 223 215 245 224 218 245 225 220 247 226 221 247 225 221 248 225 223 249 228 227 247
226 225 247 226 225 247 228 226 248 230 224 249 231 225 249 231 226 254 236 232 255 241
234 254 240 235 253 238 238 255 242 238 207 193 188  67  49  46   0   0   0   0   0   0
 30  19   0  56  53  40  45  40  30  29  22   3  34  29   6  26  23   2  25  22   6  23
 22   6  22  20   9  18  18   6  33  35  11  40  43  11  30  31   9  11  11   3  10   4
  2  22  15   8  30  20   4  44  30   6  37  25   9  33  23  15  21  13   7   0   0   0
 44  41  27  78  70  35  71  64  27  49  43  18  32  27  12  36  33  18  35  30  15  38
 37  13
 73  41  39 124  90  73 196 171 133 175 153 121 238 203 149 227 188 126 216 172 123 225
186 134 198 162 122 253 209 160 247 204 150 246 203 150 246 200 149 243 195 147 242 194
146 241 191 144 240 188 143 237 186 142 237 186 142 237 183 142 235 178 140 232 177 141
229 175 140 229 175 141 227 173 141 224 168 139 223 167 140 223 167 141 222 167 141 222
168 143 224 172 147 226 174 149 227 175 151 228 175 153 228 175 154 227 175 156 225 173
156 223 170 155 222 169 154 222 168 153 222 168 153 222 168 153 221 173 156 221 173 157
221 173 158 223 176 160 224 178 160 225 178 163 226 180 165 226 184 163 230 187 168 232
189 171 233 189 172 234 191 173 234 193 175 235 194 176 237 196 177 239 199 180 237 200
181 238 198 182 238 198 183 237 199 185 240 202 188 241 204 187 238 201 185 237 199 185
236 198 185 235 197 188 234 197 190 236 199 191 237 200 194 238 203 195 237 205 194 239
204 196 239 204 198 237 203 199 236 203 200 236 204 201 238 205 202 239 207 203 241 209
206 242 213 209 243 215 211 245 217 212 246 219 211 246 220 214 246 222 216 247 223 217
247 223 216 246 224 218 245 224 219 246 224 219 246 222 219 245 221 219 245 221 218 245
223 220 246 226 222 247 228 223 247 228 225 246 227 222 251 233 228 243 226 215 163 148
133 193 179 163 252 235 225 197 182 176   0   0   0   0   0   0  57  47  32  53  43  29
 54  44  27  31  23   3  29  24   4  29  25   8  25  23   7  25  23   5  21  19   3  20
 19   4  17  18   4  14  15   5  24  25  11  33  37  11  38  41  17  27  26  12  19  14
  3  25  19   6  25  18   6  42  33   7  34  25   5  16   5   0  14   3   4  21  12  14
 56  48  29  66  61  32  53  49  19  56  54  23  36  31   8  34  32  13  30  31  14  33
 32  13
  0   0   9  16   0   3 141 125 107  43  38  43 169 139 103 207 163 115 117  74  38  99
 64   5 125  81  49 240 198 147 247 208 147 247 201 145 249 200 147 242 199 146 244 198
143 244 196 143 242 193 143 242 192 141 240 191 143 240 187 140 239 184 138 236 184 139
235 183 140 234 181 140 235 181 142 233 180 142 230 177 140 229 177 141 229 176 142 228
174 142 227 173 144 226 174 146 225 176 147 227 178 148 228 179 149 231 181 151 234 185
154 236 187 157 237 191 159 237 194 161 239 197 165 239 198 166 239 196 163 238 195 163
239 196 166 242 197 171 242 197 173 240 195 172 238 194 172 238 194 171 237 193 171 236
192 171 235 190 171 234 189 171 233 189 172 233 190 173 235 193 173 237 198 177 238 201
181 240 202 182 241 201 182 239 201 182 239 202 184 238 201 184 236 199 183 236 199 185
237 199 187 236 197 189 236 197 191 235 198 190 235 199 190 236 202 193 237 204 195 239
205 196 242 207 197 240 207 199 239 207 200 237 208 198 237 208 199 238 209 200 240 211
204 242 214 207 242 216 208 243 217 209 245 216 212 245 217 213 245 219 215 243 218 213
243 218 212 244 219 215 245 220 217 245 221 215 245 222 216 245 225 220 245 225 220 246
227 221 247 227 221 248 228 221 247 228 222 251 232 230 255 238 228 162 147 130   0   0
  0  69  52  15 107  92  77  48  21  14   7   0   0  63  52  41  42  33  14  58  49  27
 40  34   5  30  27   6  32  28   9  16  15   2  19  17   5  24  22   4  26  25   5  24
 25   7  21  24   7  13  15   5  16  18   5  33  38  12  39  43  14  39  38  13  26  24
  6  34  25   7  37  23   8  41  29  10  22   8   0  56  49  43  55  48  44  45  36  13
 76  67  30  60  56  23  34  34   7  32  30   5  57  52  28  53  52  34  11  15   4  21
 21   7
 34  25  23  36  24  20  51  34  26  41  29  21   0   0   0 100  77  54  57  48  33  42
  7   0 144  99  66 244 204 142 255 220 148 249 206 145 250 208 144 255 213 139 255 210
145 253 206 147 248 201 141 246 198 138 243 194 139 240 191 136 238 189 136 239 189 136
239 188 137 238 184 138 237 183 138 235 182 138 234 182 140 236 186 144 235 187 145 236
188 148 235 186 149 234 184 146 234 185 146 236 187 150 236 187 152 234 182 151 233 182
150 235 186 153 236 188 155 236 189 157 238 193 162 240 197 167 237 193 161 235 190 160
235 190 161 234 188 162 235 189 163 235 190 165 235 191 167 236 191 168 235 190 168 235
190 170 236 191 170 235 192 169 235 193 171 234 193 172 235 193 171 235 194 174 236 197
177 236 198 179 237 198 181 237 199 182 235 198 182 236 197 183 235 196 183 234 197 185
235 198 186 235 197 186 234 198 188 234 199 189 236 200 189 235 200 190 236 202 193 238
204 195 239 206 196 239 207 198 238 208 199 239 209 200 240 210 202 241 210 205 242 211
206 243 213 206 244 215 208 246 218 211 248 220 211 248 222 212 248 223 213 246 223 212
246 223 214 248 224 217 248 224 218 247 222 217 248 224 219 248 225 222 247 227 221 246
227 220 250 232 227 254 235 232 252 234 230 255 244 237 220 207 189  76  61  19  39  31
 20  51  46  33  12   0   0  29  17   5  30  20  17   9   1   0  40  30  13  56  45  19
 40  34   8  35  30  11  29  24   6  23  22   4  29  28   5  29  27   5  25  25   7  16
 17   5  16  18   4  10  13   2  18  21   3  35  40  15  38  42  14  41  40  11  24  23
  5  31  18   7  34  22   8  33  27   9  30  26   9  27  20  16  37  31  27  61  57  33
 66  62  26  49  46  22  31  35  11  60  57  29  48  42  17  40  37  26  27  26  11  36
 36  15
 29  23  23  29  24  21  16  16  13  23  14  14  37  30  26   0   0   0  23  14   4  39
 22   6  96  64  46 197 167 120 244 209 136 252 210 130 247 211 134 222 182 121 205 161
107 216 173 120 251 202 139 248 203 141 254 203 139 253 200 136 250 196 133 242 189 129
237 184 129 237 182 130 238 182 131 234 180 130 230 177 129 230 177 130 234 181 133 235
182 135 237 184 138 237 184 141 239 187 146 236 186 149 234 184 149 236 183 146 234 183
147 232 183 149 233 182 149 234 184 150 233 183 150 233 185 153 234 189 157 234 189 157
233 188 158 234 187 158 235 188 160 235 189 162 233 188 162 235 190 162 235 190 163 236
190 165 236 191 165 237 194 165 237 195 168 237 196 169 238 195 170 237 196 172 237 196
173 237 195 175 238 196 178 236 196 179 235 196 179 237 195 180 237 197 183 237 199 186
237 200 185 238 202 185 238 205 189 238 205 189 240 204 189 239 204 191 237 204 192 239
205 193 241 206 195 241 207 198 240 207 198 239 209 199 240 210 200 240 210 202 242 212
204 242 213 204 242 213 205 243 216 207 246 219 208 248 222 211 248 223 212 249 225 214
251 228 218 251 230 219 251 232 220 254 233 219 253 233 220 252 234 222 252 236 223 253
238 225 248 234 224 234 221 213 250 237 228 189 180 166  68  61  27  51  37   0  52  46
 30  38  34  13  51  43  28  45  36  23   6   0   0  30  22  13  39  32  10  42  35   2
 33  27   7  28  23   6  29  26   6  31  27   5  30  28   6  21  23   5  16  18   6  21
 22   7  23  22   5  20  21   6  18  18   5  22  25   4  37  40  10  46  41   9  30  24
  2  27  18  10  33  25  14  20  19   6  30  27   8  19  12   2   5   2   1  38  36  15
 36  34  11  31  33  10  43  44  20  56  54  25  50  44  20  30  25   6  41  42  18  40
 40  13
 45  35  32  40  32  25  38  29  25  28  22  19  27  19  11  44  31  21  32  22  13  33
 23  10   0   0   2   0   0   0 117  88  52 197 149  79 220 176  95 126  92  44  54   0
  0  84  56  31 151 119  83 158 133  97 195 163 117 195 156 108 214 171 118 244 192 131
249 190 125 243 185 124 237 180 125 241 182 127 244 186 128 242 188 132 236 184 137 240
186 137 236 184 133 238 187 139 227 179 138 232 183 140 240 191 146 239 192 144 241 193
147 239 193 151 240 193 151 242 191 149 240 192 151 240 192 152 238 194 154 240 196 157
238 193 157 238 192 156 238 192 155 238 193 157 238 194 159 239 195 158 239 195 160 239
194 161 240 194 162 241 195 163 241 196 165 240 196 167 240 197 167 240 198 169 238 198
169 239 198 171 240 199 174 238 198 174 237 199 176 238 198 177 239 199 178 238 200 179
238 200 180 239 201 182 240 203 184 239 203 185 240 204 187 239 205 188 238 206 190 240
206 192 242 206 193 241 207 196 242 209 198 241 209 199 241 210 200 240 210 201 242 211
203 243 213 205 244 215 206 245 216 208 247 218 209 248 220 210 248 222 212 250 225 214
251 228 215 251 232 217 253 237 220 251 236 222 249 233 220 250 237 223 248 237 222 255
247 229 185 174 159 140 123 105 158 148 131   0   0   0  34  16   0  58  48  30  46  34
  8  57  47  22  59  47  19  48  40  18  36  28  16  46  37  21  40  33   8  35  30   6
 37  31  12  33  29   7  29  27   8  29  24   5  18  14   4  19  20   9  19  21   7  25
 25   7  26  26   4  21  23   7  21  22   9  25  28   5  36  39   4  56  50  11  48  41
 12  25  17   5  30  21   9  26  23   7  33  28   4  32  25  10   0   0   0  46  43  26
 50  47  21  38  37  15  36  36  14  31  30  11  34  31  16  25  23  12  29  30  16  19
 20   8
 58  46  42  47  37  34  39  31  28  33  27  23  31  25  19  27  20  15  25  18  13  30
 20  13  34  23  15  41  30  14   0   0   0  47   0   0 129  94  42 166 139  74 121 101
 58   3   0   0   0   0   0   0   0   0   0   0   0   0   0   0  24  24  16 135 105  74
228 178 122 243 191 128 248 193 124 239 185 120 225 177 124 215 173 125 138 109  81 186
149 110 244 193 138 245 193 134 152 124  90 212 164 120 244 193 138 235 191 140 241 191
141 240 193 144 236 194 144 239 192 142 238 195 146 240 196 149 243 197 149 241 197 150
243 198 154 244 199 154 243 199 154 243 200 156 243 200 157 244 200 158 244 201 160 243
201 161 244 202 161 245 202 160 244 204 163 244 205 165 245 205 168 245 206 169 245 207
168 245 206 170 245 207 174 244 208 176 244 208 177 244 210 181 246 209 181 244 208 179
243 208 181 246 209 185 244 209 185 243 209 186 243 208 187 242 209 188 242 210 190 243
210 191 244 211 192 242 212 194 243 214 196 245 214 196 246 216 198 245 217 200 246 218
201 247 219 202 249 222 206 250 225 209 252 228 212 252 230 213 253 232 214 253 233 215
253 234 215 253 235 219 251 234 219 255 240 226 255 247 232 254 240 224 250 240 225 249
236 217 115 100  84  51  23   0  50  33   0  61  51  33  63  55  35  63  51  13  72  57
 24  67  52  22  51  39  17  39  30  13  42  38  16  44  38  19  36  30  12  34  28   5
 43  37   8  34  29   8  22  19   6  28  26   7  20  19   4  27  25  11  23  22   7  18
 18   4  18  20   4  15  20   3  14  17   3  38  43   9  49  53   4  53  51  11  47  42
 15  30  20   5  32  26   6  35  30  10  33  28   7  32  26   7  16  11   4  33  31  18
 47  45  18  43  41  15  49  51  28  26  25   7   0   0   1   0   0   0  28  30  18  23
 26   9
 80  66  63  66  55  53  52  44  42  41  34  32  38  30  28  32  24  23  29  21  19  29
 21  18  26  17  14  29  20  17  44  39  24   6  16  14   0   0  10  53  43  24  55  43
 22  35  23  14  54  42  23  50  36  21  21   6   0  28  17   4   0   0   0   0   0   0
 72  60  45  98  74  49 201 163 109 185 155 106  41  36  25  59  46  28   0   0   0   0
  0   0 155 121  86 209 171 125  92  79  59 212 168 125 248 191 129 235 183 122 240 186
129 242 188 128 243 193 132 247 192 136 243 193 135 245 194 137 242 191 137 241 192 138
243 193 139 243 196 141 243 198 143 243 199 145 243 200 147 244 200 148 246 203 151 245
204 153 245 203 154 244 203 155 243 203 156 244 205 159 244 205 161 244 206 163 245 209
166 247 210 167 248 211 170 247 212 172 247 213 174 247 214 176 248 212 177 248 215 179
250 218 182 248 215 182 249 217 184 248 217 186 248 216 188 247 215 190 247 216 192 247
218 192 247 218 192 247 219 194 247 220 195 247 221 195 248 224 198 248 225 201 249 227
201 251 228 203 251 230 205 250 230 207 250 232 209 251 233 212 251 235 214 252 236 215
252 236 215 250 235 215 255 243 222 229 218 194 168 160 142 224 214 195 255 253 233 197
183 163   0   0   0  50  46  25  81  71  40  69  56  28  66  54  18  71  60  22  60  48
 18  48  39  18  22  20   8  20  13   4  36  33  11  47  43  19  35  30  12  40  35  11
 37  32   5  26  21   5  30  29   9  29  28   6  25  26   4  22  22   4  21  20   5  22
 24   5  19  21   3  24  25   6  43  44  14  51  53   8  48  51   4  37  37   7  38  34
  9  30  23   6  34  27  10  32  25   8  32  25   6  38  30   6  24  17   4   0   0   0
 35  34  16  40  37  17  14  14   7  32  29  19  20  17  11  11  12   4  40  41  22  35
 37  13
109  88  85  96  78  73  83  69  64  71  60  54  64  54  46  54  44  35  46  36  30  35
 26  23  29  19  17  26  16  18  25  16  13  42  30  11  40  27  10   0   0   2   5   0
  2  26  16   6  24  12   6  25  16   7  29  21  11  30  21  10  37  27  16  46  32  18
  0   0   0   0   0   0   6   6  19  61  51  41   0   0   0  20  18   0  56  45  21  20
 12   0   0   0   0  13  22  14  40  27  12 123 100  80 224 175 120 251 195 121 233 185
125 232 186 133 215 171 121 209 160 115 227 182 131 226 179 127 248 197 135 247 197 132
244 195 130 247 198 131 251 203 136 247 201 136 244 200 137 245 201 139 246 204 142 246
206 144 248 207 148 249 207 151 249 208 153 249 209 154 247 210 155 248 211 158 247 211
162 249 212 163 250 215 165 249 215 167 249 216 169 249 216 170 255 222 178 246 219 177
235 211 169 251 222 178 249 220 179 249 221 180 252 223 184 255 226 188 252 224 187 248
224 189 249 225 190 250 224 191 252 223 193 250 225 194 251 227 198 251 228 200 251 228
200 251 228 199 253 232 203 255 238 208 255 239 207 255 235 206 253 233 208 252 235 210
254 238 211 255 244 215 255 245 213 137 129 105   0   0   0 157 147 124 217 203 177 101
 81  61  11   0   0  55  51  30  69  59  24  52  41   7  63  52  23  62  54  20  47  39
 14  41  33  15  34  31   9  33  32   8  35  35   9  39  34  14  22  15   5  39  35  13
 40  35  10  28  25   8  28  25   7  23  20   5  28  27   9  26  25   7  26  25  10  27
 28  11  19  20   6  15  15   6  42  44  14  49  52   8  48  49   9  40  40  10  39  39
  8  31  30   7  26  17   8  28  21   8  31  24  10  37  31   9  35  31  11  22  18  11
 31  25  16  26  21  10   0   0   0  25  24  16  10  12   5   0   0   0  13  20   8  10
 18  10
119  99  82  97  73  72  86  64  64  81  60  49  79  56  43  77  59  54  70  53  44  69
 55  45  62  52  34  53  43   4  49  37  20  41  29  31  36  24  27  38  28  20  29  20
  9  24  13  11  26  15  14  22  14   6  19  11   3  18   8   2  26  18   9  33  25  14
 39  26   9  40  29  14  19   9   0   3   0   0  37  25  11  33  24  10  25  19   4  33
 22   9  34  25  14   0   0   0  46  36  24   0   0  23 143 113  77 210 173 114  93  76
 46  81  68  51  33  26  13  44  38  21  82  72  51  58  46  22 178 146 101 230 187 124
252 205 127 244 198 124 225 183 122 245 199 133 252 205 131 248 203 129 249 203 130 249
205 134 249 206 136 250 209 136 251 211 138 251 214 142 252 217 144 253 218 148 253 219
152 253 221 157 253 222 163 254 224 164 252 222 166 254 228 170 230 210 164 122 108  81
 99  86  58 237 212 168 255 231 179 252 231 182 251 227 183 230 209 170 244 224 180 252
231 186 250 229 190 251 226 188 252 224 188 251 225 189 251 226 188 252 228 189 250 227
191 253 230 193 240 219 184 200 185 155 197 185 155 243 229 196 255 242 207 255 242 208
245 230 193 181 166 134 181 174 146  73  67  47  31  26   0  96  87  65  92  77  52   0
  0   0  49  42  23  43  37  13  69  58  20  57  48  14  49  41  10  55  48  17  46  41
 19  46  39  16  46  41  13  45  44  14  39  37  10  41  34  17  37  30  15  40  36  13
 40  35  11  26  23   8  25  23   9  26  24  12  29  28   9  28  27   7  25  24   7  27
 26  10  25  25  10   7  10   8  22  24   5  43  46  12  42  44  11  35  37  12  43  44
 16  43  42  13  23  17   6  24  19   9  30  26  10  31  29  12  33  34  15  37  37  13
  2   5   3   0   0   0   1   7  11  28  24  20  45  41  29  58  50  29  70  60  34  87
 72  40
190 189 153 198 196 153 162 157 134 138 129 133 117 106 117  86  67 100  81  61  80  75
 53  75  61  36  84  71  53  83  75  55  79  79  61  68  76  59  53  75  56  53  65  51
 43  49  37  21  38  28   8  31  21  12  27  15  15  22   9  12  27  15  15  25  14  11
 32  21  16  36  23  16  36  26  17  33  26  15  24  16   7  21  13   5  25  15   7  20
 11   4  18  12   4  21  14   5  20  11   2   0   0   0  44  31  21  92  74  57   0   0
  0   0   0   0  10   0   0  11   4   0   0   0   0  23  14   2   0   0   0 124 105  74
217 187 127 185 157 102   0   0   0 191 156 103 252 205 125 252 204 121 254 208 126 250
209 125 252 209 126 255 211 131 252 211 133 250 213 136 250 216 137 253 218 142 252 222
147 251 226 147 253 228 159 252 228 159 255 236 162 243 225 163  84  80  51   0   0   0
  0   0   0 180 165 131 255 242 186 230 212 161 157 139 105  72  46  10 186 169 128 255
240 182 252 233 173 252 232 173 254 231 172 253 231 169 253 232 165 252 231 164 253 232
166 252 233 176 135 123  93   0   0   0   0   0   0 101  94  76 222 209 164 252 240 185
191 177 130  77  40   0   0   0   0  52  46  25  47  40  18  20   0   0  41  25   0  43
 36  22  37  34  10  46  41  13  49  41  13  42  38  18  41  37  14  48  43  16  31  25
  9  50  45  23  46  40  17  45  41  15  44  39  15  36  29   9  40  34  13  43  39  13
 34  31   7  30  27  12  24  23   8  24  22  11  26  25   7  24  22   8  22  20   8  28
 25  12  25  21   7  25  20   7  36  30  11  43  42  14  36  37  11  37  34  16  25  25
  7   9  17  10   0   5   9   0   0   4  13  14   0  26  29   5  38  35  26  61  53  37
 72  62  34  83  65  39  90  71  34  99  80  28 102  83  38 108  86  44 103  85  29 103
 84  12
198 189 192 222 219 204 203 201 198 186 184 182 209 206 194 184 181 179 170 167 165 124
120 126 116 113 121 100  89 119  83  58 111  56   2  55  64  22  18  75  35  38  71  31
 25  78  51  42  81  59  47  77  58  39  74  57  37  64  48  29  57  44  16  51  39  20
 41  28  19  30  22  16  36  25  16  30  16   7  18  11   8  15   9   7  17   7   4  20
 11   5  23  14   8  22  14   7  25  15   4  21  17  10  34  25  15  32  20   9  35  27
 14  30  21  11  22  13   4  21  15   5  24  21  10  23  17   7  32  21   3  62  55  45
138 123  91 100  83  51   0   0   0  80  63  37 129 103  63 156 128  81 183 154 100 207
163  90 254 206 119 241 197 113 255 211 124 255 217 121 254 219 127 255 224 135 255 227
138 255 233 142 255 231 148 255 237 153 246 231 153 147 136  96   0   0   0  61  57  40
  0   0   0  90  77  56 172 158 118 150 126  81  68  24   0  87  67  36 122  96  63 214
194 133 255 235 156 253 229 150 254 230 149 254 229 149 251 228 144 249 226 140 255 237
150 211 195 129  44  37  12  50  46  27  67  64  44   0   0   0 146 134 100 219 202 149
107  84  29  79  69  47  72  63  43  45  33   0  40  28   0  52  43  23  37  33  18  30
 29   8  49  46  18  41  38  11  18  18   2  18  19   6  38  36  17  40  36  15  29  23
 12  42  38  20  44  40  16  40  36  11  40  34   9  49  42  20  50  43  20  42  36  12
 37  32  13  36  33  15  27  24   5  26  22   8  30  27  10  28  24  10  24  21  12  17
 19   6  11  17  12   0   0   5   0   2   0   9  23   5  15  30  17  32  40  25  23  24
 15  51  42  21  66  54  35  78  67  42  85  73  47  87  72  54 111  90  59 101  79  34
109  88  59 107  87  56  90  74  53  78  65  64  71  58  39  66  52   0  61  62  63  54
 57  85
106 109 184 105 102 193 131 131 190 159 156 175 214 211 196 204 207 196 186 187 196 198
195 204 188 188 180 180 180 149 171 169 129 177 173 141 144 136 119 122 113  80 117 108
 92  93  74  89  69  33  54  72  41  15  80  48  38  86  63  59  85  66  63  86  60  43
 93  72  45  91  73  49  83  65  47  78  60  46  67  48  37  57  40  35  51  38  30  41
 30  24  30  25  20  20  17  12  24   9   3  21   9   8  16   6   5  18  12   0  12   5
  1   6   4   3  12   6   3  15   6   1  15  10   2  20  15   2  25  18   5  36  20   2
 81  61  27  74  56  25  44  34  10  39  26   0   0   0   0   0   0   0   0   0   0  87
 56  27 157 125  79 131 100  54 178 141  82 232 191 106 251 209 116 240 202 115 244 214
128 239 213 130 247 220 129 255 235 141 173 159 104   0   0   0  44  43  24  12   9   0
 30  27  16   0   0   0   0   0   0  51  39  12  66  57  36  64  54  30  62  39  19 179
158 103 254 225 148 254 222 138 253 221 137 253 221 138 253 221 132 252 221 136 239 214
141 132 120  85   0   0   0  42  38  14  36  33  11   0   0   0 179 168 119 226 207 144
128 108  68  27  31   9  31  24   0  44  35  11  43  33   8  25  20   1  22  20   3  50
 45  16  51  46  13  36  33  11  33  32   9  17  18   2  36  33  14  43  37  14  40  32
 16  57  51  27  51  45  14  54  46  20  49  41  17  51  44  20  43  39  15  29  28   7
 29  27  14   0   0   0   0   6  11   6  13  14  10  16  10  13  21  17   1  12   0  38
 34  22  51  44  23  63  53  30  73  61  42  76  67  43  78  70  32  78  65  14 104  85
 42 125 103  65 105  84  40 107  89  36  96  82  27  89  76  45  90  79  73  74  68  60
 60  57   0  55  54  40  60  68  43  64  78 115  73  87 164  79  91 167  83  98 173  82
 96 176
130 146 208 115 129 207  97 113 201 117 130 212 127 134 190 102 117 171 103 110 156 148
145 168 177 172 165 192 191 164 164 163 133 187 184 158 174 176 167 185 187 178 173 172
165 140 136 125 171 169 130 144 139 116 109 104  99  83  75  88  81  63  81  86  68  66
 60   0  29  49   0   0  70  33   0  78  45   0  84  55  28  82  56  28  79  53  21  82
 55  30  80  56  31  75  57  36  73  56  40  68  50  28  60  48  27  56  46  32  50  37
 23  36  24  11  30  22  11  26  16  10  17   4   3  32  22  14  42  30   8  45  31   9
 41  31  11  37  30  14  34  27   9  45  35  14  57  44  22  56  45  23  41  33  15   5
 19  13   0   0   0   0   0   0   0   0   0 124  95  57 137 102  54 113  82  41 133 105
 65 110  84  49 132 105  57 158 127  70  67  36   0  43  41  20  30  27   4  29  27   8
 13  13   0  35  33  22  55  52  33  18  19   1  17  12   0  48  37   9  52  37  19 116
 97  70 236 202 116 255 217 121 249 211 114 255 214 113 245 209 116 255 225 120 240 209
110 106  92  47   0   0   0  47  43  16  28  25   3  35  27  13 153 142  95 170 153  99
114 100  65  60  57  30  33  27   1  41  34  12  35  31   6  28  25   7  19  21   7  38
 38  17  45  43  22  37  35  21  35  32  20  17  17  10  46  41  26  53  49  30  33  35
 15  42  41  25  16  21  20   4  16  13  24  26  18  56  48  34  49  38  26  49  38  25
 43  33  22  59  52  32  61  50  12  58  50   5  71  62  21  69  54   7  87  71  58  90
 76  32  85  71  40  94  75  41  92  73   0  81  64   0  86  76  46  84  78  69  90  86
 94  92  96 134  84  92 131  73  80 126  66  78 145  72  85 172  73  91 174  84 104 180
 91 109 186  84 104 180  88 105 171  75  94 172  95 117 203 104 126 224 109 124 220 122
136 209
156 154 153 152 151 160  90  99 150  92 113 178  85 101 184  89  99 181  99 112 179  78
 84 144 116 124 130 113 115 150 127 134 168 139 140 164 101 108 167 110 119 184 137 139
179 152 162 168 157 163 154 166 164 159 187 191 178 174 179 156 203 200 141 172 172 108
167 167 103 179 181 122 154 152 116 122 116 112  95  90  95  90  79 105 100  86  93  89
 70  73  76  57  72  74  51  59  72  38  20  77  50  56  70  38  65  62  25  28  69  44
  0  73  54  41  66  44  34  68  48  41  69  52  40  67  51  30  66  50  33  63  46  23
 57  43  20  44  31   0  43  29   0  38  28   9  31  22  11  31  22   2  35  24   0  46
 35  12  53  42  17  47  35  10  46  35  18   2   0   6   0   0   4   0   0   8  47  20
 22  61  41  25   0   0   0  90  55  34  93  73  43  34  33   3  35  31   8  22  20   5
 18  17   4  21  18   5  31  26   3  35  29   8  29  25   6  39  33  14  72  61  36   0
  0   0 179 156  77 255 234 107 255 233 100 191 156  79  95  73  46 205 176  82 244 214
115 134 120  70   0   0   0  49  46  26  37  35  21  39  37  26  22   0   4  36  15  12
 32  23   7  40  34   2  49  39   7  37  27   8  36  28   7  26  21   0  34  29   6  37
 31   0  36  29   0  27  19   0  32  27   0  39  32   0  40  31   0  43  31   0  64  49
  7  77  59   0  85  67   0  98  77  12  96  78  16  76  58   0 109  87   7 114  91  21
 93  73  24  87  71  12  78  65  43  72  64  53  77  72  79  76  72  79  67  59  43  72
 70 107  68  76 133  71  87 151  74  87 150  83  91 153  86  98 166  93 105 175  88 101
165  77  99 175  93 113 192  93 107 210  98 119 220  98 122 226  96 118 230  96 119 231
104 125 236 103 128 231 104 134 237 115 138 233 122 140 203  90 113 163 127 139 172 124
128 157
  0   0  13   0   0  32   0   4  79  61  65  98  57  61 105  60  67 125  60  81 180  52
 89 199  89 116 190 104 111 182  97 106 182 109 113 133 100 105 129 101 104 159 160 164
197 116 132 202  75  96 187  95 103 153 132 135 162 142 146 146 151 156 170 133 141 163
173 183 174 171 180 179 136 152 192 152 165 201 168 173 195 137 148 187 121 128 180 154
156 187 173 174 194 162 170 178 144 157 178 117 120 158 124 122 125 132 132 121 100 101
120  76  72 114  96  92 107  76  65  73  59  40  60  67  53  67  59  35  61  68  48  49
 64  49  45  67  61  76  59  50  73  53  36  56  51  32  35  49  27  29  53  34  53  49
 29  43  54  36  43  59  39  50  61  38  38  64  43  21  74  48  16  73  50  31  81  59
 36  98  73  50  99  72  50 103  73  42  76  51   1  46  24   0  43  23   0  39  21   0
 39  26   0  41  29   0  40  30   5  17   0   0  27   6   0  36   5   0  52  22   0  59
 37   0  71  28   0 174 153  48 184 162  56  96  63   0   0   0   0  56  13   0 108  81
  0  75  45   0  55  32   0  57  35   0  55  32   0  52  29   0  65  41   0  85  62   0
 73  51   0  59  41   0  55  39   0  48  31   0  58  44   0  59  49  10  48  36   0  49
 37  43  59  53  83  66  60  76  77  68  52  79  68  51  65  58  77  68  65  89  89  77
 75  99  85  97 101  90 124  98  93 136  90  95 153  84  97 171  88  96 167  87  95 167
 82  92 178  77  92 174  90 100 172  92 100 168  85 101 168  90 105 181 110 119 189 115
128 196 100 120 197 108 131 213 120 135 229 126 138 229 118 138 224 119 141 232 115 140
228  92 127 232  87 119 230  92 121 224  91 119 223  81 105 210 109 126 210 125 137 204
122 131 201 130 130 192 121 129 157 116 125 144 116 124 116 119 131 153 134 141 186 111
117 168
 89  88  71  67  76 107 105 103 117 125 123 103  96 102  81  87  90  84  78  79 117  98
106 177 123 141 226  94 125 208   4  83 213  11  90 211  27  85 202  45  77 183  53  65
148  16  41 136  39  58 144   0  25 121  52  63 121  79  82 120  87 100 165 120 139 216
117 137 224 116 141 221 114 145 218 114 133 193 122 130 189  54  81 185  41  87 205 108
128 199 135 143 166 120 130 174 112 129 207 130 140 181 147 160 173 133 154 191 136 153
191 113 124 172 127 138 156 141 149 157 129 136 162 126 135 167 150 161 182 114 130 169
100 120 172  67  78 150 113 118 153 120 125 148 105 109 129 102 110 135  93  96 139 100
100 139  91  95 123  94  91 118  97  92 122  92  97 138  96  98 146  90  85 131  77  66
102  81  55 104  97  79 116  93  79 106  81  77 107  84  80  90  88  83  86  85  81  76
 85  78  63  79  70  62  72  61  40  92  85  59  88  85  87 104 107 134 108 115 147 106
119 164 109 116 164  95  91 156 111 112 171 110 106 147 100 102 145 102 102 156 101 103
163  90 104 158  89  94 153  91  94 153  88  92 155  93  95 139  97  96 126  93  91 133
 92  95 147  88  94 148  89  96 163  89  96 171  92 105 176  95 104 178  91 102 174  94
110 190  93 110 197 106 119 205 105 118 207  89 109 200 112 130 206 116 130 216 106 122
219 104 126 219 107 134 219 120 137 218 115 135 223 114 136 217 111 131 224 121 145 219
116 139 216 115 135 214 128 148 213 133 153 229 118 139 223 111 125 192 122 137 202 105
126 217 105 135 219 116 142 206 117 137 207 104 125 214 122 140 204 110 127 195  88 122
221  84 127 232  98 135 235 120 150 231 102 129 223  92 116 199 123 138 184 147 152 205
136 139 204 117 126 183 116 125 170 118 124 171 103 114 160 128 139 193 134 142 221 124
138 222
119 122 129 114 121 141 116 116  97 100 101  78 112 117  87 115 117 116 125 125 142 163
158 166 126 135 189  77 109 217 105 142 236 111 160 252  86 142 247  84 127 234  92 129
230  55  86 198  59  81 183  52  61 137  22  35 111   0  48 153   0  50 183   0  53 193
  0  70 209  53  85 192   0  21 122   0   0 107   0   0 149  23  54 176  46  61 154  40
 45  90  39  53 119  47  66 168  43  61 175  62  76 176  61  94 204  85 115 208 106 125
187  85 102 160  98 115 188 147 159 216 117 133 190  87 113 200 134 155 215 111 135 195
109 131 203 119 126 180 134 143 183 143 155 192 118 130 174 128 137 172 135 139 168 147
152 176 131 140 162 109 108 141 107 110 167  96 113 209  96 106 199  87  95 181  99 112
195 131 146 199 135 153 206 151 169 213 149 166 188 143 154 154 108 111 112 103 107  98
 85  79  67  65  55  53  90  78  38 134 131  80 157 161 122 159 177 133 148 172 170 131
155 208 155 186 241 148 172 235 129 143 222 137 155 230 138 159 227 148 164 203 131 149
183 144 169 222 140 166 211 129 156 202 144 170 231 122 155 232 126 150 211 142 158 225
136 157 222 114 134 166 114 131 187 128 147 203 156 171 220 151 159 233 134 151 224 119
141 217 121 137 202 122 132 174 131 137 163 166 173 193 154 163 213 119 133 190 133 146
204 135 150 210 149 164 212 150 158 195 123 137 162 106 123 172 134 146 167 136 147 148
135 150 139 130 140 151  85  95 138  88 105 171 101 121 204 108 123 173  90 100 145  91
 96 124  87  83 105 110 111 125 144 151 166 122 129 172  96 106 153  86 106 166  97 119
202 127 143 210 119 133 198 126 136 170 137 150 187 115 130 202 126 142 198 122 135 191
124 139 184 124 138 184 121 136 205 112 128 213  94 118 209 116 136 222  99 116 215  85
109 201
  0   0 123   0   0  64   0   0  65  57  49  84  97  93 105  28  32  76  16  21  37  88
 82  67  37  43  97  26  54 159  69  84 160  93 108 183  85 107 190  92 127 230  78 123
232  77 108 212  85 100 153  75  74  53 100 110 142  89 117 213  88 123 234 116 151 237
106 135 230  77  94 192 108 123 201 116 133 211 115 129 198 102 111 165  98 110 156 115
133 196 115 141 230  80 112 210  68  94 201  91 107 201 103 131 221 120 145 226 110 128
208  65  91 177  96 118 191  81  97 167  22  63 173  38  84 209  48  76 189  68  83 155
 90  97 160 128 131 166  96 111 180  56  74 161  32  42 151  48  58 152  54  52 114  31
 52 158  62  85 191  38  37 159  44  66 193  91 120 232 115 124 209 134 149 224 151 163
228 186 196 232 166 182 242 149 160 213 117 121 144  86  88  84  38  21  14  50  36  20
 69  46  23  73  53  28  93  70  35  98  82  34 149 145  64 168 175  53 178 185  58 168
171  92 167 182 160 175 197 220 131 146 216 131 154 223 137 160 224 117 127 198 113 126
170 129 130 140 152 155 128 150 150  95 148 154 147 128 147 171 157 172 169 156 169 195
124 148 176 132 156 163 122 147 196 129 149 206 155 168 216 158 171 222 134 151 221 126
145 229 147 162 235 120 129 199 126 140 157 162 173 163 133 142 182 113 125 181 122 130
166  87  95 104 109 116 128 107 121 175 137 152 187 156 156 185 190 185 209 163 160 206
156 164 173 122 130 127  73  74 108  98 105 148 106 118 185 105 121 192  98 118 200 126
140 199 129 136 188 116 130 184 124 143 176 122 138 179  93 106 172  98 115 181 103 122
188 117 135 189 116 135 187 117 130 188 127 141 171 117 132 164 106 118 170  81  91 157
 92 107 170  92 110 180  85 104 194  72  99 207  51  89 208  69 101 217  74 117 229  70
125 238
 29  38 100  28  34  84  25  34  81  49  49  79  59  62  91  33  38  60   7   7  30   0
  0  29  19  29  70  30  40  82   0   0  52   0   0  53  10   7  91   0  30 143   0   1
133  15   6  38   8   1   0  27  46 128  66  76 142  59  72 137  77 109 198  95 123 202
102 118 188 120 140 214 118 143 235  87 106 205  92 107 190  89 115 195  72 103 206  71
114 219  42  81 193  40  68 164  36  58 156  33  47 128  49  80 180  40  72 186  15  37
136  19  15  99   0   0  76   0   0  71  31  38 125  42  65 186  40  71 202  39  54 169
  0  20 122   0   0 126   8  56 199  16  46 180  34  44 162  35  49 173  16   0 132  71
 86 197 109 136 239 116 124 216 152 162 234 161 186 242 138 160 223 126 147 225 107 116
177  88  86 149  93 105 180  12  16 113   0   0  47  32   0  36  49  37  45  53  41  39
 65  48  35  71  57  37  80  58  34  79  60  26  89  79  38 128 125  69 157 160  73 181
188  59 151 159   0 117 125 102 147 159 217 158 183 240 143 180 243  88 133 238  99 152
249  88 130 227  99 131 214 105 127 197  75  68 163 103 106 133 125 128  53  97  95  90
113 116 120 134 140 113 125 138 115 130 146 131 123 141 167 129 150 172 125 143 170 128
143 218 118 138 227 136 155 239 126 150 235  86 126 225  95 133 222 122 148 232 119 141
226 124 147 228 113 140 197 135 158 211 133 153 233 155 169 239 147 161 239 105 130 236
113 144 227 105 139 209  89 124 214  73 103 217  92 117 214 112 135 228  95 131 236  84
130 234  86 133 241  69 120 241  79 120 239  97 135 246  89 126 233  75 107 222  63  88
222  77  97 217  92 117 219  78 101 215 108 127 214 132 151 223  98 117 226  90 111 226
 96 123 231  78 120 233 104 132 224  78  98 208  78 108 214  83 108 213  83 105 220  91
121 230
 12  18  76   3  18  73   9  21  83   0  21  92   0   2  66   9   6  28  22  21  41  31
 31  47  18  17  36  10  10  36  25  31  57  23  30  58  19  25  62  19  25  57  25  31
 52  24  41 124  28  53 160  11  39 138   0   3 113   0  56 187  22  82 211   0   0 118
  0   0  93  19  38 113   0  51 161   0  44 173  28  65 170  37  74 161  33  61 138  11
 39 110   5  13  89  32  41 113  23  33 129  25  61 170  34  72 198  41  48 138  31  35
 93  28  31 105  48  49 110  52  51 105  52  58 153  48  66 193  55  73 201  55  57 163
 49  47 138  54  62 190  61  73 223  82  85 197 102  94 173 109 109 190 134 135 209 162
172 226 152 179 246 118 151 236 184 207 248 171 186 226 123 136 175  64  65 129  58  54
 97   0   0  65  36  16  69  59  52  74  52  47  58  49  44  50  48  39  40  53  43  36
 55  43  31  61  47  32  74  58  33  86  71  34  72  58  28  87  83  43 116 122  40 142
152  60 166 177  67 161 173  52 119 126 106 122 136 125 122 140 178  76 105 214  88 133
235 126 166 215 125 162 219  97 149 251  79 133 236  82 119 231   3  31 185  48  32  77
 87  76  84  82  72  78  79  70  29  92  88  37 135 143  69 149 158 104 145 151 125 165
172 181 141 149 194 140 150 189 135 149 198 103 117 192 132 147 195 136 148 183 131 141
183 137 147 216 136 149 206 125 137 132  87  96 127 119 132 188 110 129 175  98 119 180
110 136 186 127 149 186  98 123 199 102 130 222 116 139 215 110 124 206  92 111 196 103
130 197 126 151 204 132 148 192 128 147 186  94 114 196 123 138 221 125 141 212  91 113
209  87 108 214  95 110 196 122 138 207 149 163 203 161 169 189 129 134 195 109 121 211
101 122 202 101 119 175 115 122 169 119 124 177 102 109 186  84  95 165  96 115 154 123
135 176
 13  23  87  12  24  95  18  30  95  21  26  70  23  21  35  15  15  30  11  13  40   9
 11  40  16  16  45  18  21  56  14  17  59  16  20  60  14  21  66  21  24  98  29  45
129  25  47 131  20  40 129  23  56 157  33  69 189  27  73 222  26  62 181  27  34  88
 26  32  99   0   1  82  19  23  83  31  34  93  32  34  86  23  15  59  27  21  57  28
 16  55  34  46 119  34  55 154  27  51 186  38  74 206  31  54 155  37  48 134  34  40
114  32  31 103  37  37 101  36  41 133  31  46 182  14  50 196  40  57 178  56  60 155
 69  76 201  82  97 223 116 127 226 142 147 206 170 171 210 160 164 213 126 142 217 115
156 235  96 148 245  50 124 240 121 175 247 113 136 217  83  82 151  55  55  89  46  39
 88  52  49  78  47  44  70  40  33  60  41  33  49  53  42  47  58  46  44  63  48  40
 65  51  34  70  57  35  67  53  30  79  64  34  91  75  41 120 112  48 152 153  62 122
125  50 118 121  52 140 147  63 127 134  21 158 166  22 159 166  55 106 112  90  92 100
101 114 120  35  97 104  60  60  91 183 109 161 243 141 188 253 119 156 240  86 114 201
 69  86 180  53  51 161  55  27 103  59  38  68  83  74  44  99  91  40 119 113  31 132
131  88 108 108 162  72  77 170 115 122 149 145 149 153 161 162 177 126 125 167  74  72
141  72  76 142  64  72 188  47  63 180  64  68  98 105 106 114 121 122 133 111 115 119
118 125 131 124 127 141 101 106 141 128 142 153 119 126 132  97 103 146  87  95 171 119
124 153 124 127 125 148 147 137 142 146 146 133 138 173 147 154 201 139 151 199 111 125
190  98 108 182  77  84 159 108 117 150 105 108 119 132 136  89 135 143  99 113 120 149
126 134 176 118 122 158 100 102 135 142 150 166 157 158 188 118 120 192 112 129 182 149
155 171
 15  31 113  26  37 108  16  20  62   9   8  21  10  11  33  11  13  37  12  13  43  11
 11  37  16  14  38  17  16  45  10   0  24   9   3  32  17  32 105  21  45 148  14  43
152  23  60 181  25  74 216  20  68 214  12  46 185   3  42 182  17  41 146  19  23  89
 30  35 104  22  31 103  14  24 100  25  29 101  31  32 103  32  32 100  30  33 105  37
 54 164  46  67 194  38  54 179  51  61 195  47  58 159  41  29  72  37  31  99  35  27
113  47  41 121  70  64 163  86  90 196 100 111 221 121 129 213  97 108 185 122 123 208
147 151 230 161 173 238 160 171 232 131 145 214 117 137 219  91 124 226  79 126 232  62
124 237  58 107 235  63 110 234  50 106 231   0  49 169   0  11 111  29  31  87  27  26
 70  30  29  61  32  27  60  32  24  51  38  30  44  45  37  39  47  37  34  51  39  33
 57  45  30  59  47  28  52  41  23  58  47  21  75  61  31  76  66  28  78  71  25  88
 85  37  81  79  42  82  86  24 135 143  54 151 158  74 157 163  74 142 151  46 124 131
 39  68  60  21 108 113  25 121 129  47 108 126 157 111 145 217 151 190 249 104 143 247
 64 101 233  83 121 226  82 122 211  56  91 188  44  80 178  38  75 171  35  70 159   0
  0 101   4   0  39  71  70 143 109 106 169  95 102 159  73  77 147  40  35 109  46  42
127  44  44 128  28  38 162  40  54 201  52  72 203  49  74 165  73  90 195  93 109 201
 94 107 193  99 112 177  86  88 124  63  62 115  65  72 154  67  78 160  99 110 140  89
 97 112  87  91 127 109 121 137 112 123 128 145 156 125 159 164 121 144 146 119 121 129
138 108 117 132 113 122 124  86  86  95  83  81  93  89  91  84 119 121  80 117 119  60
149 151 142 153 151 187 106 111 178 129 134 182 131 136 186 116 125 195 135 144 199 155
162 199
 27  37  98  17  19  47  15  14  25  17  16  38  14  16  45  11  11  40  11   7   0  14
 16  33  20  20  66  18  23  85  32  55 132  37  70 182  32  67 194  18  48 179  36  68
204  35  76 218  22  61 192  32  61 192  32  68 198  47  79 200  33  50 143  10  25 102
  0   0 102  36  43 110  45  50 120  24  30 117   0   0 108  28  29 131  47  57 184  29
 55 203  26  54 199  45  62 190  44  54 181  33  14 119  56  42  96  62  51  92  98  96
141  89 100 195  84  87 208  95 107 219 121 141 231 154 161 230 122 139 220 123 146 235
144 167 241 152 167 232 153 164 234  97 123 232  80 122 237  58 112 237  74 125 241  69
114 248  29  78 222  50  64 170  51  62 160  38  40 114  33  33  82  31  28  78  29  26
 64  29  27  58  30  27  50  34  28  43  38  31  37  42  34  34  43  33  31  50  38  30
 55  40  29  54  41  28  54  46  28  53  45  20  72  61  25  63  49  22  40  30   8  68
 65  29  86  85  43  76  81  38 103 111  42 124 133  50 153 160  61 150 157  66 124 132
 62 118 129  51 147 157  74 134 137  64 127 132  27 124 135  85  94 122 182  79 121 230
107 150 232 115 167 241 110 158 247 124 167 248 112 164 247  80 144 245  61 117 244  68
106 224  56  80 160  32   6  70  41  12  53  42  43 112  74  79 162  73  78 146  50  36
121  73  70 168  77  89 192  62  79 208  56  92 216  67 108 234  72  92 231  67  86 211
 68  81 202  62  80 205  49  84 209  63  81 204  48  53 136  30  18  58  54  48  95  33
 14  98  82  89  85 135 144  84 139 144  80 154 156  83 143 148  73 141 142  88 125 123
102 111 112 100 113 117 103  92  89 102  73  72  77 101  99  90 115 105  84 128 116  76
104  93  59  70  54  62  69  66 116  38  50 136  17  44 157 102 107 174 152 155 161 145
149 172
 32  24  49  37  21  44  28  23  39  39  31  48  39  24  38  28  23   0  29  35 105  31
 42 139  28  43 154  52  75 195  53  86 205  36  65 204  36  60 204  50  69 211  40  65
207  16  30 145  40  35 135  48  42 149  44  56 189  72  87 193   0  32 156  62  67 164
116 114 162 106 101 147  87  85 141  55  51 128  90  88 163  64  80 195  24  54 204  82
 96 209  84 103 215  64  90 223  59  76 197  93  93 134  77  74 111  73  77 119 106 107
170  94 111 212  72 105 222  83 115 235 127 146 225 127 133 205 153 158 235 129 150 242
112 148 242 121 149 241 131 164 247  82 135 244  44  90 225  49  82 212  63  89 194  73
 87 188  34  61 160  39  30 111  33  27  96  32  30  87  37  32  77  32  28  67  31  28
 58  33  30  53  30  26  44  40  32  43  44  34  39  42  33  34  43  33  33  48  37  30
 49  37  26  49  39  28  46  37  21  48  34  16  59  46  22  61  48  21  46  40  13  41
 37  13  35  25   2 108 103  52 150 148  63 156 157  61 141 140  54 119 118  55  93  96
 41 125 134  49  85  92  24  63  74  16 118 128  56 124 129  51  85  91  12 126 144 125
119 141 175  68  93 187  77  96 177 101 118 193 104 128 221 114 153 243 123 157 240 109
146 240  77 128 238  72 118 220  76 111 186  95 120 178  94 105 172  86 102 192  93 125
213  81 107 218  83 118 233 102 155 251  83 133 246  81 109 230  93 128 237  74 110 235
 81  88 220  73  72 200  59  70 191  69  83 207  68  78 192  74  73 129  49  44  78  53
 46  82  57  50  78  68  73  66 105 107  80 117 116  83 109 112  71 127 122  82 129 123
 94 104 101  89  64  62  75  51  46  80  42  34  73  48  42  59  75  63  66  71  56  65
 49  40  62  62  54  64  71  58  47  61  50  52  51  52  65 119 125  98 152 153 110 135
132  84
 36  28  49  35  24  42  34  30  52  35  23  36  34  30  54  46  53 141  47  55 171  38
 42 159  61  73 196  43  63 186  14  25 137  50  40 128  38  38 145   0   0 153  51  54
162  65  63 177  34  41 169  38  53 178  26  39 169 100  86 126 121 109 138 128 117 145
185 180 177 148 146 194  68  76 176  83  99 194 128 138 229  96 118 228  83 105 215 101
115 210 111 124 225  62  84 211  75  90 198 120 130 188  60  67 123   9   0 101  32  42
167  18  66 208  61  99 230 116 135 210 114 116 178 126 127 182 128 134 199  74  91 209
 29  86 224  78 130 245  77 128 244  61 110 234  67  90 185  60  72 159  35  39 117  35
 31  89  38  38  92  30  33  91  32  34  88  28  29  74  28  28  69  26  26  62  22  22
 52  19  20  46  23  21  41  31  25  37  42  33  38  44  33  33  41  31  30  47  37  32
 42  34  24  37  29  20  45  35  23  61  46  25  69  55  25  79  66  29  63  53  19  60
 53  21  65  56  19 114 106  49 138 132  56  96  92  30  81  75  33  47  39  27   0   0
  0  20   8   8 110 119  45 143 153  60 129 136  49 157 163  81 167 170  78 147 155  40
130 137  37 115 124  53  57  54  51  46  32  74  43  53 126  74 103 207  86 112 222  60
 90 229  77 128 241 100 148 239 120 157 244 109 146 250 112 150 241  84 129 220 100 144
240  94 145 238  56 105 235  63 109 224  61 120 240  72 126 241  86 142 238  52 101 237
 65  86 226  71  76 198  67  62 182  64  64 193  56  72 218  77  80 200  65  65 141  64
 61  91  80  62  64  53  34  70  66  49  64  84  68  54  12   0   0  46  40  44  55  51
 62  43  28  53  43  35  38  58  50  50  62  50  54  62  52  58  65  55  77  49  39  70
 48  42  58  51  43  58  57  49  77  52  47  78  60  57  69  67  61  40 105 102  42 113
109  78
 31  25  48  34  23  51  47  34  49  60  48  57  64  68 156  42  57 169  59  56 139  71
 68 160  72  74 171  54  43 112  78  62 113  75  54 128  67  51 135 112 108 145 140 131
175 133 126 188 101 102 190 130 134 206 115 120 147 146 137 141 158 147 148 145 134 150
161 151 181 160 156 208 121 128 224  82 117 232  89 121 227 103 121 225  80 104 223  57
 92 227  57  86 208  21  45 153  53  63 159  41  66 185   0  52 186   0  56 180  20  88
219  41 110 234 123 143 230 158 169 221 103 115 182  54  71 176  24  74 206   7  65 214
 18  77 227  26  96 237  35  79 201  32  44 158  43  49 121  43  45 109  34  35 100  40
 46 101  44  46  96  22  24  79  26  24  74  33  30  71  27  26  59  27  23  53  30  24
 48  36  28  44  40  31  40  45  33  36  55  41  39  51  36  31  50  35  30  50  37  28
 50  38  25  37  27  16  43  33  18  62  51  25  54  43  16  67  54  18  72  61  29  50
 41  13  66  60  19  72  66  27   6   0   0  49  48  25  84  82  44  83  83  39  89  93
 37 111 114  49 137 139  67 142 146  67 121 122  58 143 143  63 153 156  75 139 149  77
133 141  64 133 142  61 136 141  77 113 111  60  76  79   1  59  67  94 103 107 143  81
 95 171  56  95 194  52  74 183  76  92 212  78 111 231  86 138 241 100 153 249  70 116
233  60 104 236  51  92 237  54  74 220  42  85 229  88 151 246 101 158 245  36 105 245
 60 111 231  72 105 219  47  74 222  42  72 214  36  83 222  37  85 225  41  69 194  49
 62 160  65  64 106  56  47  21  63  59  63  72  67 101  68  67 137  80  80 163  67  70
170  69  76 178  63  63 160  65  61 129  77  69 103  73  62  70  61  49  50  61  52  74
 66  59  82  60  51  77  46  38  46  65  54  62  63  55  94  37  38 114  34  38 116  35
 37 117
 27  22  34  45  37  56  62  48  40  75  76 133  69  74 177  53  51 128  51  34 114  69
 64 163  82  73 152  70  53 137  79  61 133 121 106 152 162 155 170 162 164 176 149 150
182 120 121 182 139 137 192 160 161 171 115 120 141  66  68 138  38  54 156  91 101 199
119 124 216 118 129 216 115 133 228 100 127 226 100 124 229 112 127 237  82 111 229  86
109 211  86  97 182  90  97 165  89  98 181  61  73 191 104 126 230  85 134 243  60 117
241 136 160 243 144 155 218 134 142 210 114 130 203  49  77 193  34  71 202  30  68 193
 35  75 216  37  69 196  30  41 117  38  33  94  27  20  86  28  27  86  35  37  90  21
 25  75  26  28  75  28  29  71  31  28  63  30  25  54  26  23  49  32  25  48  43  32
 48  49  38  46  48  37  38  48  37  32  46  33  28  49  35  28  51  37  27  55  39  26
 51  38  21  51  40  23  51  39  21  47  38  13  40  33   9  52  40  15  60  47  18  54
 43  16  64  57  17  71  66  21  53  48  13  70  68  34  89  88  48  84  85  36 140 142
 56 166 165  70 127 123  59  13   0   0  28  19  10  24   5  16  62  65  30 111 116  65
 97 100  57 111 115  52 139 144  65 101 100  38 120 126  56 160 162  51 157 154  60 107
106  49  60  55  66  39  49 104  44  48 107  72  80 144  43  70 150  68  96 165 100 130
223  69  95 217  36  60 188  40  71 164  60  77 156  92 117 172  92 134 225  37 100 244
 76 111 240  94 128 244  63 103 233  39  88 237  33  87 241  36 104 241  26  93 234  36
 81 223  50  86 205  64  91 184  63  88 192  72  92 195  81  86 184  98  99 187  94 100
190  51  58 173  53  55 168  61  61 169  70  64 156  67  61 136  62  59 114  60  51  82
 58  45  63  54  44  67  58  52 109  65  62 129  60  57 144  58  62 159  53  56 133  41
 39  72
 52  46  75  56  52  60  50  45  73  58  66 165  56  65 158 100  98 165 132 135 184 149
147 210 143 140 197 126 128 182 133 134 183 162 159 202 149 152 188 119 131 186  74  91
190  48  72 197 106 113 172 100 103 129  45  58 138  50  76 184  79 104 222  87 113 226
 88 118 227  74 116 236  76 118 235  88 125 229  80 116 235  68 105 226  69  95 205  74
 85 182  79  83 187  75  92 197  54  75 208  79  96 213 105 123 220  79 125 240  53  92
233  94 103 203  95 105 186  94 107 199  77  90 185  25  48 157  15  35 145  29  71 204
 33  68 194  22  30 117  28  28  77  41  38  90  51  50  94  34  35  77  26  25  67  28
 26  65  30  29  65  26  25  57  41  34  61  41  31  54  32  24  45  29  22  42  30  24
 36  35  27  34  41  32  34  43  33  30  41  31  27  38  28  22  39  27  19  43  30  18
 49  37  21  49  36  20  41  28  10  50  39  18  52  43  19  61  47  21  69  54  23  75
 62  23  73  61  25  45  36   9  43  40   9  46  44  12  49  41  13  84  74  24 152 143
 51 161 152  52 145 138  52 122 120  54  60  56  29  59  55  41  48  44  20   0   0   0
 57  56  35 115 114  53 103 100  34 113 115  45 129 133  49 162 159  65 160 156  71 128
123  63  96  87  42  42  33   0  48  42   0  38  26   0  32   7   0  53  39   0  70  73
129  34  49 123  40  41  59  96  94  47  90  85  30  51  36   0  86  93 132  95 116 212
105 122 219 106 122 222  54  88 231  48  99 239  41  84 244  52  90 236  71 113 241  43
 92 240  45  89 241  59  93 229  85 106 222  96 115 228 108 119 214 123 125 192 107 104
167  68  66 136  35  35 122  38  43 126  47  49 143  49  47 145  52  52 150  48  55 158
 35  49 130  34  48 139  52  55 153  47  48 128  36  38  92  49  48  95  66  64 131  52
 51 100
 30  25 101   0   0  90  72  82 154 115 130 215 104 114 210  97 104 190 121 129 180 128
133 180 140 143 171 147 152 161 134 142 160  78  87 156  54  66 175  54  72 195  50  75
213  40  61 180  16  43 148   2  31 161  23  53 182  48  76 215  80 100 223 103 124 225
 88 114 225  65 102 237  59 101 237  95 125 229 102 120 215  90 108 215  78 105 216  84
123 221  50 100 221  27  77 223  47  84 225  61  94 227  76 119 234  37  88 224  12  62
213   0  46 194   0  47 189  57  80 196  35  61 179  15  54 179  20  53 178  24  56 175
 18  39 117  18  25  69  29  33  80  32  33  78  30  32  72  20  22  61  23  22  60  28
 25  60  28  23  54  28  24  50  29  24  48  30  24  45  28  23  38  25  20  34  25  19
 28  25  18  26  31  23  27  36  27  25  33  23  21  28  19  16  36  27  21  39  29  18
 37  27  15  32  21  11  32  21  10  38  29  11  39  31  11  51  38  16  56  42  17  58
 45  19  57  44  19  52  41  15  53  46  16  53  48  24  62  52  21 100  88  36 123 113
 42 152 142  62 152 143  55 136 132  46 102  95  37 117 111  56 138 135  72 105 102  50
 72  71  34 100  96  57  80  72  49  92  87  53 109 106  47 132 129  67 100  94  43  90
 84  53  83  79  49  62  58  33  42  37  35   7   4  25  12  14  24   2   0  10   0   0
  0  83  80  28 132 133  54  99  99  47  91  92  50  79  78  43  59  59   7  90  96 138
103 109 138 130 140 128  96 114 198  41  96 241  65 104 238  74 102 234  66 109 239  44
 99 239  83 110 225 113 129 236  77  98 234  91 104 214 103 105 196  75  83 177  70  93
184  69  91 190  57  72 169  18  29 135  25  30 142  46  52 162  47  67 176  44  76 202
 44  74 210  39  57 165  34  39  89  38  30  68  35  23  55  45  34  55  43  38  80  50
 59 153
 76  81 158 111 115 180 150 155 226 151 165 237 121 132 207  79  81 174  83  84 156  97
104 164  97 104 146  95  96 129  99 101 147  79  87 153  55  65 159  41  60 178  43  56
140  22  25  99  39  46 133  37  56 173  25  69 210  24  84 235   0  78 227  72 105 225
 64 106 228   3  88 238  27  87 231  99 119 224  93 107 207  47  74 217  70 111 230  81
135 237  61 101 221  60  95 227  58  93 218  39  76 213  46  85 212  24  50 157  13  33
131  21  38 120  18  40 137  16  40 152  27  47 162  25  47 165  17  40 140   9  15  61
 17  11  50  23  23  71  21  23  61  15  16  53  19  20  52  20  22  51  15  17  47  22
 19  47  30  24  47  30  26  44  21  19  35  13  15  29  25  21  32  29  22  30  28  21
 26  33  24  25  31  23  24  27  19  17  27  18  16  27  22  17  34  26  17  37  29  18
 31  22  13  35  25  17  38  27  15  39  31  16  36  29  13  39  29  11  49  37  15  57
 45  25  48  37  16  55  44  19  51  42  17  59  51  23  57  45   7  54  45  13 108 101
 51 134 125  61 148 137  63 151 141  50 174 167  73 177 167  75 159 149  67 142 135  66
138 130  60 103  94  54  95  89  62  70  63  39  60  56  25  46  46  22  29  29  12  16
 13  17  89  94  46  99 102  51  57  57  27  45  47  27  50  49  28  62  61  33 111 114
 64 160 164  82 122 128  54  60  66  32  58  60  35  52  50  44  42  39   2  47  43  45
108 111 108 131 139 100 128 135 112  59  75 154  77  98 189  62  92 205  26  84 222  49
 97 238  83 117 233 105 130 233  79 110 229  98 119 228  99 109 204  78  91 189  63  84
195  56  88 212  66 103 229  54  97 214  50  87 200  46  74 203  41  63 194  35  57 189
 42  65 204  44  69 200  49  66 173  34  39 131  34  43 111  40  60 122  44  66 170  46
 61 198
168 164 231 188 186 233 165 171 237 100 116 211  98 103 172  91  97 171  66  75 170  60
 84 210  42  68 193  70  78 182  83  87 180  64  77 175  54  70 179  73  88 145  71  75
 94  40  42 108  63  72 166  55  79 213  30  77 230  52 100 237  40 105 247  47 114 238
 53 119 242  20 106 250  24  91 240   9  66 217  37  73 211  15  61 202  44  90 221  29
 66 185   0   0 133  19  39 142  13  39 135  27  46 128  14  24  95  10  23  91  19  27
 90  13  24  93  10  22  92  19  28  94  28  34  96  23  26  79  17  22  64  15  19  56
 18  21  59  14  17  51  16  18  51  18  19  48  24  24  49  21  22  46  13  16  39  20
 18  38  21  17  35  17  15  31  21  16  28  27  20  28  35  25  29  36  24  24  32  24
 22  44  32  26  34  25  20  20  12  10  17  12  11  22  17  14  35  26  19  31  22  15
 26  20  11  31  22  10  36  26  12  28  21   8  34  27  11  43  34  13  56  46  22  62
 51  26  49  39  12  49  40  17  47  40  21  51  41  16  65  51  19  45  35   2 121 114
 59 128 121  55 152 140  63 169 156  70 189 179  82 198 182  74 158 139  54 150 135  67
167 156  76  92  85  32  21  24   3  46  43  22   0   0   0  29  26   8  51  44  15  76
 67  39 109 104  56 106 102  51  86  82  41  85  84  54  47  44  22 124 126  61 140 143
 66 137 144  60 130 138  55 109 112  61 113 116  58 118 120  48 106 106  55  34  31   3
 48  49  49  64  63  95  86  87 100  82  82  62  62  53  61  55  56  90  47  60 135  24
 47 174  15  59 194  48  76 198 107 120 217  84 101 218  85 108 230  81  97 214  73  80
195  51  59 187  48  77 209  72 111 231  63 111 240  43  98 239  32  72 207  27  47 195
 25  45 199  19  51 197  50  85 212  65 116 234  62 118 238  57 106 231  49  90 222  42
 68 207
163 154 172 161 152 173 119 124 214  81  96 207  37  56 162  65  82 175  55  80 181  40
 86 211  29  65 209  34  67 208  20  64 203  10  56 204  22  50 167  40  49 138  39  53
153   0  38 173  21  66 202  44  93 236  36  86 235  28  83 235  16  93 242   0 106 242
 23  95 239  31  81 224  24  71 221  24  64 203  29  54 181  45  72 180  46  79 191  28
 41 131  18  32 107  15  27  81  19  23  61  18  10  50  22  19  53  20  24  62  20  24
 71  18  24  79  19  26  87  17  24  70  17  21  47  14  14  46  19  18  50  17  18  46
 15  14  49  16  17  45  21  21  45  27  22  43  30  24  41  21  19  37  12  14  34  10
 11  28  14  13  26  19  16  26  32  23  24  45  34  29  42  31  24  42  29  22  28  21
 16  36  25  17  31  20  13  25  18  13  22  18  14  25  22  13  34  26  12  36  29  15
 29  23   9  40  34  21  41  33  20  28  21   9  46  37  21  50  39  19  48  39  16  52
 43  20  50  41  17  44  35  12  38  32  15  49  38  13  85  67  30  62  48  10  77  67
 25  92  82  38  72  60  10 110  99  48 148 135  63 146 125  43 130 107  34 149 130  57
155 136  47 138 122  56 100  88  49  46  41  25  35  32  11  44  40  18  64  53  24  88
 76  39 109  99  49 125 116  61 124 117  54 115 115  59 100 100  58 127 126  69 114 114
 55  75  72  39  75  72  38  82  81  47 100 102  35 140 143  57 126 126  67  95  96  57
  0   0   0  51  56  26  74  80  82  64  70 106  58  64 108  29  33  83  69  71  87  73
 74  63  25  29  79  50  57 107  87  89 132  59  76 156  61  85 204  65  86 214  57  69
194  56  69 188  46  60 184  36  42 172  41  61 184  36  89 220  48 108 242  50  99 231
 60  97 215  86 116 213  91 121 210  73 110 206  51  91 201  47  80 220  41  64 211  25
 42 174
 65  60  98  43  46  97  61  73 188  87  92 184  27  33 112  17  33 141  31  59 180  32
 63 156   8  32 122  23  41 134  25  41 129  27  36 117  25  33 105  25  32 131   0  42
210  73 117 231  97 130 220  45  94 231  24  77 225   0  62 230  22  97 236  65 120 240
  0  78 234   0  54 208  16  62 203   0  45 181  28  53 175  51  85 182  31  45 115  20
 25  82  13  24  80  12  20  66  13  20  62  19  22  63  15  19  56  16  15  47  16  16
 46  17  16  44  16  17  41  16  18  44  13  14  44  15  14  42  15  14  37  12  14  40
 16  15  41  18  17  34  23  22  38  22  17  31  35  27  37  35  28  35  29  24  30  31
 26  27  34  27  27  33  25  23  38  28  23  39  28  23  40  28  20  40  29  21  30  23
 19  22  14   8  28  23  15  34  27  19  28  21  13  24  19  11  31  23  11  33  25  13
 35  28  13  44  35  20  42  32  18  36  27  14  40  28  16  38  27  14  43  33  17  48
 39  21  46  37  17  39  32  12  30  26  11  56  47  21  90  70  27  86  69  26  95  78
 31  97  81  35  63  50  16  60  53  22  62  55  25 116 100  44 131 113  44 137 122  49
170 155  66 160 145  71 125 110  61  84  73  40  74  66  38  49  42  21  52  44  24  44
 35   8  56  50  22 112 109  61 158 156  85 123 124  63 131 132  71 118 121  58 118 122
 63  82  83  50  66  66  37  45  43  26  55  53  18 128 128  72 114 113  68  96  96  54
115 117  68  90  92  52  87  87  46  82  83  65  89  89  86  78  81  85  59  60  97 102
 97 108  97  96  85  43  35  55  62  57  49  65  65  62  10  21  97  34  69 175  42  88
215  48  86 225  43  77 219  30  71 212  30  68 207  25  61 201  20  65 196  63  96 196
112 131 200  94 105 177  46  54 152  24   0 125  36  13 120  36  44 141  47  75 210  42
 76 221
  0  24 128   0  18 135  35  63 196  50  67 174   3  18  91   7  20 117  15  35 139   7
  5  56  14   7   0  11  15  32  18  17  40  14   4  22   7  16  72  12  26 129  83 102
212 124 152 236 110 141 236  57  87 219  39  76 219  62  91 228 130 147 240 141 150 228
104 119 200  59  78 183  42  60 165  51  69 172  68  81 161  61  68 112  50  50  85  10
 17  63  10  12  55  10  16  51  12  14  48  14  14  45  12  13  42   9  11  39  12  14
 40  15  15  39  14  14  36  13  14  34  15  15  36  18  16  36  15  14  33  14  12  30
 14  12  28  14  13  27  21  20  31  18  16  24  25  19  24  37  29  30  33  24  22  38
 28  22  40  31  23  43  35  22  43  34  20  32  23  18  24  15  11  25  18   7  30  23
 15  30  24  17  29  25  16  30  24  13  45  33  22  38  28  19  30  21  13  28  20  10
 28  21   7  27  19   5  28  19   7  27  18   7  36  27  11  45  35  19  46  36  19  45
 36  18  45  37  18  45  38  16  42  32  13  53  44  20  73  59  23  85  66  26  78  60
 20  67  53  14  65  56  24  45  39  12  52  41  17  85  72  29 112  94  42 156 140  72
142 129  63  97  87  42  84  72  28  99  89  39  87  80  52  57  52  35   0   0   0  76
 73  49 116 115  67 142 142  82 110 109  61  59  61  36 111 117  59 135 144  60 126 132
 51  80  80  31 102 102  56 131 132  66 137 141  74 126 127  70 103 102  52  28  23   0
 84  83  45  76  75  38  56  57  29  79  80  42  66  64  21  72  72  30  55  56  39  88
 85 108 100  96 116  93  91 100  88  88  89  79  77  83  73  70 101  69  75 117  45  69
123  37  68 154  38  76 184  39  75 191  44  80 192  50  86 216  46  66 188  55  58 131
 68  73 127  58  60 136  22  38 147  39  50 143  35  41 139  26  29 117  35  56 150  27
 70 205
 24  59 192  22  53 190  20  68 223  14  49 176  17  35 133  17  42 156  17  40 147  13
 26  90   6  15  53   8  17  65   6  11  83  40  49  91  42  56 153  59  81 192 138 142
213  97 111 228  53 111 232  56  84 215  45  79 225  71  95 227 118 122 216 101  98 167
121 117 148  90  87 129  96  93 133 108 104 127  88  86 102  69  67  84  34  37  64  22
 25  52  28  24  49  13  16  40   9  12  36  13  13  35  13  14  35  10  11  33  10  12
 32  14  13  33  13  13  32  14  16  32  16  16  31  16  15  29  19  17  30  17  15  26
 16  14  23  13  12  22  15  14  22  25  22  26  24  18  20  31  24  23  34  27  22  34
 26  17  37  30  18  37  30  13  42  35  15  39  32  17  35  27  13  44  37  22  35  29
 15  36  28  17  37  29  16  37  30  15  37  25  14  35  23  10  40  31  17  33  25  13
 32  23  11  35  26  13  37  28  17  39  29  18  53  43  23  49  39  20  39  27  13  48
 39  23  44  35  13  62  48  25  63  49  24  58  46  24  70  57  34  54  41  18  55  45
 22  58  49  20  51  43  18  47  39  13  81  67  32  76  60  25  88  69  29  95  76  34
 53  33   5  42  30  12  60  51  20  77  67  40  61  54  38  74  72  35  58  59  20  90
 90  64  86  86  54  79  80  42  43  43  19  83  90  42 113 123  60 101 109  37 149 154
 68 136 139  61 110 112  48 118 120  58 111 115  59 115 118  57 116 120  53 104 110  61
 67  70  39  10  11   0  59  63  39  56  57  41  21  20  13  30  22  11  53  49   1 104
107  52  93  93  76  56  57  78  60  62  74  58  58  61  42  44  68  71  64  52  93  79
  0  55  46   0  37  36   0  47  44   0  50  49   4  55  58  86  49  63 129  35  63 151
 25  51 151  27  45 142  32  47 143  38  54 155  37  59 172  37  58 185  11  42 169  78
 94 182
 17  56 207  26  72 219  22  81 237   8  49 184  24  54 188  34  81 220  16  53 181  12
 38 160  22  52 171  15  45 142  33  27 108  56  72 169  27  76 204  79  93 192 126 133
217  69 113 237  48 107 219  13  57 204   1  57 209  39  71 203  61  68 154  35  44 105
 49  48 100  74  72 108  57  57  81  42  36  64  57  53  69  52  51  67  41  42  57  35
 34  49  69  63  76  32  30  40   0   0  15  15  16  30  11  10  26  10  11  27  11  11
 27  11  10  24  13  12  24  14  14  25  14  13  23  15  13  22  15  13  22  16  14  21
 17  15  21  13  12  17  13  11  16  24  20  20  27  21  19  24  19  14  32  27  19  32
 26  14  32  25  12  30  24  11  28  22  10  27  21   9  33  24  13  38  29  15  32  24
 11  29  20   8  27  20   6  21  16   4  27  17   8  43  31  16  46  36  16  31  22   9
 38  27  16  44  33  18  38  27  15  35  24  13  35  24  10  50  40  19  48  38  19  38
 30  13  60  48  24  68  53  28  62  52  27  37  32  10  45  35  14  43  34  13  57  47
 23  61  48  19  69  56  28  65  50  21  68  55  20  69  57  25  69  57  26  46  30   5
 59  51  33  46  43  22  55  53  26  28  18  21 107 107  56 132 131  69  74  71  35  45
 45  18   0   0   0  41  39  30  39  39  22  71  77  39 104 109  52  87  91  36  94  98
 44 100 101  46 100 104  45 111 117  49  93 100  51  77  81  41  96 100  52 118 124  65
 69  72  32  40  40  18  95  96  59  69  68  42  51  46  14  66  66  36  85  85  53 128
129  61 128 134  49 100 102  39  24  12   0  63  63  36  83  83  41  93  91  52  95  92
 66  79  78  48  85  85  45  93  90  34  98  97  44  62  59   0   0   0   0  27  32  58
 42  60 120  35  60 140  40  63 161  30  40 133  49  63 140  47  65 155  70  82 171  87
104 184
 16  65 220  22  58 208  22  62 201  23  51 174  20  52 197  30  92 239  23  76 217  18
 53 200   7  53 212  18  65 211  43  76 202  47  95 224  68 104 203 114 118 207  97 108
219  48 103 232  80 124 235  57  79 200  20  53 184  27  51 139  40  42  93  28  32  81
 16  23  70  53  52  82  40  41  66  24  26  52  38  34  53  32  30  43  13  11  28  20
 19  33   7   5  17  16  16  25  14  12  25   8   7  21   9   9  23   8  10  23   9   9
 22  11  10  21  12  10  19  12  11  18  13  12  18  15  14  18  14  13  18  17  15  19
 16  14  17  21  19  19  21  17  16  18  14  12  25  20  16  25  19  15  27  19  12  38
 30  16  42  33  14  45  33  18  34  21  12  32  24  15  38  32  16  35  29  11  30  24
  8  39  29  14  41  31  16  32  25  13  30  20   9  47  34  18  46  35  18  33  23  10
 36  24  11  40  28  12  36  26  10  40  28  14  53  42  24  51  41  16  50  39  14  46
 36  14  44  36  21  35  27  10  36  29   7  54  47  20  61  50  25  54  43  20  45  37
 14  43  34  19  45  35  16  75  62  29  77  65  30  65  53  23  58  49  21  53  45  19
 51  44  29  22  20   3  60  59  35  98  98  55 121 121  66 104 102  53  59  56  27  28
 29  14  32  30  14  63  62  37  61  60  35  54  55  38  88  92  42 117 122  62  93  98
 47  81  83  44  73  75  39 105 110  57 107 112  56 101 105  46 128 131  62 114 117  55
 59  61  27 102 104  53 128 129  67 111 110  56 101 100  55  79  82  44  78  81  46 110
111  55 132 135  57 132 138  60 115 119  57 116 121  63 118 122  59 135 142  70 115 119
 64 100  98  57  84  84  49 120 122  67 118 122  49  94  96  45  96  98  59  54  49  19
 37  35   0  46  47   0  46  56  90  33  50 127  30  47 135  34  45 118  43  52 107  26
 43 108
 24  72 226  28  60 202  22  52 164  18  45 148  10  16 131  26  64 197  24  81 220   0
 47 194   5  50 191  33  60 192  72 101 229  71 111 241  85 109 221  82 106 228  35  74
220  44  88 241  71 123 231  52  73 171  51  52 112  43  46  81  20  23  72  11  16  59
 17  20  57  43  43  66  35  36  51  22  21  35  23  21  30  26  25  33  26  23  32  25
 22  30  24  23  29  16  14  21  19  15  24  13  12  21   8   8  18   4   5  16   9   8
 17  13  12  19  11  10  16  16  15  19  13  13  15  13  13  15  18  18  19  15  14  14
 18  16  14  18  16  10  20  17   9  20  16   7  28  23  14  36  28  21  29  18  11  30
 23  12  37  31  11  46  35  16  50  37  17  42  31  11  55  43  23  42  30  12  41  28
 14  43  30  17  38  28  15  31  24  13  28  20   8  34  27  12  34  24  12  44  32  19
 44  33  18  35  27  14  29  23  11  27  17   7  30  22   8  28  21   5  45  38  19  46
 40  17  35  30  14  43  38  18  50  41  19  51  43  20  43  34  14  39  32  16  37  32
 17  26  21   9  41  33  11  69  56  21  68  54  19  56  43  15  48  37  12  48  41  18
 48  45  23  56  53  28  69  62  12 155 147  76 127 120  77  76  73  44  89  88  56  30
 32  20  39  40  17  78  79  47  71  74  45  54  59  33  91  97  50 103 106  50  89  89
 48  70  71  41  44  42  23  42  42  19 112 115  59 114 117  51 116 118  46 133 139  57
123 130  58 136 140  73 116 119  60 105 108  53 124 125  76 109 108  68  75  73  32 132
134  59 152 157  66 130 135  66 122 125  68 111 111  58 103 106  53  93  98  47  90  92
 51  77  78  41  73  76  41 105 108  55 103 107  31  76  75  32 121 121  69  80  80  36
 34  35  33  53  52  35  62  58   0  54  55  12  51  55  69   4  13  73  19  26  66  15
 17   0
 27  66 223  32  90 237  38 104 238  34  75 201  26  44 138  31  59 184  43  87 217  60
 78 187  37  62 191  62  80 187  70  89 210  61  74 187  55  73 204  36  63 192   6  47
180  34  83 225  38  94 219  20  33  90  45  44  58  29  31  60  12  17  45  15  16  47
 16  17  45  26  25  43   3   4  29  38  37  42  51  48  49  20  17  27  14  10  18  17
 14  18  23  19  23  22  19  23  18  16  20  21  19  22  18  15  17  22  19  21  16  14
 17   9   8  12  10  10  13  16  16  17  12  12  11  14  14  12  14  14  12  12  10   8
 18  14  10  22  18  13  28  24  13  35  30  17  29  22  13  25  18   6  35  27  16  28
 23  13  17  15   9  25  18   8  38  28  11  30  21   7  31  25  11  14   8   1  20  12
  8  15   7   4  17  12   4  20  15   5  40  31  15  43  34  17  31  22  10  32  22  11
 34  26  12  24  20  10  25  18  11  38  29  18  28  24  13  42  34  19  40  34  17  23
 22   5  32  25   9  59  49  26  66  56  35  38  31  14  26  20   6  29  23   9  29  25
 10  33  28   8  54  44  19  48  37  10  55  44  17  59  50  18  56  46  20  37  28   9
 36  36  14  93  88  51 136 126  63 166 153  83 140 127  82 102  91  60  95  89  67  28
 29  20  23  20   0  59  58  29  50  53  28  60  64  41  65  68  38 101 101  51 123 123
 64  64  63  24  37  35  24   0   0   4  57  60  21 114 118  55 108 110  53 115 123  44
140 148  68 127 130  66 116 121  56 125 127  70 113 115  51 156 159  76 137 141  56 101
104  38  89  93  39  74  81  45 102 108  77  78  83  51  61  66  30  71  75  35  93  98
 50 104 108  59  59  65  24  85  92  43 105 111  49  99 103  51  93  96  35 108 113  40
 74  77  34  45  47  25  38  38  35  29  30  20  43  41   0  20  17   0  12  10   0  25
 23  17
 17  54 213  28  87 237  26  83 218  34  69 212  43  85 224  37  82 229  57  93 233  81
112 225  46  87 229  42  73 203  47  67 174  41  50 126  38  67 188  21  49 154   7  29
148  41  88 210  28  68 175  15  14  68   0   9  23   3  13  48  15  16  37  10  10  32
  7   8  30  26  26  35  16  18  21  39  38  36  43  41  39  21  19  24  15  15  19  16
 13  19  25  20  25  16  13  17  15  15  14  20  17  15  24  20  17  23  20  18  14  13
 12   9  10  10  11  11  11  10  10   9  12  12  10  13  14   9  16  13  10  23  20  15
 20  17  11  23  18  15  29  24  16  28  23  11  24  17  11  23  21  10  32  26  10  24
 16   6  23  15  10  31  21  10  33  26  13  23  18   8  12  11   2  15  13   2  18  17
  5  30  23  12  31  22  11  25  19   6  39  29  12  46  34  18  35  26  15  17  12   3
 17  11   3  24  18  10  30  21  10  49  38  17  50  39  16  64  49  28  52  39  21  26
 20   9  36  26  15  54  41  21  43  32  13  38  29  17  23  15   9  23  16   6  44  35
 15  58  45  22  55  44  22  40  32  15  48  38  19  65  58  25  55  47  15  44  36  18
 31  26  11  72  64  33  97  85  41 116 104  60 142 128  83 108  96  67  92  82  66  12
 12   0  52  49  29  51  47  30  34  33   4  62  62  27  89  85  55  75  67  48  82  80
 36  80  82  37  56  58  30  40  40  24  18  14  10  65  65  30 106 108  54 120 123  64
116 119  60 122 121  49 154 154  63  99  98  39  84  84  44 142 146  72 135 141  55  83
 89  37  82  89  50  40  48   0  70  74  43 110 115  63  87  93  40  57  60  28  81  83
 41 101 105  56  97 102  62  85  90  50  58  60  16  95 102  46  81  89  33  85  90  40
 77  81  43  41  40  14  35  35  11  42  38  26  30  28  26  20  20  24  31  30  24  40
 38  24
 32  73 224  40  81 220   6  31 165  25  53 190  22  57 195  28  60 200  48  78 207  52
103 233  44 101 244  30  74 207  49  58 125  58  63 100  21  42 149  42  72 197  36  80
206  33  65 163  28  42 123  25  35  94  11  10   0  16  17  44  10   9  26  15  18  30
 19  17  26  45  43  43  77  76  69  59  58  49  21  22   5  36  34  28  28  30  26  17
 17  17  13  13  15  14  14  16  12  12  10  13  11   9  18  15  12  18  19  13  16  16
 11  15  14  12  14  13  10  12  11   8  10   9   7   9   9   4  20  16  11  26  23  15
 23  20  11  19  17   8  20  13   7  19  16   8  24  19   8  19  15   4  36  28  12  46
 34  21  33  24  12  24  17   4  31  23  12  31  23  11  33  24  13  42  32  18  45  34
 19  40  28  15  38  28  13  38  32  17  33  23  11  31  22  10  32  24  13  42  33  23
 35  25  15  33  25  14  31  22   6  56  42  19  46  37  15  43  33  15  32  23   7  38
 33  15  49  38  18  60  47  24  48  39  18  44  34  13  42  33  14  63  53  30  58  46
 24  42  28  13  36  32  16  31  25  11  43  32  11  53  44  17  58  47  22  47  38  17
 32  26   8  49  39  19  37  23   4  48  38  12  39  24   0  49  41  22  56  50  34  38
 36  14  47  45  25  59  55  32  70  66  34  70  68  29  88  85  49  86  84  59  33  37
 21  25  30   4  52  53  25  40  39  18  32  29  13  33  32  10  60  62  28 101  99  54
 92  91  47 113 109  56 134 130  70  90  90  43  85  92  44  97 107  45 112 119  44 109
114  58 114 118  73  86  89  48  65  67  29  97  99  54 105 110  55  97  97  55 108 106
 57 114 115  61  98 101  64  46  47  24  37  42  13  78  85  43  66  71  33  75  78  42
 78  79  48  32  33  18  36  33  27  78  72  52  38  35  16  10  14   5   0   0   0  46
 52  37
 51  93 226  50  81 199   0  10 127  18  35 128  12  26 115  23  28 102  26  22  99  25
 41 162  18  65 210  31  73 210  25  45 132  32  42 126  29  42 135  28  44 140  12  41
129   7  20 106  29  40 109  29  36  70  11   8   0   8   7  26  28  27  32  27  27  30
 44  40  39  41  37  36  25  22  21  34  31  28  29  29  18  50  47  34  35  33  23  31
 26  19  35  28  18  16  14  10  22  22  17  17  17  12  11  11   8  26  25  17  27  24
 17  22  18  11  21  18  10  13  12   7  10   8   5  17  16   8  18  17   7  22  19   7
 23  19   8  19  18   6  26  21  10  17  14   3  27  22   7  35  28  16  43  32  21  44
 33  17  33  28  12  15  14   4  24  15   8  35  26  17  26  19  11  29  21   9  36  27
 15  26  17   8  33  26  15  37  29  15  46  32  17  44  36  16  39  32  16  38  29  19
 36  26  14  36  27  15  38  29  15  40  27  10  26  23  13  34  26  11  58  48  25  50
 43  22  35  26   7  53  41  19  72  58  34  67  53  26  63  52  15  76  63  31  58  45
 25  25  17  13  20  17   9  22  16   5  52  43  20  52  39  13  63  47  21  55  44  18
 41  37  16  38  30  13  45  37  20  48  42  22  36  29  11  36  31  13  28  26   7  34
 31  14  22  20   0  87  89  47  88  88  41  81  79  39  65  67  39  63  65  40  71  73
 48  50  51  35   0   0   0  19  18   4  28  26  13  38  37  22  28  30  14  50  47  25
 67  70  39  93  94  51 107 106  61 115 117  64  84  88  45  80  86  38 102 109  48  98
105  51 105 112  59 105 110  59  95 100  53  55  55  39 111 108  77  94  89  57  74  72
 35  88  91  45  51  56  11  54  59  24  82  88  47  80  87  42  74  79  41  98 104  51
107 112  59  57  59  36  72  77  34  86  86  38  69  72  39  15   0   0  81  78  40  81
 79  44
 36  64 164  35  46 124  28  39 123   5  24  98  15  27  96  25  31  96  33  35  91  22
 30 109   2  23 131  18  34 129  16  29  80  23  34  98  18  32 103  19  23  70  19  22
 64   0   4  76   7  19  69  21  24  29  24  22  25  12  10  17  29  27  28  25  24  24
 40  37  31  34  33  27   1   1   3  16  15  14  10  12   8  22  21  13  39  36  25  43
 36  27  41  35  22  33  28  15  35  30  17  28  24  13  21  18  10  18  18  10  21  19
 11  24  21  12  25  23  12  17  15   7  20  17  11  19  17   7  11  12   2  19  16   9
 22  16   8  22  19   7  24  19   9  17  15   4  25  21   5  39  33  19  31  23  14  17
 10   2  13  12   1  14  12   5  18  14   7  21  17   8  17  16  10  11  10   2  18  15
  5  17  12   6  14  11   5  20  15   5  30  20   8  41  30  14  46  35  21  35  23  10
 28  18   6  27  21  11  22  18   8  22  15   6  37  28  13  58  45  23  67  53  27  44
 33  17  34  26  19  27  20   9  37  26  11  52  41  17  42  33   6  55  44  26  59  50
 32  29  22  10   2   2   0  54  47  29  60  50  26  46  35   9  61  49  26  55  47  26
 50  45  28  41  35  15  31  25   7  26  19   6  41  35  15  34  29  10  21  18   5  53
 48  22  68  62  33  80  80  40 113 118  48 147 147  68 139 139  81  44  49  30  79  78
 54  65  63  41  18  17   4  23  24  12  25  26  13  16  17   5  19  19   6  46  41  24
 60  63  36  89  92  48  76  78  38  69  72  30  89  89  54  65  67  33  95 103  52  95
104  44 113 125  45  96 106  24  88  92  47  78  79  50 108 108  70  82  82  51  46  52
 32  28  28  23  37  41  21  32  36  15  18  14  12  53  56  33  81  90  37  84  92  42
 81  85  47  85  86  53  50  53  29  42  43  25  75  80  51  84  84  58  87  82  45 105
101  60
 23  41 117  21  14  59  29  41 111  14  37 124  11  26 112  15  28 109  14  31 111  17
 32 112  15  32 128  20  34 132  20  26  83   5   7  15  12  14  39   4   0  43  47  46
 66  56  55  52   0   0   0   6   2  14  26  26  27  22  21  22  16  15  16  32  32  30
 25  25  19  34  35  27  20  18  15  19  16  15  14  14  13   8   9   9   5   8   3  23
 23  15  26  27  16  27  23  11  38  29  17  29  23  11  24  20  10  25  22  14  11  12
  3  16  16   6  17  15   7  11  12   4  13  12   4  12  11   5  11  12   5  13  10   8
 15  10   5  25  20   9  28  23  13  22  17   9  20  13   5  20  16   4  29  23  13  30
 24  12  32  25  11  28  22  12  17  16   7  12  10   3  19  11   5  30  25  13  24  19
  8  14   7   4  14   9   5   9   8   3  14   9   5  31  23   9  42  33  20  36  27  12
 40  33  19  31  25  16  23  19   9  28  26  11  45  36  20  48  39  23  32  27  10  30
 20   8  19  13   0  23  21   8  30  26   6  40  32  17  37  29  21  40  34  14  44  37
 18  49  44  26  41  38  19  52  45  22  51  39  14  50  43  21  29  26   7  33  28  13
 32  27  10  54  49  25  55  49  24  51  45  28  46  37  20  37  31   9  38  37  16  60
 52  20  88  80  48  44  43  19 101 103  47 126 128  55  96  95  49  57  56  41  64  62
 37  21  15   0  19  17  11  22  22  11  27  26  14  19  19   7  30  30  16  23  21   8
  0   0   0  23  21  17  42  45  25  34  36   8  34  36   9  30  30   7  54  55  21  77
 80  40  76  82  36 115 122  61 123 125  77  82  84  41 104 112  49 107 115  61 107 115
 68  93 100  49 110 118  48 109 115  50 105 108  57 103 106  68 104 114  54  83  92  37
 65  70  36  90  94  36 111 113  51 142 142  87 111 113  72  72  75  49  11  12  11   0
  0   0
 17  12  52  13  12  50   5   4  40  27  33  93  21  31 106  10  23 101  13  23  92  12
 20  83   6  23  95  14  32 105  15  23  50   7   5   0  11  10  21   0   0   0  35  30
 24  67  65  60  36  36  31   0   0   4  10   9  13  26  26  25  19  20  17  17  18  13
 20  19  16  26  25  15  17  16  14   6   4   8  14  11   9  19  16  12  12  11  10   6
  4   3  29  26  19  24  20  14  30  23  15  34  28  17  20  16   6  23  19  10  21  20
 11  15  14   5  14  11   6  11  10   3  20  18   6  20  17   8  12  10   4  16  13   9
 13  10   4  30  23  13  29  22  11  29  22   9  39  29  13  36  27  12  44  36  19  45
 36  17  52  41  24  37  27  15  30  26  15  28  22  11  39  32  16  33  26  11  30  24
 14  25  19  14  14  11   6  16  15   7  21  19  10  17  17   6   4   5   0  20  17   4
 38  32  17  37  30  16  35  29  17  30  26  12  31  22  11  28  20  11  28  22  15  58
 46  30  70  61  38  48  40  21  50  39  15  57  48  30  56  48  30  48  42  20  41  32
 13  46  38  17  57  51  31  56  47  24  57  49  25  52  47  27  53  45  30  38  31  17
 36  33   7  60  53  29  49  39  20  40  35  20  40  34  22  34  32   9  11   9   1  42
 39  14  65  64  21  78  82  41 115 117  58  69  71  20  43  45  23  62  63  40  50  50
 32  31  32  16  20  22   8  26  27  15  28  27  15  16  14   4  25  27  10  28  29  13
 21  20  10  22  23  10  20  20  11  13  12   8  22  23   8  21  19  10  42  40  24  34
 31  11 101 105  63 127 134  75 134 138  70  93  97  45 101 107  61 105 108  61 106 111
 64 100 107  53  91  95  48 100 105  53  87  94  38  47  49  19  79  83  41  82  88  40
 79  86  42  98 105  47 110 114  47 136 140  70 148 152  94  87  90  55   0   0   0  20
 21   9
 32  30  21  15  19  14  10  11  10   0   0   0   9  15  50  16  27  85  14  24  87   8
 18  76  12  25  88  21  33  85  10   9   0  15  11  19  13  13  19  17  16  25   0   0
 12   0   0   0  22  21  18  25  24  23  10   9  12  15  14  15  35  34  30  22  22  16
 24  22  17  28  26  16  16  15  10  17  18  11  19  17  10  17  13   8  15  14   9  14
 13   7  12   9   3  18  16  10  14  10   3  21  14   4  22  18   8  24  22  12  25  20
 12  17  16   6  10  10   4  15  12   6  21  18   6  18  15   4  17  14   6  13   9   3
 28  23  11  37  31  19  25  17   8  30  23  10  47  37  16  50  38  18  51  40  24  44
 34  19  39  29  16  26  18   7  28  22  12  32  24  12  42  34  17  31  24  11  36  28
 20  27  21  13   5   3   0  31  27  16  41  33  22  32  24  14  32  25  13  35  26  17
 33  25  16  30  23   9  38  31  16  32  24  13  30  23  11  28  22  10  19  11   8  66
 54  32  72  62  40  44  31   7  77  61  31  69  59  36  47  39  19   4   0   0  47  38
 25  51  42  25  36  31  14  38  31  11  35  31  10  32  29  13  51  41  28  55  47  27
 46  41  16  38  30   9  31  22   5  24  15   0  38  36  16  35  33  10  74  75  37 121
124  59 119 121  54 101 101  46 104 100  49  87  83  45  62  61  29  52  54  21  48  47
 26  20  16  13  30  32  13  19  19   8  12   2   4  14  10   7   0   0   0   0   0   0
  9   9  11  11  10   5   0   0   0  13  13   7  17  17   4  18  18   6  19  19   6   0
  0   0  85  90  46 122 131  59 118 122  56  97 103  40  81  85  48  41  39  20  42  42
 27  33  33  24  48  56  23  69  78  37  77  85  43  94 104  50  83  88  38  86  89  46
 68  78  25  56  64  32  21  20  14  60  70   0  55  63  11  71  76  35 108 114  65  97
 98  57
 26  27  32  15  15  22  30  29  35  48  45  51  12   8   2   6   7  46  14  24  80  15
 29  95  15  27  90  30  34  50  28  24  15   0   1  15  13  13  13   7   6  12  23  24
 22  51  50  44  21  18  14  31  30  22  37  36  26  18  16  10  18  17  11  32  32  25
 22  20  13  11   6   0  42  40  27  56  54  38  20  20   9   5   6   2  14  14   5  24
 23  13  20  19   8  12  10   4  15  13   7  24  19   9  23  20  10  18  17   5  21  16
  8  19  16   9  11  12   5  11  12   5  12  13   5  14  12   7  17  14   7  21  17   9
 30  25  13  28  22   9  23  18   7  28  24  12  36  27  14  45  34  21  34  24  12  24
 17   8  22  16   8  20  15   7  18  14   8  26  19  10  25  19   8  16  10   3  16  14
  5  24  19  10  33  25  17  38  30  17  45  32  18  47  35  17  49  41  25  28  22  13
 20  13   8  24  17   7  40  32  17  50  41  25  38  30  12  35  30  18  13  12  10  43
 35  16  39  30  14  50  41  20  55  43  16  67  56  31  62  53  29  27  19  11  60  54
 37  34  28  16  15  13   1  29  27  14  19  15   4  10   8   3  26  25  13  37  32  13
 49  43  23  42  35  19  44  38  18  57  50  27  34  32   2  60  58  24  89  88  40 103
105  44 110 110  54 112 108  54 122 115  48 123 120  55  60  59  23  88  90  41  75  78
 40  65  68  41  43  46  18  64  69  37  60  63  34  38  40  20  44  44  25  45  44  21
 27  25   9  18  19   5  32  32  16  11   8   3   1   1   0   3   1   2  15  15   6  20
 18  12   0   0   0  79  83  44 112 114  64 116 120  72  38  42  20  18  21   8  42  46
 33  31  35  21  65  71  32  99 106  59  77  82  47 100 112  49 121 130  55  90  93  44
 66  76  40  79  90  38  70  75  39 101 106  57 115 120  64 118 122  59 130 137  64 119
123  55
 22  20  23   0   0   0  26  23  27  89  86  84  43  42  42   0   0   0  34  32  24  24
 22  32  18  19  19  27  26  14  35  33  30  26  26  23  19  18  17  20  19  18  31  29
 22  55  53  44  42  40  32  31  28  19  51  48  35  35  33  22  15  13   5  17  19  10
 29  27  19   9   5   1  37  35  22  38  36  20  23  21  12  18  19  12   7   5   0  19
 15   7  24  22  12  23  19   9  14  13   7  20  18   8  27  24  12  17  17   7  13  12
  6  16  12   7  17  14   6   8   9   2  13  13   5  15  15   7  17  13   5  19  15   8
 13  10   4  17  12   4  21  17   6  18  13   3  35  27  20  32  25  16  24  18  10  23
 19  12  24  20  12  21  16   9  12   9   5  15  13   6  14   9   3  16  11   7  14  11
  5  20  14   6  35  26  17  35  26  15  37  27  12  49  37  17  41  32  19  24  19  11
 12   8   1  19  15   7  25  19   9  42  32  17  32  25  10  29  22  11  35  27  13  58
 47  26  58  45  23  54  44  24  33  24   9  50  42  19  85  72  40  55  44  22  37  32
 15  23  18   7  28  25  13  36  32  20  39  34  16  44  39  22  51  46  26  38  33  12
 36  32  14  44  39  24  42  37  18  44  40  19  40  36  14  80  78  41 111 109  63  67
 65  39  82  80  33 134 129  60 134 128  58  87  87  32  51  52  19 104 105  49  82  83
 36 121 122  58 112 112  50  92  96  46  81  88  48  46  49  25  45  43  29 103  99  52
104  96  56  64  62  32  61  63  33  41  38  21  19  23   6  27  25  17  12  10   7  10
  9   3  18  20  11  29  32  17  68  68  37  81  85  52  97  97  67  85  83  64  45  45
 34  24  25  15  43  45  25  63  68  32  49  53  23  82  89  42 143 152  70 130 137  63
 93 103  41  69  80  28  57  64  32  72  77  39  75  80  31 129 131  71 101 104  42  58
 66   3
 16  15  13   9   9  11   3   5  12  35  32  32  24  23  23   1   4  16  39  37  29  56
 54  39   7   8   2  18  18  21   9   7   3  48  46  42  40  38  34  31  28  21  42  40
 31  23  20  13  27  25  17  33  31  19  38  35  22  35  33  21  32  30  20  15  17   7
 23  21  11  27  24  16  10   8   1  14  11   2  19  17   6  19  19   6  13  11   4  16
 11   4  17  16   5  24  21  10  16  15  10  21  19   7  24  21   7  13  12   3  13  11
  6  18  14   8  16  13   6  12  12   4   9   9   1  18  17   8  26  22  10  19  15   5
 12  10   3  19  14   7  23  18   9  18  15   5  22  15   6  29  21   7  33  27  15  21
 17   9  20  16   7  20  15   7  10   6   3  16  13   5  20  12   3  23  14   7  33  23
 13  41  31  16  36  26  14  27  19   9  31  24  10  32  23   7  25  16   6  24  18   8
 23  18   4  19  15   3  17  13   5  19  10   3  26  17   7  45  34  17  68  55  29  56
 43  17  51  39  19  50  38  18  53  42  20  75  64  37  71  59  30  49  39  15  28  21
  8  34  30  17  35  31  16  55  49  29  43  37  17  37  31  13  40  31   8  53  46  19
 36  31  10  39  34  19  34  30  18  30  29  11  46  41  19  45  41  14  72  71  37  63
 60  31  78  73  28 144 136  57 123 117  51  32  31  17  44  44  17  99 101  46  91  91
 40 116 118  35 129 132  44 102 106  39 116 119  51 116 118  62 112 113  55  91  87  38
 84  78  38  84  83  34  96  99  55  70  69  38   0   0   0  30  29  14  13  13   5   3
  3   1  27  25  14  64  66  39 107 111  58 131 131  68 120 118  85  62  59  48  19  14
  0  35  34  20  24  25  13  36  39  15  84  93  33  88  94  43  79  80  44  96 100  40
109 115  39 110 114  54  77  82  35  23  34   2  62  70  22 106 113  40  96  98  33  64
 71  22
