P3
# 8-bit ppm - RGB
68 52
255
247 247 247 247 247 247 246 247 247 246 246 247 246 246 246 246 246 246 246 246 246 246
245 246 246 246 246 247 247 246 247 247 247 247 247 247 247 246 247 247 246 247 246 246
246 245 246 246 245 246 246 246 246 246 246 246 246 246 246 246 247 247 247 247 247 247
247 246 247 247 246 246 246 246 245 246 246 246 246 246 246 246 245 246 246 246 246 247
246 246 247 247 247 246 246 246 248 247 248 249 248 248 222 223 226 222 224 227 248 249
248 246 245 246 245 244 245 247 247 246 247 247 247 247 247 247 247 246 247 247 246 246
246 246 245 245 246 245 245 246 245 246 245 246 246 246 246 246 246 246 246 246 246 247
247 247 247 247 247 247 246 247 246 246 246 245 246 245 246 246 246 246 246 246 246 245
246 246 246 246 246 246 246 247 247 247 247 247 247 247 247 247 246 246 246 246 246 246
246 246 246 246 246 246
254 254 254 254 254 254 255 255 255 251 252 251 237 239 237 236 237 236 237 237 236 236
236 235 241 242 241 253 253 253 255 255 255 254 254 254 255 254 255 249 249 249 236 238
236 236 237 236 237 237 237 235 235 235 243 244 243 254 254 254 255 255 255 254 254 254
254 254 254 247 247 246 236 238 236 236 238 237 237 237 237 236 236 236 247 247 246 254
254 254 254 255 255 254 254 254 255 255 255 248 248 248 173 177 187 177 181 191 241 242
241 237 236 237 241 242 242 254 254 254 255 255 255 254 254 254 254 254 254 247 248 247
236 238 236 236 237 236 236 237 237 237 236 237 236 236 235 246 246 246 254 254 254 254
254 254 255 255 255 254 254 254 243 244 243 235 236 235 237 237 236 237 236 236 237 237
236 250 250 250 255 255 255 254 254 254 255 255 255 253 253 253 241 242 241 235 236 235
236 236 236 236 236 236
255 255 255 255 255 255 255 255 255 250 251 250 238 239 239 237 238 237 238 238 238 236
236 236 241 242 241 253 253 254 255 254 254 255 254 254 255 255 255 248 249 249 238 239
238 238 238 238 238 238 237 237 237 236 244 244 244 254 254 254 254 254 254 254 253 254
254 254 254 246 248 247 237 238 238 238 238 239 238 238 238 237 237 237 247 248 247 255
255 255 254 254 254 253 253 253 255 255 255 243 244 244 126 133 157 140 143 165 239 239
239 239 239 238 242 243 242 254 254 254 254 254 254 254 254 255 255 255 255 247 248 247
237 238 237 238 238 238 238 239 239 238 238 237 236 237 236 246 246 246 254 254 254 254
254 255 254 255 254 254 254 254 244 245 244 237 238 237 238 238 237 237 237 237 237 238
237 249 250 249 255 255 255 255 254 254 255 255 254 253 253 253 241 242 241 236 237 237
238 238 238 238 238 238
255 255 255 255 255 255 255 255 255 251 251 251 238 238 239 237 237 238 238 238 238 236
237 236 242 242 242 254 253 254 255 254 255 255 254 255 255 255 255 249 249 249 238 237
238 238 237 238 238 238 237 236 237 236 244 244 244 254 254 254 255 254 255 255 254 255
255 255 255 247 247 247 238 237 238 238 237 238 238 238 238 237 238 237 248 248 248 255
255 255 255 253 255 254 253 254 255 255 255 230 231 234  67  77 123 103 109 142 231 232
233 240 240 239 241 242 242 254 254 254 255 254 255 255 254 255 255 255 255 248 248 248
237 237 237 238 237 238 239 239 239 238 238 237 237 237 237 246 246 246 255 254 255 255
254 255 255 255 255 254 254 254 244 243 244 236 236 236 238 238 237 237 238 237 237 237
237 249 249 249 255 255 255 255 254 255 255 255 255 254 254 253 241 241 241 236 236 236
237 237 237 238 238 238
254 254 253 254 254 253 254 254 254 251 250 251 240 239 240 238 238 238 239 239 239 238
239 238 243 243 243 253 253 253 254 254 254 253 254 254 254 254 254 249 248 249 239 238
239 238 238 239 239 239 238 238 238 238 245 244 244 253 253 253 254 253 254 254 253 254
254 253 253 247 246 247 238 237 238 239 238 238 239 239 239 238 238 238 247 247 247 254
254 254 253 253 253 253 253 253 252 253 254 204 205 215 105  93  94 116 111 116 214 215
221 242 241 241 243 243 242 252 252 253 254 253 254 253 253 253 253 253 253 247 247 247
238 237 238 239 238 239 239 239 239 239 238 239 238 237 238 247 245 246 253 253 253 254
253 253 254 254 254 253 253 253 244 243 243 237 237 237 239 239 238 238 238 238 239 238
239 250 249 249 254 254 254 253 254 254 254 254 254 253 252 253 242 241 242 237 237 237
238 238 238 239 239 239
242 242 241 241 242 241 241 241 241 244 243 244 250 250 250 250 250 250 250 250 250 251
251 251 248 248 248 243 243 242 241 242 241 241 242 241 241 241 241 245 244 244 251 250
250 251 251 250 250 250 249 250 250 250 247 246 247 242 242 242 242 243 242 242 242 242
241 241 241 246 246 246 252 252 252 250 250 250 250 250 250 251 251 251 246 246 246 241
242 241 240 241 240 245 245 243 241 242 244 160 163 182 173 144  62 159 136  79 189 193
207 249 250 252 248 247 247 240 240 240 241 242 241 241 242 241 241 241 241 245 245 245
251 250 251 250 250 251 249 250 250 250 249 250 250 250 251 246 246 246 241 242 241 241
242 241 241 241 241 242 241 242 247 246 246 250 251 250 250 250 250 250 250 250 250 250
250 244 244 244 241 241 241 241 241 241 241 241 241 243 242 243 248 248 248 250 251 250
250 250 250 250 250 250
237 237 237 237 237 237 235 235 235 240 241 240 254 254 254 255 255 255 255 255 255 255
255 255 250 250 250 237 238 237 236 238 236 236 237 237 236 236 235 243 243 242 254 254
254 255 255 255 255 255 255 255 255 255 247 247 247 235 237 235 237 238 237 237 238 237
236 237 236 245 246 245 250 251 251 254 254 255 254 254 254 254 254 254 245 246 245 236
238 236 236 237 236 242 241 240 226 227 233 127 128 149 215 179  35 189 157  54 160 165
185 247 249 252 250 250 248 235 236 235 238 239 237 237 238 236 236 236 236 244 245 244
254 254 254 253 254 254 254 254 254 255 255 255 254 254 254 245 247 246 235 237 235 236
237 236 236 236 236 236 236 235 248 248 248 255 255 255 255 255 255 255 255 255 254 254
254 241 243 241 235 236 235 237 237 237 236 236 236 237 238 237 251 251 251 255 255 255
255 255 255 255 255 255
238 238 238 238 238 238 237 237 237 240 241 241 253 253 253 255 254 255 255 254 255 255
255 255 249 250 249 238 239 238 238 238 238 238 238 238 237 238 237 243 244 243 254 254
254 247 248 249 235 235 238 250 250 251 252 253 251 238 239 238 237 237 238 237 237 237
239 240 238 247 248 247 210 212 218 220 221 227 254 254 254 253 253 253 244 245 244 237
238 237 240 240 240 244 243 242 203 206 217 128 117 116 241 201  25 217 179  37 132 134
154 240 242 247 252 252 251 239 239 239 236 237 237 238 238 238 237 238 237 243 244 244
252 253 253 255 255 255 253 253 253 237 238 241 243 243 245 247 248 247 237 238 237 238
238 237 238 238 237 237 238 236 248 248 247 254 254 254 255 254 255 255 255 254 253 254
253 242 242 242 237 237 237 238 239 238 237 238 237 237 238 238 250 250 250 255 255 255
255 254 255 255 255 255
237 237 238 237 237 237 236 236 235 240 241 241 254 254 254 255 255 255 255 255 255 255
255 255 250 250 250 238 237 238 237 236 238 238 238 238 236 237 236 243 243 243 255 255
255 249 250 251 188 191 202 180 183 194 235 236 237 245 244 243 242 241 241 237 236 237
236 236 236 250 251 250 205 206 213 121 124 150 231 231 235 255 255 255 246 246 246 214
214 219 208 209 214 246 245 245 169 176 193 155 130  76 251 210  32 233 194  26 122 113
116 224 227 235 255 255 255 209 210 215 190 191 200 238 238 238 236 236 236 244 244 244
255 255 255 249 249 251 203 205 212 148 151 168 236 236 239 251 251 251 236 235 236 237
237 237 237 238 237 236 237 236 248 248 248 255 255 255 255 255 255 255 255 255 254 254
254 242 241 242 236 236 236 238 238 238 236 237 236 237 238 238 251 251 251 255 255 255
255 255 255 255 255 255
242 242 242 241 242 242 241 241 241 244 243 244 251 250 251 251 251 251 250 251 251 251
251 251 248 248 248 242 241 242 241 241 241 242 242 241 242 242 242 245 244 245 250 249
250 255 255 254 233 234 236 105 111 141  97 102 135 189 190 202 233 234 238 247 248 246
243 243 242 251 250 250 225 225 229  53  56 108 124 132 159 241 242 245 255 255 254 191
192 200 111 116 144 218 220 226 149 153 172 192 158  51 253 211  43 243 203  24 147 124
 83 200 204 216 231 233 237  92  99 136 155 157 174 243 243 243 245 245 244 250 250 249
233 234 240 163 166 184  58  57  97 148 150 166 247 248 251 249 248 250 241 240 241 241
242 242 241 242 242 242 241 241 247 246 247 251 251 251 250 251 250 251 251 251 251 250
251 244 243 244 241 241 241 241 242 241 241 242 241 242 242 242 249 248 249 251 251 251
251 251 250 251 251 251
254 254 254 253 254 254 254 254 254 251 250 251 239 239 239 237 238 238 239 239 239 238
237 238 243 242 243 253 253 253 253 254 253 253 253 253 254 254 254 248 248 248 238 239
238 238 240 239 245 246 245 202 204 211  49  51 108  85  78  95 141 143 158 200 206 217
244 246 249 255 255 255 225 227 229 116 118 132  95  81  72 149 153 171 245 246 249 195
197 204  62  60  89 112 126 159 123 121 137 225 185   6 249 207   1 249 208  29 185 157
 78 119 130 163 123 126 150  60  53  79 174 178 190 254 254 254 247 248 250 188 193 210
114 115 138 151 126  63 115 103  96 190 196 212 244 242 240 245 242 233 252 252 251 252
253 253 252 253 252 253 253 253 244 244 244 237 238 238 238 239 238 238 238 237 238 238
238 249 249 249 254 254 254 253 253 253 253 253 254 252 252 252 242 242 242 237 237 237
238 239 237 238 239 238
254 255 255 254 254 254 255 255 255 250 251 251 237 238 237 237 237 237 237 237 238 236
236 236 241 241 241 253 254 254 255 255 255 255 255 255 255 255 255 248 249 248 237 239
237 235 237 237 240 240 239 242 243 243 168 173 188 122 102  74 187 153  33 133 117 103
139 146 172 209 213 221 226 230 234 152 151 160 198 164  38 147 125  82 160 170 193 164
167 181 173 148  72 119 103  89 134 113  93 248 212  85 251 212  66 250 207   0 213 179
 72  86  75 112 175 146  69 175 147  59 177 183 196 230 233 241 147 154 178 117 104 101
211 177  53 221 183  30 127 124 138 218 213 204 245 226 174 245 239 220 253 255 255 255
255 255 255 255 255 253 254 254 243 244 243 235 236 236 237 237 237 237 237 237 237 237
236 249 250 249 255 255 255 255 255 254 255 255 255 254 254 253 240 241 241 236 236 236
237 237 237 237 238 237
254 254 255 254 254 254 255 255 255 250 251 251 237 238 238 237 237 237 238 238 238 236
237 236 241 242 241 253 253 253 255 254 255 254 253 254 254 254 254 248 249 248 238 239
238 237 238 238 239 239 239 248 248 246 238 240 240 137 141 160 192 158  51 243 202  38
182 150  53 116 109 111 141 150 177 102 114 153 203 169  64 238 199  34 120 110 109  57
 63 130 216 180  67 226 186   0 207 185 136 223 216 199 234 222 189 254 213  80 231 190
 34 197 167  83 245 207  40 188 160  77  75 102 152 117 121 145 171 142  61 230 192   0
237 201  55 181 157  91 145 128 112 244 209  90 248 232 185 249 251 250 252 253 254 243
243 244 230 232 235 248 249 249 246 246 245 237 237 237 238 237 238 237 237 237 237 238
237 249 250 249 255 255 255 255 254 254 255 255 254 253 254 253 240 241 241 237 237 236
238 238 238 238 238 238
254 254 255 254 254 255 254 255 255 251 250 250 238 238 238 237 236 237 237 237 237 235
236 235 240 241 241 254 253 253 255 254 255 255 254 254 255 255 255 249 248 248 237 236
237 237 237 238 214 216 219 209 211 214 243 244 243 216 221 231 117 115 134 222 183  36
253 210   0 231 191   0 176 143  44  85  72  96 173 145  77 255 213  19 222 184  46 129
110  99 224 184  19 255 226 125 212 208 200 104 119 159 155 163 183 241 223 183 246 204
 61 247 203   0 252 209   0 185 155  69 113  94  81 215 176   0 245 209  24 208 176  65
212 176  55 148 126  93 194 165  77 246 226 160 227 229 235 213 216 228 187 188 197 130
134 155 191 194 203 250 250 251 244 244 244 234 234 234 237 236 237 236 236 236 237 237
237 250 250 250 255 255 255 254 254 254 255 255 255 253 253 253 241 240 241 236 235 236
236 236 237 236 237 236
254 254 255 254 254 255 254 255 255 252 252 252 247 246 247 246 245 246 245 246 245 248
247 247 252 251 250 253 251 252 251 251 252 250 251 252 251 252 253 252 252 251 249 248
248 250 249 249 219 220 225  94 103 135 113 117 142 170 172 188  68  91 147 124 103  82
244 205  74 255 219  85 248 218 111 227 204 143 217 196 144 248 222 150 253 213  81 231
186   0 247 213 122 218 212 201 146 144 155 206 167   0 158 131  85 165 171 191 247 221
154 254 210  70 249 209  83 235 201 104 247 213 109 247 212 103 172 155 125 193 185 169
233 213 163 124 115 114 166 149 107 167 167 172 131 132 152 112 101  99  25  28  79 152
156 171 244 244 243 251 249 249 247 245 245 246 246 246 245 245 246 245 245 245 245 245
245 244 244 244 244 244 244 245 245 245 246 246 246 246 246 246 246 245 246 246 245 246
246 246 247 246 246 247
254 255 255 254 255 255 254 254 255 254 255 255 254 254 254 255 255 255 255 255 255 248
250 253 237 240 245 215 218 229 195 200 214 184 193 208 188 195 210 213 217 227 244 246
249 255 255 255 251 251 251 187 190 202  74  69  91 162 131  38 165 148 115 163 168 184
214 205 191 214 206 192 189 191 193 194 195 197 211 211 209 171 180 199 228 214 183 255
229 136 220 213 193 116 128 162 179 150  78 193 161  81 137 133 141 192 197 210 247 240
219 225 211 182 210 202 186 215 206 189 215 209 193 151 172 193  54  94 157 149 151 168
187 193 205 161 162 170 126 102  67 182 151  65 216 181  63 152 131  82 141 145 164 231
233 235 239 241 243 237 238 242 247 248 251 251 252 254 255 255 255 255 255 255 255 255
255 245 245 243 237 237 236 237 237 237 236 235 236 238 237 237 251 251 251 255 255 255
254 254 254 254 254 254
254 255 255 254 255 255 254 255 255 254 255 254 254 255 254 251 251 252 228 230 236 172
178 195 141 140 148 157 139 117 168 143  94 169 143  82 164 138  88 137 121 108 143 148
167 224 227 233 255 255 255 248 249 252 180 185 198 210 197 162 238 232 199 165 171 186
134 133 149 162 146 130 159 139 103  84  98 133  88 109 153 116 105 100 145 148 165 230
231 228 178 186 200  42  48 111 122 112 118  92  83 123 118 129 162 205 211 219 187 193
205 107 114 145 162 141 117 141 129 122  45 123 184  64 125 172 195 162  78 188 153  58
126 138 161 229 214 179 248 215 118 241 221 167 220 209 185 180 185 199 212 217 227 167
170 182 135 136 150 164 164 176 169 174 191 183 190 205 226 229 233 233 234 238 233 237
242 237 241 244 243 244 244 242 242 243 237 237 237 237 238 237 250 251 250 255 255 255
255 255 254 255 255 254
255 255 255 255 255 255 254 255 255 254 255 255 250 251 251 191 194 204 130 125 130 189
157  65 224 185  14 239 197   0 246 202   2 249 205   0 250 207   0 239 197   0 176 142
 21 136 137 154 231 233 240 209 214 224 167 170 184 163 164 174 151 157 177  53  63 133
154 131  84 243 202   0 237 197   0 107  98 108 157 136  99 240 198   0 198 163  54 128
133 156 134 139 161 182 153  90 217 177  53 226 186  54 208 171  59 160 138 106  55  82
137 151 126  85 222 182  51 139 165 173   0 131 191 143 127 110 250 207   0 237 197   0
138 129 124 221 216 209 212 207 199 152 157 171 153 144 139 162 151 140 138 138 153  44
 55 124 160 135  78 208 172  45 190 156  48 147 128  87  94 106 142 104 111 137 139 138
140 151 151 161 163 165 182 213 215 223 242 242 241 237 238 237 249 250 250 255 255 255
255 254 255 255 255 255
253 253 253 254 253 254 253 253 253 252 252 251 245 244 245 156 163 182 104  91  85 242
204  41 255 213  33 247 204  43 249 205  44 232 194  65 222 187  73 249 207  49 246 203
  0 156 133  96 103 117 159 165 146 111 206 170  49 207 169  56 201 163  51 142 125 100
112 107 120 240 199  53 240 199  46 191 160  88 238 197  53 255 215  11 228 189  49 111
 98  96 199 165  71 247 205  38 203 173  95 196 166  95 252 206   0 224 184  48  68  69
109 134 120 107 156 181 190  97 168 212 173 154 111 208 171  56 247 206  50 246 204  18
164 142 107 108 126 170 158 144 123 213 177  48 216 180  40 230 188   1 221 180  11 142
125 103 124 116 115 240 200  47 255 214  12 226 188  40  69  71 107 114 105 106 226 188
 32 213 172   0 117  98  92 197 202 215 247 247 245 239 239 239 249 249 250 254 254 254
253 253 253 253 253 254
241 241 241 242 241 242 240 240 240 242 241 242 255 254 253 226 228 233  86 100 140 170
144  85 229 190  66 246 203  40 248 204   7 179 154  98  77 100 156 192 163 102 252 209
 17 172 146  95 156 132  85 236 197  26 198 166  82 219 182  60 255 210   0 234 195  44
149 130 103 200 167  86 246 203  32 244 201  38 249 206  30 224 186  65 119 111 124 149
133 115 246 204   0 199 170  98 113 138 187 163 152 137 228 189  58 145 124 103  65  77
135 126 168 203  82 172 226 175 162 135 246 198   0 242 201  44 245 202  44 250 206  25
176 149  92 126 111 101 237 198  10 197 168  85 175 151  97 246 204  38 238 200  60 222
184  59 139 122 105 221 186  77 253 211  39 246 205  40 157 139 102 154 137 109 254 213
 45 237 194   0 138 130 133 226 230 237 255 255 253 250 249 250 243 242 244 241 240 240
241 241 241 241 241 241
237 237 237 237 237 237 235 235 235 240 240 240 254 254 253 252 252 253 178 182 198  42
 53 126 148 129 110 245 204  51 253 209   0 200 169  86  57  95 159 193 166 107 240 199
 37 159 138  98 236 197  55 222 185  70  93  83 129 194 164  91 202 173  84 220 184  69
203 168  71 167 142  98 243 203  42 252 209  23 228 190  52 121 111 120   0  67 157 175
152 106 251 210   0 180 155 101 155 146 142 221 188  82 154 132  87  61  79 137 149 181
212 110 189 237 136 151 159 241 194   0 251 209  38 243 202  48 249 206  30 246 204  34
170 143  93 205 173  79 248 206  35 121 112 114  87  92 124 167 145 105 164 145 105 240
199  43 175 148  93 194 165  88 250 209  28 250 209  30 205 173  70 191 163  84 249 209
 32 208 173  53 149 153 172 228 232 237 252 252 252 253 253 254 241 241 240 235 236 235
236 237 236 237 236 236
238 238 238 238 237 238 237 236 236 241 241 240 252 253 252 254 255 255 249 248 248 183
188 204  70  80 121 221 185  62 255 211  25 227 189  59 192 162  87 238 197  38 173 145
 83 152 131 104 250 207  33 223 185  53  99  93 118  42  53 131 120 109 118 230 192  63
214 177  64 162 136  97 241 201  43 250 208  27 241 199  43 200 167  78 129 118 115 134
121 112 239 199  46 241 199  41 239 197  34 217 176   0 145 136 128 168 195 219 123 195
241  94 148 183 225 186  45 222 185  61 225 189  65 246 203  35 241 200  49 237 197  45
155 131 100 219 183  74 250 207  24 187 157  77  69  78 120  72  78 126 200 170  86 248
207  29 169 143  95 198 168  84 243 204  41 237 199  49 236 197  45 237 199  55 247 207
 21 173 146  74 180 186 203 247 249 251 254 254 253 252 252 252 241 242 241 236 237 236
238 238 238 238 238 238
237 237 237 237 237 237 235 235 235 241 241 240 254 254 254 254 254 254 255 255 255 239
240 242  89 105 145 176 148  75 251 208  41 248 206  32 238 197  33 179 154 100  59  77
136 147 126 104 248 206  45 248 206  31 215 180  60 185 156  90 224 188  70 252 212  27
187 159  86 184 156  90 245 203  34 198 167  79 208 172  69 249 206   9 245 202  32 163
139  95 171 145 100 244 203  48 239 195   0 184 167 136 183 204 226 139 200 242  69 148
199 213 179  80 254 213   0 165 146 100 163 141 102 227 190  65 180 155  95 234 194  48
164 139  94 193 162  89 254 211  22 246 204  35 223 187  59 227 192  63 255 213  28 233
195  54 147 128 104 227 191  62 216 183  71 202 171  83 247 207  40 251 211  44 239 200
 15 149 132 109 214 217 228 255 255 255 255 255 253 253 253 253 241 242 241 236 237 237
238 237 238 238 238 238
243 243 243 243 243 243 242 242 242 243 243 243 249 249 249 249 248 248 250 250 249 249
249 250 155 162 181 115  97  89 241 201  54 253 209  26 193 158  52 141 148 174 193 198
214  95  90 113 209 172  32 254 212  31 253 209  13 254 210   7 255 212   0 220 182  44
117 106 112 219 182  72 253 209   6 144 123 104  56  55 120 139 118  86 210 172  46 230
188  42 168 139  88 119 101  91 158 157 151 190 212 232 152 204 242  30 144 208 116 113
121 221 180   0 231 191  43 136 118 101  48  61 114 131 116 103 103  97 114 237 195  52
219 181  61 142 124 108 224 187  69 251 208  17 253 210   3 254 211   0 235 194  18 156
133 100 179 155  94 250 213  20 189 161  89 163 140 103 245 205  43 251 210  39 220 183
 29 146 143 153 237 239 245 255 255 253 250 250 249 250 250 250 240 240 240 237 237 237
238 238 238 238 238 238
254 254 254 254 254 254 254 254 254 251 250 250 239 239 239 237 236 236 237 237 237 247
246 244 207 209 215  76  72 113 213 177  67 255 215  41 210 172  39 152 153 168 244 239
229 170 168 170  95  86  91 197 166  69 226 187  56 221 181  34 190 159  73 119 114 130
 33  45 115 205 170  70 228 187  36 146 128 116 185 189 206 162 169 189  96 103 135 153
128  96 177 146  77 116 141 174 190 216 241 158 205 239  48 160 221  42 136 191  55 101
145  92 108 137  99 107 130 106 115 143 123 128 155  71  78 132  74  81 125 200 168  87
236 193  26 170 143  81  96  91 109 163 137  81 190 160  76 182 155  92 143 131 127  65
 71 130 202 172  82 246 210  30 157 136  95 120 110 115 243 205  59 253 212  26 193 159
 56 169 172 189 245 246 249 245 244 242 239 239 239 241 240 241 240 239 239 238 238 238
238 238 238 237 238 238
254 255 255 254 254 254 254 255 255 251 251 251 238 238 238 237 237 237 236 236 236 242
241 241 235 235 237 103 112 145 161 136  76 251 216  33 229 189   0 127 121 129 232 226
206 246 242 218 172 181 197  95 106 143  99 102 128 134 133 149 177 176 184 200 202 208
118 123 145  94  95 119  58  57 104  91 100 139 235 237 240 251 252 253 201 205 216  83
103 153  76 115 172 198 223 243 171 214 245  55 163 222  46 164 220   0 158 216 107 179
224 183 212 238  74 140 196 130 146 180 202 204 215 192 195 208 105 115 150  39  41 108
118 110 117 117 107 112  73  88 139 154 161 183 129 138 167 134 147 179 175 184 204  85
101 143  84  81 107 138 122 108  81  85 118  73  77 115 228 192  64 248 212   0 171 148
101 173 180 199 198 201 208 208 211 215 233 233 235 244 243 243 239 240 239 237 239 237
238 238 238 238 238 238
254 254 254 253 253 254 254 255 255 250 251 250 237 239 237 237 238 237 236 237 236 238
238 238 245 246 245 168 172 185  70  58  74 179 149  58 161 135  90 102 102 129 158 166
183 176 178 186 164 166 177 128 130 149  93 103 141 153 166 193 238 231 213 255 235 182
210 210 212  98 114 153  94  81  94 122 113 114 163 167 181 184 187 200 146 141 146 138
126 120 132 138 146 161 169 170 146 167 177  72 151 197   0 158 217  87 176 225 189 222
247 180 200 219 134 133 135 145 129 113 149 140 136 139 141 162 125 117 122  97  83  89
112 123 155 198 197 198 217 212 206 200 203 213 131 134 149 138 135 135 140 138 141 104
103 115  76  75 106  64  62 119 120 130 159  81  92 127 127 105  72 174 143  42 141 134
133 199 203 214 188 191 199 213 215 222 245 245 247 252 252 252 240 241 240 236 237 236
237 237 237 237 237 237
254 254 254 254 254 254 255 255 255 251 251 251 237 238 237 237 237 237 237 237 237 236
236 236 247 247 246 220 221 225 124 127 149 151 155 175 186 192 206 154 161 181 125 109
 96 190 157  57 211 175  54 226 189  55 217 181  61 153 130  90 162 162 169 245 235 203
189 188 191 157 134  94 237 199  41 239 200  45 150 125  82  67  59 103 215 178  37 245
203  16 238 197  42 241 195   0 208 170  67  65 138 183  83 177 229 183 216 243 180 193
203 200 171  89 238 195   0 244 202  25 233 191   9 166 138  68 223 186  56 233 195  30
146 134 122 227 221 208 247 238 212 134 136 150 199 165  46 236 197  23 230 191  25 234
196  52 240 201  51 202 168  56 141 142 155 202 204 212 166 170 186  98 107 142 163 167
181 246 246 247 251 251 251 251 251 252 255 255 255 254 254 254 241 242 241 236 236 236
237 237 237 237 237 237
246 246 246 246 246 246 246 246 246 246 246 246 246 247 247 247 247 247 247 247 247 247
247 247 247 247 247 243 243 244 236 236 237 243 244 243 238 240 243 164 166 181 197 163
 47 251 214   0 239 200  48 216 180  66 248 208  44 235 193   0 146 130 121 207 213 227
145 145 158 214 174   6 255 212  30 255 212  29 219 182  65 106  96 107 211 177  69 243
201  42 250 206  37 240 197  35 127 148 161  71 172 227 170 208 238 161 174 190 201 168
 73 249 205   0 249 207  46 242 200  43 228 188  50 190 160  78 245 205  51 249 206   0
158 133  93 211 213 220 234 235 237 127 123 127 231 191   0 255 212  41 238 199  53 233
196  59 243 204  50 207 171  41 143 143 157 241 242 247 253 253 254 243 244 246 246 247
247 249 249 248 246 246 246 246 245 246 246 246 245 246 246 246 247 246 247 247 246 247
248 247 247 247 247 247
237 236 236 236 237 237 236 236 236 241 240 241 253 253 253 255 255 255 254 254 254 255
255 255 250 250 250 238 238 239 239 239 239 243 242 240 245 245 246 166 169 186 189 157
 60 255 214  28 217 183  77 120 106 110 229 192  65 240 198  20 147 135 131 163 173 199
156 140 120 241 200   6 234 195  56 234 194  54 247 206  45 151 132 101  57  78 128 140
126 114 227 186  29 162 158 134  58 167 226 166 207 239 160 175 200  90  97 132 173 144
 82 248 207  46 246 204  40 169 143  92  78  85 123 147 127 105 245 205  47 244 201  11
158 136 106 216 213 206 236 229 216 135 130 135 230 190  29 253 209  40 196 167  83 141
128 103 141 124  90 105  98 114 179 182 196 178 178 185 193 194 201 241 242 244 252 252
252 244 243 244 236 236 236 236 236 236 236 236 236 237 237 237 251 251 251 255 255 255
254 254 254 255 254 254
238 238 238 238 238 238 236 236 236 241 240 240 253 253 253 254 255 254 254 255 255 255
255 255 250 250 250 238 239 238 235 237 236 238 238 237 245 244 244 175 181 199 172 145
 72 248 207  21 240 201  53 230 192  56 251 208  32 227 190  51 131 124 121  70  95 146
195 165  83 249 210  16 184 157  86 182 157  88 249 211  15 201 169  69  89 109 154 112
111 132 152 138 102  94 170 215 134 190 231 160 173 195 229 228 232 196 201 215 148 129
104 244 203  20 246 204  19 158 139 114 131 148 183 154 138 117 244 202  19 245 203  16
154 134 110 215 214 205 235 228 212 136 129 133 229 190  24 250 209  37 238 199  50 236
199  59 233 193  36 161 139 102 176 181 194 145 140 129  38  37  67  95 104 138 179 182
194 223 224 227 236 237 236 238 239 238 237 237 237 238 237 238 250 250 250 255 255 254
255 255 254 255 255 254
237 238 238 237 237 237 236 236 236 240 240 240 253 254 253 255 255 255 255 255 255 255
255 255 250 250 250 238 239 238 236 236 237 239 239 238 249 249 248 190 195 210 163 138
 82 247 207  12 245 205  50 199 168  76 205 172  72 250 208  35 215 181  66 102  93 102
225 188  62 251 209  26 203 175  79 204 175  82 250 208  33 235 196  54 123 110 107  32
 65 121  57 148 199 130 187 225 130 138 147 155 152 163 250 251 252 213 217 227 154 132
 99 245 202  10 244 203  12 166 148 117 162 171 194 160 144 119 242 200   2 246 205  31
147 128 100 134 147 175 150 159 186 122 113 119 234 196  35 247 208  38 221 186  62 216
182  76 219 182  58 146 128  96 185 192 204 199 201 208 174 177 188 170 173 187 174 178
190 193 197 204 228 230 230 239 240 239 236 236 236 237 238 237 250 251 251 255 255 255
255 255 255 255 255 255
239 239 239 239 239 239 237 238 238 241 242 242 252 252 252 253 253 254 253 253 253 253
254 253 249 250 249 239 240 239 239 239 239 244 243 243 245 246 246 195 201 212 159 138
 98 247 206  15 239 201  56 109 101 110 142 126 103 250 209  41 242 202  53 189 162  87
241 203  51 250 210  42 246 207  14 245 205   5 249 208  49 251 209  30 176 145  69  27
126 186 113 179 219 194 179 132 196 155   0 162 161 170 246 248 252 207 211 221 157 133
 97 245 205  29 246 206  31 166 148 114 149 160 186 164 146 118 244 202  23 248 207  48
211 179  75 188 158  74 171 144  82 156 137 102 238 200  59 249 208  39 197 167  84 157
134 105 156 133  94 115 103 100 188 190 201 248 249 251 252 252 253 251 251 251 248 249
249 242 243 242 239 239 239 240 239 240 238 239 238 239 240 239 250 251 250 254 254 254
253 253 253 253 253 253
251 251 251 251 251 251 251 252 252 249 249 249 242 241 241 240 240 240 241 241 240 240
241 240 243 243 242 251 250 251 252 252 252 228 228 232 179 182 191 177 184 199 161 142
117 246 204  11 252 210  44 231 193  60 241 201  49 247 208   0 206 172  56 204 174  70
250 214   8 225 189  45 157 132  93 150 128  97 219 183  54 247 207  24 155 162 155  24
139 198 189 171 118 251 212   0 203 167   7 150 152 167 247 248 252 209 213 225 148 124
 87 245 207   0 246 207   0 160 139 109 154 166 195 158 140 116 242 201   0 253 210  24
251 208  17 254 212   0 243 208   0 195 165  64 236 195  39 255 211  33 249 208  43 247
206  47 249 212  44 212 178  41 141 139 155 237 238 242 245 245 243 239 240 239 242 242
242 250 250 250 252 252 252 252 251 251 252 251 251 251 251 251 243 243 243 240 239 240
241 240 240 241 241 240
255 255 255 255 255 255 255 255 255 251 251 251 238 237 238 236 236 236 237 237 237 235
235 235 241 240 241 255 255 255 244 245 247 198 200 210 205 206 213 217 220 229 130 124
130 207 169   0 230 190  15 220 181  33 211 173  50 183 155  84 106 106 128 141 127 107
204 171  49 144 126 103 155 165 191 167 175 197 143 128 110 158 147 117  69 131 190  71
104 160 166 136  76 205 170  52 136 121 101 185 191 206 254 254 253 231 230 225 126 127
142 187 153  61 185 150  56 143 142 154 217 219 227 143 145 158 165 136  64 200 165  66
200 165  68 209 173  63 197 166  67 116 104 100 172 144  82 209 170  33 208 170  29 215
178  39 221 183  24 170 138  42 158 159 174 240 241 242 238 239 237 234 234 235 237 236
237 249 248 249 255 255 255 255 255 255 255 255 255 254 254 254 241 240 240 236 235 236
236 237 237 236 237 236
255 255 255 255 255 255 255 255 255 250 250 251 238 239 239 237 238 237 238 239 238 236
236 236 241 241 241 254 254 254 251 252 252 247 247 248 253 253 253 251 251 252 193 196
205 129 130 143 134 134 145 143 146 166 155 159 173 161 169 188 202 202 203 195 193 190
149 155 175 183 183 193 245 228 176 248 231 166 155 163 179  67 117 176 175 180 191 222
217 204 181 184 191 146 151 172 189 189 192 246 248 247 254 252 242 251 228 163 218 210
191 157 164 183 157 164 182 220 212 195 254 231 163 221 212 190 163 169 188 161 165 180
162 166 178 152 157 175 164 166 178 188 189 192 169 174 187 154 159 177 154 154 168 152
152 165 143 142 158 156 158 176 226 227 231 243 244 242 237 238 237 238 237 238 239 238
238 249 249 249 255 255 255 254 254 254 255 254 255 253 253 253 241 241 240 236 237 236
238 238 238 238 238 238
255 255 255 255 255 255 255 255 255 251 252 251 237 239 238 235 237 236 237 237 237 236
235 235 241 241 241 254 254 254 255 255 255 255 255 255 255 255 255 250 251 250 242 244
242 230 234 239 228 232 241 244 232 203 219 206 169 149 151 159 201 178 113 204 188 151
196 188 175 246 219 139 255 218  51 226 192  59 147 141 139 217 196 146 254 225 138 255
221 103 248 222 148 243 221 163 250 219 128 253 242 212 252 248 234 247 208  84 250 214
 94 249 228 163 246 225 163 250 215 105 248 205  10 255 218  92 250 226 153 245 224 163
245 223 157 207 195 168 173 175 176 245 218 129 250 224 146 242 240 230 245 248 252 245
246 248 243 244 248 247 248 250 247 247 246 236 237 236 236 237 236 236 237 236 237 238
237 250 250 250 255 255 255 255 255 255 255 255 255 254 254 254 241 241 240 235 236 235
237 237 237 237 237 237
249 249 249 249 249 249 249 249 249 248 248 248 243 244 243 242 242 242 242 242 242 242
242 241 244 244 243 249 249 249 249 249 249 249 249 249 249 249 249 246 247 245 243 244
243 247 247 248 253 237 203 240 204  84 127 103  61  61  62 101 109  99 111  84  71 103
211 177  64 255 216   0 229 192  19 113 100  98 139 119  99 251 212  43 244 205  37 222
184  19 247 205  33 253 209  38 247 202  31 248 228 177 254 242 212 240 201  78 173 144
 65 216 182  66 255 212  31 248 206   0 211 178  65 209 175  53 243 204  16 253 210  43
254 212  46 238 199  53 128 108  85 175 149  95 253 217  82 252 221 127 252 243 224 252
253 253 252 252 251 251 251 249 244 245 244 243 242 242 243 243 243 242 243 242 243 244
243 247 248 247 249 249 249 249 248 249 249 249 249 249 249 249 243 244 244 242 242 242
242 242 242 242 243 242
237 237 237 237 237 237 236 236 236 241 241 241 253 252 253 254 253 254 254 254 254 254
254 254 250 250 250 239 238 239 237 236 237 237 237 237 237 237 236 243 243 243 252 252
253 253 247 233 248 229 183 179 168 152 121 127 156 188 190 201 146 155 184 145 125  95
243 206   0 214 180  47 121 110 114  24  64 140 178 153  88 246 210  24 164 140  87 154
132  97 247 207  41 237 199  40 240 199  34 248 221 146 255 233 178 231 192  69  87  82
104  77  77 110 199 168  73 251 213  29 204 174  81  75  68 119 137 116  88 203 168  42
241 201  33 255 215  30 219 181  38 101 104 127 215 214 211 253 236 197 240 218 170 239
233 221 237 238 239 236 237 236 248 248 248 254 254 254 254 254 254 254 254 254 253 253
253 243 243 242 237 236 237 237 237 237 237 237 237 238 238 238 251 250 251 254 254 254
254 254 254 254 254 254
237 237 237 237 237 237 236 236 236 241 240 241 254 253 253 255 255 255 255 255 255 255
255 255 250 250 250 239 238 238 237 237 237 237 237 237 236 236 236 243 243 243 254 254
254 255 254 247 245 246 245 226 230 240 244 244 246 230 231 235 139 139 152 205 175  62
184 155  58 110 109 132 187 192 212 159 161 178 195 166  55 190 160  66  63  66 135 135
121 113 225 190  61 159 139  96 226 189  50 252 215  88 252 218 115 207 173  72 142 122
 94 190 161  67 112 101 105 186 157  81 222 185  45 115 112 131 155 164 189 134 138 157
135 115  89 200 166  42 245 208  31 195 164  64 132 141 169 232 237 244 243 241 236 237
235 229 237 238 238 237 237 238 249 248 248 255 255 255 255 255 255 255 255 255 254 254
254 243 242 242 236 236 236 237 238 237 237 237 237 238 238 238 251 250 251 255 255 255
255 255 255 255 255 255
238 238 238 237 237 238 236 236 237 241 241 241 253 253 253 254 255 254 254 255 254 255
255 255 250 250 250 238 239 238 237 239 237 237 239 238 237 237 236 244 243 243 254 254
254 254 255 255 253 254 255 255 255 255 254 254 254 183 187 197  91  82  80 129 112  79
127 131 159 222 223 231 246 247 249 149 149 160 129 108  53 136 135 149 195 199 213 134
133 137 126 112  87  69  63 113 203 171  78 253 212  30 249 208   0 175 148  80 166 166
171 250 226 136 220 183  44 125 114 115 132 112  76 120 111 113 218 219 225 238 239 243
190 195 209 124 130 154 143 125  96 198 163  34 131 106  62 162 166 183 242 244 245 241
242 241 235 236 237 237 237 238 248 248 248 255 255 255 254 255 254 255 254 255 254 253
254 242 242 242 236 238 236 238 239 238 237 238 237 238 238 238 250 250 250 255 255 255
254 255 255 255 255 255
237 237 237 237 237 237 236 236 236 241 241 241 253 253 253 254 254 254 254 254 254 254
254 254 250 251 250 238 239 238 237 239 238 238 238 238 236 237 237 243 243 243 253 253
253 254 254 254 254 253 253 255 255 255 237 239 240  99 107 138  46  50 101 161 166 183
228 230 232 255 255 255 236 238 240  77  87 122  69  80 124 226 228 233 246 247 247 114
123 149  72  79 108 142 143 150 166 143  98 248 209  34 244 207   4 149 127  84 194 202
220 252 251 237 255 220 105 227 207 154 132 144 172  43  52 100 191 192 197 253 253 251
254 254 255 241 242 246 195 200 214 142 143 158  99  89  95  43  44  97 193 195 203 245
245 243 238 238 237 236 237 236 248 249 248 254 254 254 254 254 254 254 254 254 253 253
253 242 243 242 236 238 237 238 238 238 237 237 237 238 239 238 251 251 251 254 254 254
254 254 254 254 254 254
248 248 248 248 248 248 248 247 247 247 247 247 245 245 245 245 245 245 244 244 244 244
244 244 245 245 245 247 248 247 248 249 248 248 248 248 248 248 248 246 247 247 244 245
245 244 244 244 246 245 245 249 249 248 184 187 196 100 106 139 207 209 217 249 250 250
252 251 249 251 252 250 208 209 215  83  87 128 197 199 207 254 254 253 244 245 243 158
154 150 194 177 137 222 219 215 127 121 126 236 197  16 239 201  34 128 118 115 213 216
225 249 251 254 244 233 205 253 236 189 242 243 242 165 168 183 173 175 185 246 247 247
246 247 246 248 247 246 251 250 249 234 237 239 197 200 208 124 130 155  91  99 132 217
218 221 251 252 251 248 248 248 245 245 245 244 244 244 244 244 244 244 245 244 244 245
244 246 248 247 248 248 248 249 248 248 248 248 248 247 248 247 245 245 245 244 244 244
244 244 244 244 244 244
255 255 255 255 254 254 255 255 255 251 251 252 238 238 239 236 236 237 237 237 237 236
236 236 241 241 241 254 254 253 255 255 255 255 254 255 255 255 255 249 249 249 238 237
238 237 236 237 241 240 240 228 230 231 182 184 196 228 229 233 255 255 255 255 255 255
255 255 255 248 249 249 190 192 200 189 189 200 243 242 241 239 241 241 245 244 242 229
205 152 248 229 185 244 246 247 134 138 159 211 175  23 225 186  41 130 130 149 226 227
232 241 241 239 241 242 242 252 250 242 255 255 254 247 247 249 231 232 235 244 245 245
237 237 237 236 235 236 239 238 238 242 241 239 245 244 243 241 241 243 203 204 212 194
196 204 248 249 250 255 255 255 244 242 244 236 235 236 237 236 237 236 236 236 237 237
237 250 250 250 255 255 255 255 254 254 255 255 255 253 253 253 241 241 241 236 235 236
237 236 237 237 237 237
255 255 255 255 255 255 255 255 255 251 250 251 239 238 239 237 238 238 238 239 238 237
236 236 242 241 242 254 253 254 255 254 255 255 254 254 255 255 255 249 248 249 239 237
239 239 238 238 239 239 238 233 234 234 241 241 242 255 255 255 254 253 254 253 253 254
255 255 255 247 246 247 227 227 230 238 238 238 240 240 239 237 239 240 247 246 242 252
229 177 254 245 226 247 250 254 173 178 195 174 145  68 194 161  50 154 156 174 238 238
240 241 240 238 242 242 243 254 254 255 253 253 254 255 255 255 255 255 255 247 247 247
238 237 238 238 238 239 238 238 238 237 237 236 237 236 237 249 248 249 253 253 254 246
247 248 251 251 251 254 254 254 244 243 244 237 237 237 238 238 238 237 237 237 238 237
238 249 249 249 255 255 255 255 255 254 255 255 255 253 253 253 241 241 241 236 237 237
238 238 238 238 238 238
255 255 255 255 255 255 255 255 255 251 251 251 238 238 238 237 238 237 238 238 237 236
236 235 242 241 241 254 254 254 255 255 255 255 255 255 255 255 255 249 249 249 238 238
237 238 238 237 237 238 237 237 237 236 246 246 246 254 254 254 254 255 255 255 255 255
255 255 255 247 247 247 239 239 238 239 239 238 237 237 237 237 238 239 248 246 244 253
245 225 253 252 247 254 255 255 218 220 228 134 121 113 133 113  74 178 182 192 241 242
242 239 238 237 242 242 242 254 254 254 255 255 255 254 255 254 255 255 255 248 248 248
237 237 237 238 238 237 239 239 238 238 238 238 236 236 236 245 245 245 255 255 255 255
255 255 255 255 255 254 254 254 244 244 243 237 237 236 237 238 237 236 237 237 236 236
237 249 249 249 255 255 255 255 255 255 255 255 255 254 253 254 241 242 241 236 237 236
237 238 237 237 237 237
253 253 253 253 253 253 253 253 253 250 251 250 240 241 240 239 240 239 240 241 239 239
239 239 244 244 243 252 252 252 253 253 253 253 253 253 253 253 253 248 249 248 239 240
239 239 240 239 239 240 240 239 239 239 244 245 244 252 253 252 252 253 253 253 253 253
253 253 253 247 248 247 238 240 238 239 240 240 240 240 240 240 239 239 247 247 247 252
253 253 251 251 251 255 255 255 243 244 245 118 122 147  50  55 107 209 211 216 246 246
245 239 239 239 244 244 244 252 253 252 253 253 253 253 253 253 253 253 253 247 247 247
239 240 239 240 241 239 240 240 240 240 239 240 239 240 239 246 247 246 253 253 253 252
252 252 253 252 253 252 253 253 244 245 244 239 240 239 240 240 240 239 239 239 240 241
239 249 250 249 253 253 253 253 253 253 253 253 253 252 252 252 242 244 242 239 240 239
239 240 239 239 239 239
240 240 240 240 240 240 239 239 239 242 243 242 251 251 251 252 252 252 252 252 252 253
253 253 249 249 249 240 241 240 240 240 240 241 240 241 240 239 239 244 244 244 252 252
252 252 252 252 252 252 252 252 253 252 247 248 247 240 241 240 239 240 240 240 240 240
239 240 239 245 246 245 252 252 252 252 252 252 252 252 252 252 252 252 245 246 245 240
240 240 239 239 239 243 242 242 244 244 243 157 160 175  86  96 135 236 237 240 255 255
255 251 251 252 248 248 248 240 241 240 240 240 240 240 240 240 239 239 239 245 245 245
252 252 252 252 252 252 252 252 252 252 252 252 252 252 252 247 247 246 240 240 239 240
240 240 239 239 240 239 240 239 247 248 247 253 253 253 252 252 252 252 252 252 252 252
252 244 245 243 239 240 239 240 240 240 240 240 240 240 241 240 249 250 249 253 253 253
252 252 252 252 252 252
237 237 237 237 237 237 236 236 236 240 240 240 254 254 254 255 255 255 255 255 255 255
255 255 250 250 250 238 237 238 238 237 237 237 237 237 235 236 236 243 243 243 254 254
254 255 254 255 255 255 255 255 255 255 248 248 248 237 237 237 237 237 237 237 237 236
236 237 235 246 246 245 255 255 255 255 254 255 255 255 255 254 255 254 245 245 245 237
237 236 237 237 237 238 238 238 244 245 243 203 205 210 148 151 167 244 244 245 255 255
255 254 254 254 248 249 249 238 237 238 238 237 238 237 237 237 236 236 236 244 245 244
254 254 254 255 254 255 255 255 255 255 255 255 255 255 255 247 246 247 237 236 237 237
237 237 237 237 237 236 236 237 248 248 248 255 255 255 255 254 255 255 255 255 254 254
254 242 242 242 236 235 236 237 237 237 237 237 236 238 237 238 251 250 251 255 255 255
255 255 255 255 255 255
238 238 238 238 239 238 236 237 237 241 241 241 253 253 253 255 254 254 255 254 254 255
255 255 250 250 250 239 238 239 238 238 238 239 239 239 237 237 238 243 243 244 254 253
254 255 254 254 255 255 255 254 254 255 248 248 248 238 237 238 239 238 239 239 239 238
238 238 237 246 245 246 254 254 254 255 254 254 255 255 254 254 254 254 245 245 246 238
237 238 239 238 238 239 239 239 242 242 241 231 231 233 206 207 214 248 249 249 255 255
255 254 254 254 249 248 249 239 237 239 238 237 238 239 238 238 238 237 238 245 244 245
254 254 254 255 254 254 255 254 254 255 254 254 254 254 254 247 246 247 238 238 238 238
239 239 238 238 238 238 237 238 248 247 248 255 254 255 254 254 254 255 254 255 254 253
254 243 242 242 237 237 237 238 239 238 237 236 237 239 237 238 251 250 251 255 255 255
255 254 254 255 255 254
237 237 237 237 238 237 235 236 236 241 240 241 253 254 254 255 255 255 255 255 255 255
255 255 250 250 250 238 238 238 237 237 236 238 238 238 237 236 237 243 243 243 254 254
254 255 255 255 255 255 255 255 255 255 248 248 248 237 237 237 238 238 237 238 238 238
236 236 236 246 246 246 254 254 254 255 255 255 255 255 255 254 254 254 245 245 245 236
236 236 238 238 238 238 238 238 237 236 237 245 245 245 251 251 252 254 254 254 255 255
255 255 255 255 249 248 249 237 237 237 237 238 237 237 238 238 236 236 236 245 245 245
254 254 254 255 255 255 255 255 255 255 255 255 254 254 254 246 247 246 236 237 236 238
238 238 238 237 237 237 237 237 248 248 248 255 255 255 255 255 255 255 255 255 254 254
254 242 242 242 236 237 236 237 238 237 236 235 236 238 238 238 251 251 251 255 255 255
255 255 255 255 255 255
243 244 244 244 244 244 243 243 243 244 244 244 248 249 248 249 249 249 248 248 248 248
249 249 247 247 247 243 244 243 243 244 243 244 244 244 244 243 244 245 246 245 248 249
248 249 249 249 248 248 248 249 249 249 247 247 247 243 244 243 244 244 244 244 244 244
243 243 243 246 247 246 248 249 248 248 249 249 248 248 249 248 248 249 246 246 245 243
244 243 244 245 244 244 244 244 243 243 243 247 247 247 250 251 250 249 249 249 248 248
248 248 248 248 246 246 246 243 244 243 244 245 244 244 244 244 243 243 243 246 246 246
248 249 248 248 249 248 248 248 248 248 248 248 248 249 248 246 247 246 243 244 243 244
244 244 244 244 244 243 244 243 246 247 246 248 249 248 248 248 248 249 248 248 248 248
248 244 245 244 243 244 242 243 243 244 244 244 244 244 245 244 247 248 247 248 249 248
248 248 248 248 248 248
